SpeedLens/Resources/LUTS/1dezinho.CUBE
TITLE "D111"
LUT_1D_SIZE 4096
# mcpro24fps HLG100 > Rec709 / Size 4096
0 0 0
0 0 0
0 0 0
0 0 0
0 0 0
0 0 0
0 0 0
0 0 0
0 0 0
0 0 0
0 0 0
0 0 0
0 0 0
0 0 0
0 0 0
0 0 0
0 0 0
0 0 0
0 0 0
0 0 0
0 0 0
0 0 0
0 0 0
0 0 0
0 0 0
0 0 0
0 0 0
0 0 0
0 0 0
0 0 0
0 0 0
0 0 0
0 0 0
0 0 0
0 0 0
0 0 0
0 0 0
0 0 0
0 0 0
0 0 0
0 0 0
0 0 0
0 0 0
0 0 0
0 0 0
0 0 0
0 0 0
0 0 0
0 0 0
0 0 0
0 0 0
0 0 0
0 0 0
0 0 0
0 0 0
0 0 0
0 0 0
0 0 0
0 0 0
0 0 0
0 0 0
0 0 0
0 0 0
0 0 0
0 0 0
0 0 0
0 0 0
0 0 0
0 0 0
0 0 0
0 0 0
0 0 0
0 0 0
0 0 0
0 0 0
0 0 0
0 0 0
0 0 0
0 0 0
0 0 0
0 0 0
0 0 0
9.3138940963346E-10 9.3138940963346E-10 9.3138940963346E-10
1.1269811856564E-7 1.1269811856564E-7 1.1269811856564E-7
4.1074272964831E-7 4.1074272964831E-7 4.1074272964831E-7
8.9506522265766E-7 8.9506522265766E-7 8.9506522265766E-7
1.5656655975937E-6 1.5656655975937E-6 1.5656655975937E-6
2.4225438544564E-6 2.4225438544564E-6 2.4225438544564E-6
3.4656999932457E-6 3.4656999932457E-6 3.4656999932457E-6
4.6951340139618E-6 4.6951340139618E-6 4.6951340139618E-6
6.1108459166045E-6 6.1108459166045E-6 6.1108459166045E-6
7.7128357011739E-6 7.7128357011739E-6 7.7128357011739E-6
9.50110336767E-6 9.50110336767E-6 9.50110336767E-6
1.1475648916093E-5 1.1475648916093E-5 1.1475648916093E-5
1.3636472346442E-5 1.3636472346442E-5 1.3636472346442E-5
1.5983573658718E-5 1.5983573658718E-5 1.5983573658718E-5
1.8516952852921E-5 1.8516952852921E-5 1.8516952852921E-5
2.123660992905E-5 2.123660992905E-5 2.123660992905E-5
2.4142544887106E-5 2.4142544887106E-5 2.4142544887106E-5
2.7234757727089E-5 2.7234757727089E-5 2.7234757727089E-5
3.0513248448999E-5 3.0513248448999E-5 3.0513248448999E-5
3.3978017052835E-5 3.3978017052835E-5 3.3978017052835E-5
3.7629063538598E-5 3.7629063538598E-5 3.7629063538598E-5
4.1466387906287E-5 4.1466387906287E-5 4.1466387906287E-5
4.5489990155903E-5 4.5489990155903E-5 4.5489990155903E-5
4.9699870287446E-5 4.9699870287446E-5 4.9699870287446E-5
5.4096028300915E-5 5.4096028300915E-5 5.4096028300915E-5
5.8678464196312E-5 5.8678464196312E-5 5.8678464196312E-5
6.3447177973634E-5 6.3447177973634E-5 6.3447177973634E-5
6.8402169632884E-5 6.8402169632884E-5 6.8402169632884E-5
7.354343917406E-5 7.354343917406E-5 7.354343917406E-5
7.8870986597163E-5 7.8870986597163E-5 7.8870986597163E-5
8.4384811902192E-5 8.4384811902192E-5 8.4384811902192E-5
9.0084915089149E-5 9.0084915089149E-5 9.0084915089149E-5
9.5971296158032E-5 9.5971296158032E-5 9.5971296158032E-5
0.00010204395510884 0.00010204395510884 0.00010204395510884
0.00010830289194158 0.00010830289194158 0.00010830289194158
0.00011474810665624 0.00011474810665624 0.00011474810665624
0.00012137959925283 0.00012137959925283 0.00012137959925283
0.00012819736973135 0.00012819736973135 0.00012819736973135
0.00013520141809179 0.00013520141809179 0.00013520141809179
0.00014239174433416 0.00014239174433416 0.00014239174433416
0.00014976834845845 0.00014976834845845 0.00014976834845845
0.00015733123046468 0.00015733123046468 0.00015733123046468
0.00016508039035283 0.00016508039035283 0.00016508039035283
0.0001730158281229 0.0001730158281229 0.0001730158281229
0.00018113754377491 0.00018113754377491 0.00018113754377491
0.00018944553730884 0.00018944553730884 0.00018944553730884
0.00019793980872469 0.00019793980872469 0.00019793980872469
0.00020662035802248 0.00020662035802248 0.00020662035802248
0.00021548718520218 0.00021548718520218 0.00021548718520218
0.00022454029026382 0.00022454029026382 0.00022454029026382
0.00023377967320738 0.00023377967320738 0.00023377967320738
0.00024320533403287 0.00024320533403287 0.00024320533403287
0.00025281727274029 0.00025281727274029 0.00025281727274029
0.00026261548932963 0.00026261548932963 0.00026261548932963
0.0002725999838009 0.0002725999838009 0.0002725999838009
0.0002827707561541 0.0002827707561541 0.0002827707561541
0.00029312780638922 0.00029312780638922 0.00029312780638922
0.00030367113450627 0.00030367113450627 0.00030367113450627
0.00031440074050525 0.00031440074050525 0.00031440074050525
0.00032531662438615 0.00032531662438615 0.00032531662438615
0.00033641878614898 0.00033641878614898 0.00033641878614898
0.00034770722579374 0.00034770722579374 0.00034770722579374
0.00035918194332042 0.00035918194332042 0.00035918194332042
0.00037084293872903 0.00037084293872903 0.00037084293872903
0.00038269021201957 0.00038269021201957 0.00038269021201957
0.00039472376319203 0.00039472376319203 0.00039472376319203
0.00040694359224642 0.00040694359224642 0.00040694359224642
0.00041934969918274 0.00041934969918274 0.00041934969918274
0.00043194208400098 0.00043194208400098 0.00043194208400098
0.00044472074670115 0.00044472074670115 0.00044472074670115
0.00045768568728325 0.00045768568728325 0.00045768568728325
0.00047083690574727 0.00047083690574727 0.00047083690574727
0.00048417440209322 0.00048417440209322 0.00048417440209322
0.00049769817632109 0.00049769817632109 0.00049769817632109
0.0005114082284309 0.0005114082284309 0.0005114082284309
0.00052530455842263 0.00052530455842263 0.00052530455842263
0.00053938716629628 0.00053938716629628 0.00053938716629628
0.00055365605205187 0.00055365605205187 0.00055365605205187
0.00056811121568938 0.00056811121568938 0.00056811121568938
0.00058275265720881 0.00058275265720881 0.00058275265720881
0.00059758037661018 0.00059758037661018 0.00059758037661018
0.00061259437389347 0.00061259437389347 0.00061259437389347
0.00062779464905868 0.00062779464905868 0.00062779464905868
0.00064318120210583 0.00064318120210583 0.00064318120210583
0.0006587540330349 0.0006587540330349 0.0006587540330349
0.00067451314184589 0.00067451314184589 0.00067451314184589
0.00069045852853882 0.00069045852853882 0.00069045852853882
0.00070659019311367 0.00070659019311367 0.00070659019311367
0.00072290813557044 0.00072290813557044 0.00072290813557044
0.00073941235590914 0.00073941235590914 0.00073941235590914
0.00075610285412978 0.00075610285412978 0.00075610285412978
0.00077297963023233 0.00077297963023233 0.00077297963023233
0.00079004268421682 0.00079004268421682 0.00079004268421682
0.00080729201608322 0.00080729201608322 0.00080729201608322
0.00082472762583156 0.00082472762583156 0.00082472762583156
0.00084234951346182 0.00084234951346182 0.00084234951346182
0.00086015767897401 0.00086015767897401 0.00086015767897401
0.00087815212236813 0.00087815212236813 0.00087815212236813
0.00089633284364417 0.00089633284364417 0.00089633284364417
0.00091469984280214 0.00091469984280214 0.00091469984280214
0.00093325311984204 0.00093325311984204 0.00093325311984204
0.00095199267476386 0.00095199267476386 0.00095199267476386
0.00097091850756761 0.00097091850756761 0.00097091850756761
0.00099003061825329 0.00099003061825329 0.00099003061825329
0.0010093290068209 0.0010093290068209 0.0010093290068209
0.0010288136732704 0.0010288136732704 0.0010288136732704
0.0010484846176019 0.0010484846176019 0.0010484846176019
0.0010683418398153 0.0010683418398153 0.0010683418398153
0.0010883853399106 0.0010883853399106 0.0010883853399106
0.0011086151178878 0.0011086151178878 0.0011086151178878
0.001129031173747 0.001129031173747 0.001129031173747
0.0011496335074881 0.0011496335074881 0.0011496335074881
0.0011704221191111 0.0011704221191111 0.0011704221191111
0.001191397008616 0.001191397008616 0.001191397008616
0.0012125581760029 0.0012125581760029 0.0012125581760029
0.0012339056212717 0.0012339056212717 0.0012339056212717
0.0012554393444224 0.0012554393444224 0.0012554393444224
0.0012771593454551 0.0012771593454551 0.0012771593454551
0.0012990656243696 0.0012990656243696 0.0012990656243696
0.0013211581811661 0.0013211581811661 0.0013211581811661
0.0013434370158446 0.0013434370158446 0.0013434370158446
0.0013659021284049 0.0013659021284049 0.0013659021284049
0.0013885535188472 0.0013885535188472 0.0013885535188472
0.0014113911871714 0.0014113911871714 0.0014113911871714
0.0014344151333776 0.0014344151333776 0.0014344151333776
0.0014576253574656 0.0014576253574656 0.0014576253574656
0.0014810218594356 0.0014810218594356 0.0014810218594356
0.0015046046392875 0.0015046046392875 0.0015046046392875
0.0015283736970214 0.0015283736970214 0.0015283736970214
0.0015523290326371 0.0015523290326371 0.0015523290326371
0.0015764706461348 0.0015764706461348 0.0015764706461348
0.0016007985375145 0.0016007985375145 0.0016007985375145
0.001625312706776 0.001625312706776 0.001625312706776
0.0016500131539195 0.0016500131539195 0.0016500131539195
0.0016748998789449 0.0016748998789449 0.0016748998789449
0.0016999728818522 0.0016999728818522 0.0016999728818522
0.0017252321626415 0.0017252321626415 0.0017252321626415
0.0017506777213127 0.0017506777213127 0.0017506777213127
0.0017763095578658 0.0017763095578658 0.0017763095578658
0.0018021276723008 0.0018021276723008 0.0018021276723008
0.0018281320646178 0.0018281320646178 0.0018281320646178
0.0018543227348167 0.0018543227348167 0.0018543227348167
0.0018806996828975 0.0018806996828975 0.0018806996828975
0.0019072629088602 0.0019072629088602 0.0019072629088602
0.0019340124127049 0.0019340124127049 0.0019340124127049
0.0019609481944315 0.0019609481944315 0.0019609481944315
0.00198807025404 0.00198807025404 0.00198807025404
0.0020153785915305 0.0020153785915305 0.0020153785915305
0.0020428732069028 0.0020428732069028 0.0020428732069028
0.0020705541001572 0.0020705541001572 0.0020705541001572
0.0020984212712934 0.0020984212712934 0.0020984212712934
0.0021264747203115 0.0021264747203115 0.0021264747203115
0.0021547144472116 0.0021547144472116 0.0021547144472116
0.0021831404519936 0.0021831404519936 0.0021831404519936
0.0022117527346576 0.0022117527346576 0.0022117527346576
0.0022405512952034 0.0022405512952034 0.0022405512952034
0.0022695361336312 0.0022695361336312 0.0022695361336312
0.0022987072499409 0.0022987072499409 0.0022987072499409
0.0023280646441326 0.0023280646441326 0.0023280646441326
0.0023576083162062 0.0023576083162062 0.0023576083162062
0.0023873382661617 0.0023873382661617 0.0023873382661617
0.0024172544939991 0.0024172544939991 0.0024172544939991
0.0024473569997184 0.0024473569997184 0.0024473569997184
0.0024776457833197 0.0024776457833197 0.0024776457833197
0.0025081208448029 0.0025081208448029 0.0025081208448029
0.002538782184168 0.002538782184168 0.002538782184168
0.0025696298014151 0.0025696298014151 0.0025696298014151
0.0026006636965441 0.0026006636965441 0.0026006636965441
0.002631883869555 0.002631883869555 0.002631883869555
0.0026632903204478 0.0026632903204478 0.0026632903204478
0.0026948830492226 0.0026948830492226 0.0026948830492226
0.0027266620558793 0.0027266620558793 0.0027266620558793
0.0027586273404179 0.0027586273404179 0.0027586273404179
0.0027907789028384 0.0027907789028384 0.0027907789028384
0.0028231167431409 0.0028231167431409 0.0028231167431409
0.0028556408613253 0.0028556408613253 0.0028556408613253
0.0028883512573916 0.0028883512573916 0.0028883512573916
0.0029212479313399 0.0029212479313399 0.0029212479313399
0.0029543308831701 0.0029543308831701 0.0029543308831701
0.0029876001128822 0.0029876001128822 0.0029876001128822
0.0030210556204762 0.0030210556204762 0.0030210556204762
0.0030546974059521 0.0030546974059521 0.0030546974059521
0.00308852546931 0.00308852546931 0.00308852546931
0.0031225398105498 0.0031225398105498 0.0031225398105498
0.0031567404296716 0.0031567404296716 0.0031567404296716
0.0031911273266752 0.0031911273266752 0.0031911273266752
0.0032257005015608 0.0032257005015608 0.0032257005015608
0.0032604599543284 0.0032604599543284 0.0032604599543284
0.0032954056849778 0.0032954056849778 0.0032954056849778
0.0033305376935092 0.0033305376935092 0.0033305376935092
0.0033658559799225 0.0033658559799225 0.0033658559799225
0.0034013605442177 0.0034013605442177 0.0034013605442177
0.0034370513863948 0.0034370513863948 0.0034370513863948
0.0034729285064539 0.0034729285064539 0.0034729285064539
0.0035089919043949 0.0035089919043949 0.0035089919043949
0.0035452415802178 0.0035452415802178 0.0035452415802178
0.0035816775339227 0.0035816775339227 0.0035816775339227
0.0036182997655095 0.0036182997655095 0.0036182997655095
0.0036551082749782 0.0036551082749782 0.0036551082749782
0.0036921030623288 0.0036921030623288 0.0036921030623288
0.0037292841275614 0.0037292841275614 0.0037292841275614
0.0037666514706759 0.0037666514706759 0.0037666514706759
0.0038042050916723 0.0038042050916723 0.0038042050916723
0.0038419449905507 0.0038419449905507 0.0038419449905507
0.0038798711673109 0.0038798711673109 0.0038798711673109
0.0039179836219531 0.0039179836219531 0.0039179836219531
0.0039562823544772 0.0039562823544772 0.0039562823544772
0.0039947673648833 0.0039947673648833 0.0039947673648833
0.0040334386531713 0.0040334386531713 0.0040334386531713
0.0040722962193412 0.0040722962193412 0.0040722962193412
0.004111340063393 0.004111340063393 0.004111340063393
0.0041505701853268 0.0041505701853268 0.0041505701853268
0.0041899865851424 0.0041899865851424 0.0041899865851424
0.0042295892628401 0.0042295892628401 0.0042295892628401
0.0042693782184196 0.0042693782184196 0.0042693782184196
0.0043093534518811 0.0043093534518811 0.0043093534518811
0.0043495149632245 0.0043495149632245 0.0043495149632245
0.0043898627524498 0.0043898627524498 0.0043898627524498
0.004430396819557 0.004430396819557 0.004430396819557
0.0044711171645462 0.0044711171645462 0.0044711171645462
0.0045120237874173 0.0045120237874173 0.0045120237874173
0.0045531166881703 0.0045531166881703 0.0045531166881703
0.0045943958668053 0.0045943958668053 0.0045943958668053
0.0046358613233221 0.0046358613233221 0.0046358613233221
0.0046775130577209 0.0046775130577209 0.0046775130577209
0.0047193510700017 0.0047193510700017 0.0047193510700017
0.0047613753601643 0.0047613753601643 0.0047613753601643
0.0048035859282089 0.0048035859282089 0.0048035859282089
0.0048459827741354 0.0048459827741354 0.0048459827741354
0.0048885658979439 0.0048885658979439 0.0048885658979439
0.0049313352996342 0.0049313352996342 0.0049313352996342
0.0049742909792065 0.0049742909792065 0.0049742909792065
0.0050174329366607 0.0050174329366607 0.0050174329366607
0.0050607611719969 0.0050607611719969 0.0050607611719969
0.0051042756852149 0.0051042756852149 0.0051042756852149
0.0051479764763149 0.0051479764763149 0.0051479764763149
0.0051918635452969 0.0051918635452969 0.0051918635452969
0.0052359368921607 0.0052359368921607 0.0052359368921607
0.0052801965169065 0.0052801965169065 0.0052801965169065
0.0053246424195342 0.0053246424195342 0.0053246424195342
0.0053692746000438 0.0053692746000438 0.0053692746000438
0.0054140930584354 0.0054140930584354 0.0054140930584354
0.0054590977947089 0.0054590977947089 0.0054590977947089
0.0055042888088643 0.0055042888088643 0.0055042888088643
0.0055496661009016 0.0055496661009016 0.0055496661009016
0.0055952296708209 0.0055952296708209 0.0055952296708209
0.0056409795186221 0.0056409795186221 0.0056409795186221
0.0056869156443052 0.0056869156443052 0.0056869156443052
0.0057330380478702 0.0057330380478702 0.0057330380478702
0.0057793467293172 0.0057793467293172 0.0057793467293172
0.0058258416886461 0.0058258416886461 0.0058258416886461
0.0058725229258569 0.0058725229258569 0.0058725229258569
0.0059193904409497 0.0059193904409497 0.0059193904409497
0.0059664442339244 0.0059664442339244 0.0059664442339244
0.006013684304781 0.006013684304781 0.006013684304781
0.0060611106535195 0.0060611106535195 0.0060611106535195
0.00610872328014 0.00610872328014 0.00610872328014
0.0061565221846423 0.0061565221846423 0.0061565221846423
0.0062045073670266 0.0062045073670266 0.0062045073670266
0.0062526788272929 0.0062526788272929 0.0062526788272929
0.006301036565441 0.006301036565441 0.006301036565441
0.0063495805814711 0.0063495805814711 0.0063495805814711
0.0063983108753832 0.0063983108753832 0.0063983108753832
0.0064472274471771 0.0064472274471771 0.0064472274471771
0.006496330296853 0.006496330296853 0.006496330296853
0.0065456194244108 0.0065456194244108 0.0065456194244108
0.0065950948298505 0.0065950948298505 0.0065950948298505
0.0066447565131721 0.0066447565131721 0.0066447565131721
0.0066946044743757 0.0066946044743757 0.0066946044743757
0.0067446387134612 0.0067446387134612 0.0067446387134612
0.0067948592304287 0.0067948592304287 0.0067948592304287
0.006845266025278 0.006845266025278 0.006845266025278
0.0068958590980093 0.0068958590980093 0.0068958590980093
0.0069466384486225 0.0069466384486225 0.0069466384486225
0.0069976040771176 0.0069976040771176 0.0069976040771176
0.0070487559834947 0.0070487559834947 0.0070487559834947
0.0071000941677537 0.0071000941677537 0.0071000941677537
0.0071516186298946 0.0071516186298946 0.0071516186298946
0.0072033293699175 0.0072033293699175 0.0072033293699175
0.0072552263878222 0.0072552263878222 0.0072552263878222
0.0073073096836089 0.0073073096836089 0.0073073096836089
0.0073595792572776 0.0073595792572776 0.0073595792572776
0.0074120351088281 0.0074120351088281 0.0074120351088281
0.0074646772382606 0.0074646772382606 0.0074646772382606
0.007517505645575 0.007517505645575 0.007517505645575
0.0075705203307713 0.0075705203307713 0.0075705203307713
0.0076237212938496 0.0076237212938496 0.0076237212938496
0.0076771085348098 0.0076771085348098 0.0076771085348098
0.0077306820536519 0.0077306820536519 0.0077306820536519
0.0077844418503759 0.0077844418503759 0.0077844418503759
0.0078383879249819 0.0078383879249819 0.0078383879249819
0.0078925202774698 0.0078925202774698 0.0078925202774698
0.0079468389078396 0.0079468389078396 0.0079468389078396
0.0080013438160913 0.0080013438160913 0.0080013438160913
0.008056035002225 0.008056035002225 0.008056035002225
0.0081109124662406 0.0081109124662406 0.0081109124662406
0.0081659762081381 0.0081659762081381 0.0081659762081381
0.0082212262279176 0.0082212262279176 0.0082212262279176
0.008276662525579 0.008276662525579 0.008276662525579
0.0083322851011223 0.0083322851011223 0.0083322851011223
0.0083880939545475 0.0083880939545475 0.0083880939545475
0.0084440890858546 0.0084440890858546 0.0084440890858546
0.0085002704950437 0.0085002704950437 0.0085002704950437
0.0085566381821147 0.0085566381821147 0.0085566381821147
0.0086131921470677 0.0086131921470677 0.0086131921470677
0.0086699323899025 0.0086699323899025 0.0086699323899025
0.0087268589106193 0.0087268589106193 0.0087268589106193
0.0087839717092181 0.0087839717092181 0.0087839717092181
0.0088412707856987 0.0088412707856987 0.0088412707856987
0.0088987561400613 0.0088987561400613 0.0088987561400613
0.0089564277723058 0.0089564277723058 0.0089564277723058
0.0090142856824322 0.0090142856824322 0.0090142856824322
0.0090723298704405 0.0090723298704405 0.0090723298704405
0.0091305603363308 0.0091305603363308 0.0091305603363308
0.009188977080103 0.009188977080103 0.009188977080103
0.0092475801017572 0.0092475801017572 0.0092475801017572
0.0093063694012932 0.0093063694012932 0.0093063694012932
0.0093653449787112 0.0093653449787112 0.0093653449787112
0.0094245068340111 0.0094245068340111 0.0094245068340111
0.009483854967193 0.009483854967193 0.009483854967193
0.0095433893782567 0.0095433893782567 0.0095433893782567
0.0096031100672024 0.0096031100672024 0.0096031100672024
0.00966301703403 0.00966301703403 0.00966301703403
0.0097231102787396 0.0097231102787396 0.0097231102787396
0.009783389801331 0.009783389801331 0.009783389801331
0.0098438556018044 0.0098438556018044 0.0098438556018044
0.0099045076801598 0.0099045076801598 0.0099045076801598
0.009965346036397 0.009965346036397 0.009965346036397
0.010026370670516 0.010026370670516 0.010026370670516
0.010087581582517 0.010087581582517 0.010087581582517
0.0101489787724 0.0101489787724 0.0101489787724
0.010210562240165 0.010210562240165 0.010210562240165
0.010272331985812 0.010272331985812 0.010272331985812
0.010334288009341 0.010334288009341 0.010334288009341
0.010396430310752 0.010396430310752 0.010396430310752
0.010458758890044 0.010458758890044 0.010458758890044
0.010521273747219 0.010521273747219 0.010521273747219
0.010583974882276 0.010583974882276 0.010583974882276
0.010646862295214 0.010646862295214 0.010646862295214
0.010709935986034 0.010709935986034 0.010709935986034
0.010773195954737 0.010773195954737 0.010773195954737
0.010836642201321 0.010836642201321 0.010836642201321
0.010900274725787 0.010900274725787 0.010900274725787
0.010964093528135 0.010964093528135 0.010964093528135
0.011028098608365 0.011028098608365 0.011028098608365
0.011092289966477 0.011092289966477 0.011092289966477
0.011156667602471 0.011156667602471 0.011156667602471
0.011221231516347 0.011221231516347 0.011221231516347
0.011285981708104 0.011285981708104 0.011285981708104
0.011350918177744 0.011350918177744 0.011350918177744
0.011416040925266 0.011416040925266 0.011416040925266
0.011481349950669 0.011481349950669 0.011481349950669
0.011546845253954 0.011546845253954 0.011546845253954
0.011612526835122 0.011612526835122 0.011612526835122
0.011678394694171 0.011678394694171 0.011678394694171
0.011744448831102 0.011744448831102 0.011744448831102
0.011810689245915 0.011810689245915 0.011810689245915
0.01187711593861 0.01187711593861 0.01187711593861
0.011943728909187 0.011943728909187 0.011943728909187
0.012010528157646 0.012010528157646 0.012010528157646
0.012077513683987 0.012077513683987 0.012077513683987
0.01214468548821 0.01214468548821 0.01214468548821
0.012212043570315 0.012212043570315 0.012212043570315
0.012279587930301 0.012279587930301 0.012279587930301
0.01234731856817 0.01234731856817 0.01234731856817
0.01241523548392 0.01241523548392 0.01241523548392
0.012483338677553 0.012483338677553 0.012483338677553
0.012551628149067 0.012551628149067 0.012551628149067
0.012620103898463 0.012620103898463 0.012620103898463
0.012688765925741 0.012688765925741 0.012688765925741
0.012757614230901 0.012757614230901 0.012757614230901
0.012826648813943 0.012826648813943 0.012826648813943
0.012895869674867 0.012895869674867 0.012895869674867
0.012965276813673 0.012965276813673 0.012965276813673
0.013034870230361 0.013034870230361 0.013034870230361
0.013104649924931 0.013104649924931 0.013104649924931
0.013174615897383 0.013174615897383 0.013174615897383
0.013244768147716 0.013244768147716 0.013244768147716
0.013315106675932 0.013315106675932 0.013315106675932
0.013385631482029 0.013385631482029 0.013385631482029
0.013456342566008 0.013456342566008 0.013456342566008
0.01352723992787 0.01352723992787 0.01352723992787
0.013598323567613 0.013598323567613 0.013598323567613
0.013669593485238 0.013669593485238 0.013669593485238
0.013741049680745 0.013741049680745 0.013741049680745
0.013812692154134 0.013812692154134 0.013812692154134
0.013884520905405 0.013884520905405 0.013884520905405
0.013956535934558 0.013956535934558 0.013956535934558
0.014028737241593 0.014028737241593 0.014028737241593
0.014101124826509 0.014101124826509 0.014101124826509
0.014173698689308 0.014173698689308 0.014173698689308
0.014246458829989 0.014246458829989 0.014246458829989
0.014319405248551 0.014319405248551 0.014319405248551
0.014392537944995 0.014392537944995 0.014392537944995
0.014465856919322 0.014465856919322 0.014465856919322
0.01453936217153 0.01453936217153 0.01453936217153
0.01461305370162 0.01461305370162 0.01461305370162
0.014686931509592 0.014686931509592 0.014686931509592
0.014760995595446 0.014760995595446 0.014760995595446
0.014835245959182 0.014835245959182 0.014835245959182
0.0149096826008 0.0149096826008 0.0149096826008
0.0149843055203 0.0149843055203 0.0149843055203
0.015059114717682 0.015059114717682 0.015059114717682
0.015134110192946 0.015134110192946 0.015134110192946
0.015209291946091 0.015209291946091 0.015209291946091
0.015284659977119 0.015284659977119 0.015284659977119
0.015360214286028 0.015360214286028 0.015360214286028
0.01543595487282 0.01543595487282 0.01543595487282
0.015511881737493 0.015511881737493 0.015511881737493
0.015587994880048 0.015587994880048 0.015587994880048
0.015664294300485 0.015664294300485 0.015664294300485
0.015740779998804 0.015740779998804 0.015740779998804
0.015817451975005 0.015817451975005 0.015817451975005
0.015894310229088 0.015894310229088 0.015894310229088
