SpeedLens/Resources/LUTS/provia.CUBE
#Created by: Adobe Photoshop Export Color Lookup Plugin
#Copyright: (C) Copyright 2017 © Caio Braga
TITLE "Wanna Be Provia"
#LUT size
LUT_3D_SIZE 5
#data domain
#LUT data points
DOMAIN_MIN 0.000000 0.000000 0.000000
DOMAIN_MAX 0.903226 0.903226 0.903226
0.000000 0.000000 0.000000
0.206116 0.000000 0.000000
0.452576 0.000000 0.000000
0.707336 0.000000 0.000000
0.921356 0.000000 0.000000
0.000000 0.196716 0.000000
0.206116 0.196716 0.000000
0.452576 0.196716 0.000000
0.707336 0.196716 0.000000
0.921356 0.196716 0.000000
0.000000 0.456329 0.000000
0.206116 0.456329 0.000000
0.452576 0.456329 0.000000
0.707336 0.456329 0.000000
0.921356 0.456329 0.000000
0.000000 0.719299 0.000000
0.206116 0.719299 0.000000
0.452576 0.719299 0.000000
0.707336 0.719299 0.000000
0.921356 0.719299 0.000000
0.000000 0.926544 0.000000
0.206116 0.926544 0.000000
0.452576 0.926544 0.000000
0.707336 0.926544 0.000000
0.921356 0.926544 0.000000
0.000000 0.000000 0.185608
0.206116 0.000000 0.185608
0.452576 0.000000 0.185608
0.707336 0.000000 0.185608
0.921356 0.000000 0.185608
0.000000 0.196716 0.185608
0.206116 0.196716 0.185608
0.452576 0.196716 0.185608
0.707336 0.196716 0.185608
0.921356 0.196716 0.185608
0.000000 0.456329 0.185608
0.206116 0.456329 0.185608
0.452576 0.456329 0.185608
0.707336 0.456329 0.185608
0.921356 0.456329 0.185608
0.000000 0.719299 0.185608
0.206116 0.719299 0.185608
0.452576 0.719299 0.185608
0.707336 0.719299 0.185608
0.921356 0.719299 0.185608
0.000000 0.926544 0.185608
0.206116 0.926544 0.185608
0.452576 0.926544 0.185608
0.707336 0.926544 0.185608
0.921356 0.926544 0.185608
0.000000 0.000000 0.474487
0.206116 0.000000 0.474487
0.452576 0.000000 0.474487
0.707336 0.000000 0.474487
0.921356 0.000000 0.474487
0.000000 0.196716 0.474487
0.206116 0.196716 0.474487
0.452576 0.196716 0.474487
0.707336 0.196716 0.474487
0.921356 0.196716 0.474487
0.000000 0.456329 0.474487
0.206116 0.456329 0.474487
0.452576 0.456329 0.474487
0.707336 0.456329 0.474487
0.921356 0.456329 0.474487
0.000000 0.719299 0.474487
0.206116 0.719299 0.474487
0.452576 0.719299 0.474487
0.707336 0.719299 0.474487
0.921356 0.719299 0.474487
0.000000 0.926544 0.474487
0.206116 0.926544 0.474487
0.452576 0.926544 0.474487
0.707336 0.926544 0.474487
0.921356 0.926544 0.474487
0.000000 0.000000 0.767151
0.206116 0.000000 0.767151
0.452576 0.000000 0.767151
0.707336 0.000000 0.767151
0.921356 0.000000 0.767151
0.000000 0.196716 0.767151
0.206116 0.196716 0.767151
0.452576 0.196716 0.767151
0.707336 0.196716 0.767151
0.921356 0.196716 0.767151
0.000000 0.456329 0.767151
0.206116 0.456329 0.767151
0.452576 0.456329 0.767151
0.707336 0.456329 0.767151
0.921356 0.456329 0.767151
0.000000 0.719299 0.767151
0.206116 0.719299 0.767151
0.452576 0.719299 0.767151
0.707336 0.719299 0.767151
0.921356 0.719299 0.767151
0.000000 0.926544 0.767151
0.206116 0.926544 0.767151
0.452576 0.926544 0.767151
0.707336 0.926544 0.767151
0.921356 0.926544 0.767151
0.000000 0.000000 0.953979
0.206116 0.000000 0.953979
0.452576 0.000000 0.953979
0.707336 0.000000 0.953979
0.921356 0.000000 0.953979
0.000000 0.196716 0.953979
0.206116 0.196716 0.953979
0.452576 0.196716 0.953979
0.707336 0.196716 0.953979
0.921356 0.196716 0.953979
0.000000 0.456329 0.953979
0.206116 0.456329 0.953979
0.452576 0.456329 0.953979
0.707336 0.456329 0.953979
0.921356 0.456329 0.953979
0.000000 0.719299 0.953979
0.206116 0.719299 0.953979
0.452576 0.719299 0.953979
0.707336 0.719299 0.953979
0.921356 0.719299 0.953979
0.000000 0.926544 0.953979
0.206116 0.926544 0.953979
0.452576 0.926544 0.953979
0.707336 0.926544 0.953979
0.921356 0.926544 0.953979
