SpeedLens/Resources/LUTS/provia.CUBE
#Created by: Adobe Photoshop Export Color Lookup Plugin
#Copyright: (C) Copyright 2017 © Caio Braga
TITLE "Wanna Be Provia"
#LUT size
LUT_3D_SIZE 32
#data domain
DOMAIN_MIN 0.0 0.0 0.0
DOMAIN_MAX 1.0 1.0 1.0
#LUT data points
0.000000 0.000000 0.000000
0.028107 0.000000 0.000000
0.056396 0.000000 0.000000
0.085022 0.000000 0.000000
0.114136 0.000000 0.000000
0.143890 0.000000 0.000000
0.174500 0.000000 0.000000
0.206116 0.000000 0.000000
0.238861 0.000000 0.000000
0.272675 0.000000 0.000000
0.307404 0.000000 0.000000
0.342896 0.000000 0.000000
0.379059 0.000000 0.000000
0.415649 0.000000 0.000000
0.452576 0.000000 0.000000
0.489655 0.000000 0.000000
0.526764 0.000000 0.000000
0.563751 0.000000 0.000000
0.600433 0.000000 0.000000
0.636719 0.000000 0.000000
0.672394 0.000000 0.000000
0.707336 0.000000 0.000000
0.741394 0.000000 0.000000
0.774414 0.000000 0.000000
0.806274 0.000000 0.000000
0.836823 0.000000 0.000000
0.866028 0.000000 0.000000
0.894135 0.000000 0.000000
0.921356 0.000000 0.000000
0.947937 0.000000 0.000000
0.974091 0.000000 0.000000
1.000000 0.000000 0.000000
0.000000 0.024048 0.000000
0.028107 0.024048 0.000000
0.056396 0.024048 0.000000
0.085022 0.024048 0.000000
0.114136 0.024048 0.000000
0.143890 0.024048 0.000000
0.174500 0.024048 0.000000
0.206116 0.024048 0.000000
0.238861 0.024048 0.000000
0.272675 0.024048 0.000000
0.307404 0.024048 0.000000
0.342896 0.024048 0.000000
0.379059 0.024048 0.000000
0.415649 0.024048 0.000000
0.452576 0.024048 0.000000
0.489655 0.024048 0.000000
0.526764 0.024048 0.000000
0.563751 0.024048 0.000000
0.600433 0.024048 0.000000
0.636719 0.024048 0.000000
0.672394 0.024048 0.000000
0.707336 0.024048 0.000000
0.741394 0.024048 0.000000
0.774414 0.024048 0.000000
0.806274 0.024048 0.000000
0.836823 0.024048 0.000000
0.866028 0.024048 0.000000
0.894135 0.024048 0.000000
0.921356 0.024048 0.000000
0.947937 0.024048 0.000000
0.974091 0.024048 0.000000
1.000000 0.024048 0.000000
0.000000 0.048737 0.000000
0.028107 0.048737 0.000000
0.056396 0.048737 0.000000
0.085022 0.048737 0.000000
0.114136 0.048737 0.000000
0.143890 0.048737 0.000000
0.174500 0.048737 0.000000
0.206116 0.048737 0.000000
0.238861 0.048737 0.000000
0.272675 0.048737 0.000000
0.307404 0.048737 0.000000
0.342896 0.048737 0.000000
0.379059 0.048737 0.000000
0.415649 0.048737 0.000000
0.452576 0.048737 0.000000
0.489655 0.048737 0.000000
0.526764 0.048737 0.000000
0.563751 0.048737 0.000000
0.600433 0.048737 0.000000
0.636719 0.048737 0.000000
0.672394 0.048737 0.000000
0.707336 0.048737 0.000000
0.741394 0.048737 0.000000
0.774414 0.048737 0.000000
0.806274 0.048737 0.000000
0.836823 0.048737 0.000000
0.866028 0.048737 0.000000
0.894135 0.048737 0.000000
0.921356 0.048737 0.000000
0.947937 0.048737 0.000000
0.974091 0.048737 0.000000
1.000000 0.048737 0.000000
0.000000 0.074677 0.000000
0.028107 0.074677 0.000000
0.056396 0.074677 0.000000
0.085022 0.074677 0.000000
0.114136 0.074677 0.000000
0.143890 0.074677 0.000000
0.174500 0.074677 0.000000
0.206116 0.074677 0.000000
0.238861 0.074677 0.000000
0.272675 0.074677 0.000000
0.307404 0.074677 0.000000
0.342896 0.074677 0.000000
0.379059 0.074677 0.000000
0.415649 0.074677 0.000000
0.452576 0.074677 0.000000
0.489655 0.074677 0.000000
0.526764 0.074677 0.000000
0.563751 0.074677 0.000000
0.600433 0.074677 0.000000
0.636719 0.074677 0.000000
0.672394 0.074677 0.000000
0.707336 0.074677 0.000000
0.741394 0.074677 0.000000
0.774414 0.074677 0.000000
0.806274 0.074677 0.000000
0.836823 0.074677 0.000000
0.866028 0.074677 0.000000
0.894135 0.074677 0.000000
0.921356 0.074677 0.000000
0.947937 0.074677 0.000000
0.974091 0.074677 0.000000
1.000000 0.074677 0.000000
0.000000 0.102448 0.000000
0.028107 0.102448 0.000000
0.056396 0.102448 0.000000
0.085022 0.102448 0.000000
0.114136 0.102448 0.000000
0.143890 0.102448 0.000000
0.174500 0.102448 0.000000
0.206116 0.102448 0.000000
0.238861 0.102448 0.000000
0.272675 0.102448 0.000000
0.307404 0.102448 0.000000
0.342896 0.102448 0.000000
0.379059 0.102448 0.000000
0.415649 0.102448 0.000000
0.452576 0.102448 0.000000
0.489655 0.102448 0.000000
0.526764 0.102448 0.000000
0.563751 0.102448 0.000000
0.600433 0.102448 0.000000
0.636719 0.102448 0.000000
0.672394 0.102448 0.000000
0.707336 0.102448 0.000000
0.741394 0.102448 0.000000
0.774414 0.102448 0.000000
0.806274 0.102448 0.000000
0.836823 0.102448 0.000000
0.866028 0.102448 0.000000
0.894135 0.102448 0.000000
0.921356 0.102448 0.000000
0.947937 0.102448 0.000000
0.974091 0.102448 0.000000
1.000000 0.102448 0.000000
0.000000 0.132172 0.000000
0.028107 0.132172 0.000000
0.056396 0.132172 0.000000
0.085022 0.132172 0.000000
0.114136 0.132172 0.000000
0.143890 0.132172 0.000000
0.174500 0.132172 0.000000
0.206116 0.132172 0.000000
0.238861 0.132172 0.000000
0.272675 0.132172 0.000000
0.307404 0.132172 0.000000
0.342896 0.132172 0.000000
0.379059 0.132172 0.000000
0.415649 0.132172 0.000000
0.452576 0.132172 0.000000
0.489655 0.132172 0.000000
0.526764 0.132172 0.000000
0.563751 0.132172 0.000000
0.600433 0.132172 0.000000
0.636719 0.132172 0.000000
0.672394 0.132172 0.000000
0.707336 0.132172 0.000000
0.741394 0.132172 0.000000
0.774414 0.132172 0.000000
0.806274 0.132172 0.000000
0.836823 0.132172 0.000000
0.866028 0.132172 0.000000
0.894135 0.132172 0.000000
0.921356 0.132172 0.000000
0.947937 0.132172 0.000000
0.974091 0.132172 0.000000
1.000000 0.132172 0.000000
0.000000 0.163666 0.000000
0.028107 0.163666 0.000000
0.056396 0.163666 0.000000
0.085022 0.163666 0.000000
0.114136 0.163666 0.000000
0.143890 0.163666 0.000000
0.174500 0.163666 0.000000
0.206116 0.163666 0.000000
0.238861 0.163666 0.000000
0.272675 0.163666 0.000000
0.307404 0.163666 0.000000
0.342896 0.163666 0.000000
0.379059 0.163666 0.000000
0.415649 0.163666 0.000000
0.452576 0.163666 0.000000
0.489655 0.163666 0.000000
0.526764 0.163666 0.000000
0.563751 0.163666 0.000000
0.600433 0.163666 0.000000
0.636719 0.163666 0.000000
0.672394 0.163666 0.000000
0.707336 0.163666 0.000000
0.741394 0.163666 0.000000
0.774414 0.163666 0.000000
0.806274 0.163666 0.000000
0.836823 0.163666 0.000000
0.866028 0.163666 0.000000
0.894135 0.163666 0.000000
0.921356 0.163666 0.000000
0.947937 0.163666 0.000000
0.974091 0.163666 0.000000
1.000000 0.163666 0.000000
0.000000 0.196716 0.000000
0.028107 0.196716 0.000000
0.056396 0.196716 0.000000
0.085022 0.196716 0.000000
0.114136 0.196716 0.000000
0.143890 0.196716 0.000000
0.174500 0.196716 0.000000
0.206116 0.196716 0.000000
0.238861 0.196716 0.000000
0.272675 0.196716 0.000000
0.307404 0.196716 0.000000
0.342896 0.196716 0.000000
0.379059 0.196716 0.000000
0.415649 0.196716 0.000000
0.452576 0.196716 0.000000
0.489655 0.196716 0.000000
0.526764 0.196716 0.000000
0.563751 0.196716 0.000000
0.600433 0.196716 0.000000
0.636719 0.196716 0.000000
0.672394 0.196716 0.000000
0.707336 0.196716 0.000000
0.741394 0.196716 0.000000
0.774414 0.196716 0.000000
0.806274 0.196716 0.000000
0.836823 0.196716 0.000000
0.866028 0.196716 0.000000
0.894135 0.196716 0.000000
0.921356 0.196716 0.000000
0.947937 0.196716 0.000000
0.974091 0.196716 0.000000
1.000000 0.196716 0.000000
0.000000 0.231171 0.000000
0.028107 0.231171 0.000000
0.056396 0.231171 0.000000
0.085022 0.231171 0.000000
0.114136 0.231171 0.000000
0.143890 0.231171 0.000000
0.174500 0.231171 0.000000
0.206116 0.231171 0.000000
0.238861 0.231171 0.000000
0.272675 0.231171 0.000000
0.307404 0.231171 0.000000
0.342896 0.231171 0.000000
0.379059 0.231171 0.000000
0.415649 0.231171 0.000000
0.452576 0.231171 0.000000
0.489655 0.231171 0.000000
0.526764 0.231171 0.000000
0.563751 0.231171 0.000000
0.600433 0.231171 0.000000
0.636719 0.231171 0.000000
0.672394 0.231171 0.000000
0.707336 0.231171 0.000000
0.741394 0.231171 0.000000
0.774414 0.231171 0.000000
0.806274 0.231171 0.000000
0.836823 0.231171 0.000000
0.866028 0.231171 0.000000
0.894135 0.231171 0.000000
0.921356 0.231171 0.000000
0.947937 0.231171 0.000000
0.974091 0.231171 0.000000
1.000000 0.231171 0.000000
0.000000 0.266785 0.000000
0.028107 0.266785 0.000000
0.056396 0.266785 0.000000
0.085022 0.266785 0.000000
0.114136 0.266785 0.000000
0.143890 0.266785 0.000000
0.174500 0.266785 0.000000
0.206116 0.266785 0.000000
0.238861 0.266785 0.000000
0.272675 0.266785 0.000000
0.307404 0.266785 0.000000
0.342896 0.266785 0.000000
0.379059 0.266785 0.000000
0.415649 0.266785 0.000000
0.452576 0.266785 0.000000
0.489655 0.266785 0.000000
0.526764 0.266785 0.000000
0.563751 0.266785 0.000000
0.600433 0.266785 0.000000
0.636719 0.266785 0.000000
0.672394 0.266785 0.000000
0.707336 0.266785 0.000000
0.741394 0.266785 0.000000
0.774414 0.266785 0.000000
0.806274 0.266785 0.000000
0.836823 0.266785 0.000000
0.866028 0.266785 0.000000
0.894135 0.266785 0.000000
0.921356 0.266785 0.000000
0.947937 0.266785 0.000000
0.974091 0.266785 0.000000
1.000000 0.266785 0.000000
0.000000 0.303436 0.000000
0.028107 0.303436 0.000000
0.056396 0.303436 0.000000
0.085022 0.303436 0.000000
0.114136 0.303436 0.000000
0.143890 0.303436 0.000000
0.174500 0.303436 0.000000
0.206116 0.303436 0.000000
0.238861 0.303436 0.000000
0.272675 0.303436 0.000000
0.307404 0.303436 0.000000
0.342896 0.303436 0.000000
0.379059 0.303436 0.000000
0.415649 0.303436 0.000000
0.452576 0.303436 0.000000
0.489655 0.303436 0.000000
0.526764 0.303436 0.000000
0.563751 0.303436 0.000000
0.600433 0.303436 0.000000
0.636719 0.303436 0.000000
0.672394 0.303436 0.000000
0.707336 0.303436 0.000000
0.741394 0.303436 0.000000
0.774414 0.303436 0.000000
0.806274 0.303436 0.000000
0.836823 0.303436 0.000000
0.866028 0.303436 0.000000
0.894135 0.303436 0.000000
0.921356 0.303436 0.000000
0.947937 0.303436 0.000000
0.974091 0.303436 0.000000
1.000000 0.303436 0.000000
0.000000 0.340881 0.000000
0.028107 0.340881 0.000000
0.056396 0.340881 0.000000
0.085022 0.340881 0.000000
0.114136 0.340881 0.000000
0.143890 0.340881 0.000000
0.174500 0.340881 0.000000
0.206116 0.340881 0.000000
0.238861 0.340881 0.000000
0.272675 0.340881 0.000000
0.307404 0.340881 0.000000
0.342896 0.340881 0.000000
0.379059 0.340881 0.000000
0.415649 0.340881 0.000000
0.452576 0.340881 0.000000
0.489655 0.340881 0.000000
0.526764 0.340881 0.000000
0.563751 0.340881 0.000000
0.600433 0.340881 0.000000
0.636719 0.340881 0.000000
0.672394 0.340881 0.000000
0.707336 0.340881 0.000000
0.741394 0.340881 0.000000
0.774414 0.340881 0.000000
0.806274 0.340881 0.000000
0.836823 0.340881 0.000000
0.866028 0.340881 0.000000
0.894135 0.340881 0.000000
0.921356 0.340881 0.000000
0.947937 0.340881 0.000000
0.974091 0.340881 0.000000
1.000000 0.340881 0.000000
0.000000 0.378998 0.000000
0.028107 0.378998 0.000000
0.056396 0.378998 0.000000
0.085022 0.378998 0.000000
0.114136 0.378998 0.000000
0.143890 0.378998 0.000000
0.174500 0.378998 0.000000
0.206116 0.378998 0.000000
0.238861 0.378998 0.000000
0.272675 0.378998 0.000000
0.307404 0.378998 0.000000
0.342896 0.378998 0.000000
0.379059 0.378998 0.000000
0.415649 0.378998 0.000000
0.452576 0.378998 0.000000
0.489655 0.378998 0.000000
0.526764 0.378998 0.000000
0.563751 0.378998 0.000000
0.600433 0.378998 0.000000
0.636719 0.378998 0.000000
0.672394 0.378998 0.000000
0.707336 0.378998 0.000000
0.741394 0.378998 0.000000
0.774414 0.378998 0.000000
0.806274 0.378998 0.000000
0.836823 0.378998 0.000000
0.866028 0.378998 0.000000
0.894135 0.378998 0.000000
0.921356 0.378998 0.000000
0.947937 0.378998 0.000000
0.974091 0.378998 0.000000
1.000000 0.378998 0.000000
0.000000 0.417511 0.000000
0.028107 0.417511 0.000000
0.056396 0.417511 0.000000
0.085022 0.417511 0.000000
0.114136 0.417511 0.000000
0.143890 0.417511 0.000000
0.174500 0.417511 0.000000
0.206116 0.417511 0.000000
0.238861 0.417511 0.000000
0.272675 0.417511 0.000000
0.307404 0.417511 0.000000
0.342896 0.417511 0.000000
0.379059 0.417511 0.000000
0.415649 0.417511 0.000000
0.452576 0.417511 0.000000
0.489655 0.417511 0.000000
0.526764 0.417511 0.000000
0.563751 0.417511 0.000000
0.600433 0.417511 0.000000
0.636719 0.417511 0.000000
0.672394 0.417511 0.000000
0.707336 0.417511 0.000000
0.741394 0.417511 0.000000
0.774414 0.417511 0.000000
0.806274 0.417511 0.000000
0.836823 0.417511 0.000000
0.866028 0.417511 0.000000
0.894135 0.417511 0.000000
0.921356 0.417511 0.000000
0.947937 0.417511 0.000000
0.974091 0.417511 0.000000
1.000000 0.417511 0.000000
0.000000 0.456329 0.000000
0.028107 0.456329 0.000000
0.056396 0.456329 0.000000
0.085022 0.456329 0.000000
0.114136 0.456329 0.000000
0.143890 0.456329 0.000000
0.174500 0.456329 0.000000
0.206116 0.456329 0.000000
0.238861 0.456329 0.000000
0.272675 0.456329 0.000000
0.307404 0.456329 0.000000
0.342896 0.456329 0.000000
0.379059 0.456329 0.000000
0.415649 0.456329 0.000000
0.452576 0.456329 0.000000
0.489655 0.456329 0.000000
0.526764 0.456329 0.000000
0.563751 0.456329 0.000000
0.600433 0.456329 0.000000
0.636719 0.456329 0.000000
0.672394 0.456329 0.000000
0.707336 0.456329 0.000000
0.741394 0.456329 0.000000
0.774414 0.456329 0.000000
0.806274 0.456329 0.000000
0.836823 0.456329 0.000000
0.866028 0.456329 0.000000
0.894135 0.456329 0.000000
0.921356 0.456329 0.000000
0.947937 0.456329 0.000000
0.974091 0.456329 0.000000
1.000000 0.456329 0.000000
0.000000 0.495178 0.000000
0.028107 0.495178 0.000000
0.056396 0.495178 0.000000
0.085022 0.495178 0.000000
0.114136 0.495178 0.000000
0.143890 0.495178 0.000000
0.174500 0.495178 0.000000
0.206116 0.495178 0.000000
0.238861 0.495178 0.000000
0.272675 0.495178 0.000000
0.307404 0.495178 0.000000
0.342896 0.495178 0.000000
0.379059 0.495178 0.000000
0.415649 0.495178 0.000000
0.452576 0.495178 0.000000
0.489655 0.495178 0.000000
0.526764 0.495178 0.000000
0.563751 0.495178 0.000000
0.600433 0.495178 0.000000
0.636719 0.495178 0.000000
0.672394 0.495178 0.000000
0.707336 0.495178 0.000000
0.741394 0.495178 0.000000
0.774414 0.495178 0.000000
0.806274 0.495178 0.000000
0.836823 0.495178 0.000000
0.866028 0.495178 0.000000
0.894135 0.495178 0.000000
0.921356 0.495178 0.000000
0.947937 0.495178 0.000000
0.974091 0.495178 0.000000
1.000000 0.495178 0.000000
0.000000 0.533936 0.000000
0.028107 0.533936 0.000000
0.056396 0.533936 0.000000
0.085022 0.533936 0.000000
0.114136 0.533936 0.000000
0.143890 0.533936 0.000000
0.174500 0.533936 0.000000
0.206116 0.533936 0.000000
0.238861 0.533936 0.000000
0.272675 0.533936 0.000000
0.307404 0.533936 0.000000
0.342896 0.533936 0.000000
0.379059 0.533936 0.000000
0.415649 0.533936 0.000000
0.452576 0.533936 0.000000
0.489655 0.533936 0.000000
0.526764 0.533936 0.000000
0.563751 0.533936 0.000000
0.600433 0.533936 0.000000
0.636719 0.533936 0.000000
0.672394 0.533936 0.000000
0.707336 0.533936 0.000000
0.741394 0.533936 0.000000
0.774414 0.533936 0.000000
0.806274 0.533936 0.000000
0.836823 0.533936 0.000000
0.866028 0.533936 0.000000
0.894135 0.533936 0.000000
0.921356 0.533936 0.000000
0.947937 0.533936 0.000000
0.974091 0.533936 0.000000
1.000000 0.533936 0.000000
0.000000 0.572388 0.000000
0.028107 0.572388 0.000000
0.056396 0.572388 0.000000
0.085022 0.572388 0.000000
0.114136 0.572388 0.000000
0.143890 0.572388 0.000000
0.174500 0.572388 0.000000
0.206116 0.572388 0.000000
0.238861 0.572388 0.000000
0.272675 0.572388 0.000000
0.307404 0.572388 0.000000
0.342896 0.572388 0.000000
0.379059 0.572388 0.000000
0.415649 0.572388 0.000000
0.452576 0.572388 0.000000
0.489655 0.572388 0.000000
0.526764 0.572388 0.000000
0.563751 0.572388 0.000000
0.600433 0.572388 0.000000
0.636719 0.572388 0.000000
0.672394 0.572388 0.000000
0.707336 0.572388 0.000000
0.741394 0.572388 0.000000
0.774414 0.572388 0.000000
0.806274 0.572388 0.000000
0.836823 0.572388 0.000000
0.866028 0.572388 0.000000
0.894135 0.572388 0.000000
0.921356 0.572388 0.000000
0.947937 0.572388 0.000000
0.974091 0.572388 0.000000
1.000000 0.572388 0.000000
0.000000 0.610321 0.000000
0.028107 0.610321 0.000000
0.056396 0.610321 0.000000
0.085022 0.610321 0.000000
0.114136 0.610321 0.000000
0.143890 0.610321 0.000000
0.174500 0.610321 0.000000
0.206116 0.610321 0.000000
0.238861 0.610321 0.000000
0.272675 0.610321 0.000000
0.307404 0.610321 0.000000
0.342896 0.610321 0.000000
0.379059 0.610321 0.000000
0.415649 0.610321 0.000000
0.452576 0.610321 0.000000
0.489655 0.610321 0.000000
0.526764 0.610321 0.000000
0.563751 0.610321 0.000000
0.600433 0.610321 0.000000
0.636719 0.610321 0.000000
0.672394 0.610321 0.000000
0.707336 0.610321 0.000000
0.741394 0.610321 0.000000
0.774414 0.610321 0.000000
0.806274 0.610321 0.000000
0.836823 0.610321 0.000000
0.866028 0.610321 0.000000
0.894135 0.610321 0.000000
0.921356 0.610321 0.000000
0.947937 0.610321 0.000000
0.974091 0.610321 0.000000
1.000000 0.610321 0.000000
0.000000 0.647583 0.000000
0.028107 0.647583 0.000000
0.056396 0.647583 0.000000
0.085022 0.647583 0.000000
0.114136 0.647583 0.000000
0.143890 0.647583 0.000000
0.174500 0.647583 0.000000
0.206116 0.647583 0.000000
0.238861 0.647583 0.000000
0.272675 0.647583 0.000000
0.307404 0.647583 0.000000
0.342896 0.647583 0.000000
0.379059 0.647583 0.000000
0.415649 0.647583 0.000000
0.452576 0.647583 0.000000
0.489655 0.647583 0.000000
0.526764 0.647583 0.000000
0.563751 0.647583 0.000000
0.600433 0.647583 0.000000
0.636719 0.647583 0.000000
0.672394 0.647583 0.000000
0.707336 0.647583 0.000000
0.741394 0.647583 0.000000
0.774414 0.647583 0.000000
0.806274 0.647583 0.000000
0.836823 0.647583 0.000000
0.866028 0.647583 0.000000
0.894135 0.647583 0.000000
0.921356 0.647583 0.000000
0.947937 0.647583 0.000000
0.974091 0.647583 0.000000
1.000000 0.647583 0.000000
0.000000 0.683960 0.000000
0.028107 0.683960 0.000000
0.056396 0.683960 0.000000
0.085022 0.683960 0.000000
0.114136 0.683960 0.000000
0.143890 0.683960 0.000000
0.174500 0.683960 0.000000
0.206116 0.683960 0.000000
0.238861 0.683960 0.000000
0.272675 0.683960 0.000000
0.307404 0.683960 0.000000
0.342896 0.683960 0.000000
0.379059 0.683960 0.000000
0.415649 0.683960 0.000000
0.452576 0.683960 0.000000
0.489655 0.683960 0.000000
0.526764 0.683960 0.000000
0.563751 0.683960 0.000000
0.600433 0.683960 0.000000
0.636719 0.683960 0.000000
0.672394 0.683960 0.000000
0.707336 0.683960 0.000000
0.741394 0.683960 0.000000
0.774414 0.683960 0.000000
0.806274 0.683960 0.000000
0.836823 0.683960 0.000000
0.866028 0.683960 0.000000
0.894135 0.683960 0.000000
0.921356 0.683960 0.000000
0.947937 0.683960 0.000000
0.974091 0.683960 0.000000
1.000000 0.683960 0.000000
0.000000 0.719299 0.000000
0.028107 0.719299 0.000000
0.056396 0.719299 0.000000
0.085022 0.719299 0.000000
0.114136 0.719299 0.000000
0.143890 0.719299 0.000000
0.174500 0.719299 0.000000
0.206116 0.719299 0.000000
0.238861 0.719299 0.000000
0.272675 0.719299 0.000000
0.307404 0.719299 0.000000
0.342896 0.719299 0.000000
0.379059 0.719299 0.000000
0.415649 0.719299 0.000000
0.452576 0.719299 0.000000
0.489655 0.719299 0.000000
0.526764 0.719299 0.000000
0.563751 0.719299 0.000000
0.600433 0.719299 0.000000
0.636719 0.719299 0.000000
0.672394 0.719299 0.000000
0.707336 0.719299 0.000000
0.741394 0.719299 0.000000
0.774414 0.719299 0.000000
0.806274 0.719299 0.000000
0.836823 0.719299 0.000000
0.866028 0.719299 0.000000
0.894135 0.719299 0.000000
0.921356 0.719299 0.000000
0.947937 0.719299 0.000000
0.974091 0.719299 0.000000
1.000000 0.719299 0.000000
0.000000 0.753387 0.000000
0.028107 0.753387 0.000000
0.056396 0.753387 0.000000
0.085022 0.753387 0.000000
0.114136 0.753387 0.000000
0.143890 0.753387 0.000000
0.174500 0.753387 0.000000
0.206116 0.753387 0.000000
0.238861 0.753387 0.000000
0.272675 0.753387 0.000000
0.307404 0.753387 0.000000
0.342896 0.753387 0.000000
0.379059 0.753387 0.000000
0.415649 0.753387 0.000000
0.452576 0.753387 0.000000
0.489655 0.753387 0.000000
0.526764 0.753387 0.000000
0.563751 0.753387 0.000000
0.600433 0.753387 0.000000
0.636719 0.753387 0.000000
0.672394 0.753387 0.000000
0.707336 0.753387 0.000000
0.741394 0.753387 0.000000
0.774414 0.753387 0.000000
0.806274 0.753387 0.000000
0.836823 0.753387 0.000000
0.866028 0.753387 0.000000
0.894135 0.753387 0.000000
0.921356 0.753387 0.000000
0.947937 0.753387 0.000000
0.974091 0.753387 0.000000
1.000000 0.753387 0.000000
0.000000 0.786041 0.000000
0.028107 0.786041 0.000000
0.056396 0.786041 0.000000
0.085022 0.786041 0.000000
0.114136 0.786041 0.000000
0.143890 0.786041 0.000000
0.174500 0.786041 0.000000
0.206116 0.786041 0.000000
0.238861 0.786041 0.000000
0.272675 0.786041 0.000000
0.307404 0.786041 0.000000
0.342896 0.786041 0.000000
0.379059 0.786041 0.000000
0.415649 0.786041 0.000000
0.452576 0.786041 0.000000
0.489655 0.786041 0.000000
0.526764 0.786041 0.000000
0.563751 0.786041 0.000000
0.600433 0.786041 0.000000
0.636719 0.786041 0.000000
0.672394 0.786041 0.000000
0.707336 0.786041 0.000000
0.741394 0.786041 0.000000
0.774414 0.786041 0.000000
0.806274 0.786041 0.000000
0.836823 0.786041 0.000000
0.866028 0.786041 0.000000
0.894135 0.786041 0.000000
0.921356 0.786041 0.000000
0.947937 0.786041 0.000000
0.974091 0.786041 0.000000
1.000000 0.786041 0.000000
0.000000 0.817078 0.000000
0.028107 0.817078 0.000000
0.056396 0.817078 0.000000
0.085022 0.817078 0.000000
0.114136 0.817078 0.000000
0.143890 0.817078 0.000000
0.174500 0.817078 0.000000
0.206116 0.817078 0.000000
0.238861 0.817078 0.000000
0.272675 0.817078 0.000000
0.307404 0.817078 0.000000
0.342896 0.817078 0.000000
0.379059 0.817078 0.000000
0.415649 0.817078 0.000000
0.452576 0.817078 0.000000
0.489655 0.817078 0.000000
0.526764 0.817078 0.000000
0.563751 0.817078 0.000000
0.600433 0.817078 0.000000
0.636719 0.817078 0.000000
0.672394 0.817078 0.000000
0.707336 0.817078 0.000000
0.741394 0.817078 0.000000
0.774414 0.817078 0.000000
0.806274 0.817078 0.000000
0.836823 0.817078 0.000000
0.866028 0.817078 0.000000
0.894135 0.817078 0.000000
0.921356 0.817078 0.000000
0.947937 0.817078 0.000000
0.974091 0.817078 0.000000
1.000000 0.817078 0.000000
0.000000 0.846436 0.000000
0.028107 0.846436 0.000000
0.056396 0.846436 0.000000
0.085022 0.846436 0.000000
0.114136 0.846436 0.000000
0.143890 0.846436 0.000000
0.174500 0.846436 0.000000
0.206116 0.846436 0.000000
0.238861 0.846436 0.000000
0.272675 0.846436 0.000000
0.307404 0.846436 0.000000
0.342896 0.846436 0.000000
0.379059 0.846436 0.000000
0.415649 0.846436 0.000000
0.452576 0.846436 0.000000
0.489655 0.846436 0.000000
0.526764 0.846436 0.000000
0.563751 0.846436 0.000000
0.600433 0.846436 0.000000
0.636719 0.846436 0.000000
0.672394 0.846436 0.000000
0.707336 0.846436 0.000000
0.741394 0.846436 0.000000
0.774414 0.846436 0.000000
0.806274 0.846436 0.000000
0.836823 0.846436 0.000000
0.866028 0.846436 0.000000
0.894135 0.846436 0.000000
0.921356 0.846436 0.000000
0.947937 0.846436 0.000000
0.974091 0.846436 0.000000
1.000000 0.846436 0.000000
0.000000 0.874298 0.000000
0.028107 0.874298 0.000000
0.056396 0.874298 0.000000
0.085022 0.874298 0.000000
0.114136 0.874298 0.000000
0.143890 0.874298 0.000000
0.174500 0.874298 0.000000
0.206116 0.874298 0.000000
0.238861 0.874298 0.000000
0.272675 0.874298 0.000000
0.307404 0.874298 0.000000
0.342896 0.874298 0.000000
0.379059 0.874298 0.000000
0.415649 0.874298 0.000000
0.452576 0.874298 0.000000
0.489655 0.874298 0.000000
0.526764 0.874298 0.000000
0.563751 0.874298 0.000000
0.600433 0.874298 0.000000
0.636719 0.874298 0.000000
0.672394 0.874298 0.000000
0.707336 0.874298 0.000000
0.741394 0.874298 0.000000
0.774414 0.874298 0.000000
0.806274 0.874298 0.000000
0.836823 0.874298 0.000000
0.866028 0.874298 0.000000
0.894135 0.874298 0.000000
0.921356 0.874298 0.000000
0.947937 0.874298 0.000000
0.974091 0.874298 0.000000
1.000000 0.874298 0.000000
0.000000 0.900909 0.000000
0.028107 0.900909 0.000000
0.056396 0.900909 0.000000
0.085022 0.900909 0.000000
0.114136 0.900909 0.000000
0.143890 0.900909 0.000000
0.174500 0.900909 0.000000
0.206116 0.900909 0.000000
0.238861 0.900909 0.000000
0.272675 0.900909 0.000000
0.307404 0.900909 0.000000
0.342896 0.900909 0.000000
0.379059 0.900909 0.000000
0.415649 0.900909 0.000000
0.452576 0.900909 0.000000
0.489655 0.900909 0.000000
