SpeedLens/Resources/LUTS/provia.CUBE
#Created by: Adobe Photoshop Export Color Lookup Plugin
#Copyright: (C) Copyright 2017 © Caio Braga
TITLE "Wanna Be Provia"
#LUT size
LUT_3D_SIZE 8
#data domain
#LUT data points
DOMAIN_MIN 0.000000 0.000000 0.000000
DOMAIN_MAX 0.903226 0.903226 0.903226
0.000000 0.000000 0.000000
0.114136 0.000000 0.000000
0.238861 0.000000 0.000000
0.379059 0.000000 0.000000
0.526764 0.000000 0.000000
0.672394 0.000000 0.000000
0.806274 0.000000 0.000000
0.921356 0.000000 0.000000
0.000000 0.102448 0.000000
0.114136 0.102448 0.000000
0.238861 0.102448 0.000000
0.379059 0.102448 0.000000
0.526764 0.102448 0.000000
0.672394 0.102448 0.000000
0.806274 0.102448 0.000000
0.921356 0.102448 0.000000
0.000000 0.231171 0.000000
0.114136 0.231171 0.000000
0.238861 0.231171 0.000000
0.379059 0.231171 0.000000
0.526764 0.231171 0.000000
0.672394 0.231171 0.000000
0.806274 0.231171 0.000000
0.921356 0.231171 0.000000
0.000000 0.378998 0.000000
0.114136 0.378998 0.000000
0.238861 0.378998 0.000000
0.379059 0.378998 0.000000
0.526764 0.378998 0.000000
0.672394 0.378998 0.000000
0.806274 0.378998 0.000000
0.921356 0.378998 0.000000
0.000000 0.533936 0.000000
0.114136 0.533936 0.000000
0.238861 0.533936 0.000000
0.379059 0.533936 0.000000
0.526764 0.533936 0.000000
0.672394 0.533936 0.000000
0.806274 0.533936 0.000000
0.921356 0.533936 0.000000
0.000000 0.683960 0.000000
0.114136 0.683960 0.000000
0.238861 0.683960 0.000000
0.379059 0.683960 0.000000
0.526764 0.683960 0.000000
0.672394 0.683960 0.000000
0.806274 0.683960 0.000000
0.921356 0.683960 0.000000
0.000000 0.817078 0.000000
0.114136 0.817078 0.000000
0.238861 0.817078 0.000000
0.379059 0.817078 0.000000
0.526764 0.817078 0.000000
0.672394 0.817078 0.000000
0.806274 0.817078 0.000000
0.921356 0.817078 0.000000
0.000000 0.926544 0.000000
0.114136 0.926544 0.000000
0.238861 0.926544 0.000000
0.379059 0.926544 0.000000
0.526764 0.926544 0.000000
0.672394 0.926544 0.000000
0.806274 0.926544 0.000000
0.921356 0.926544 0.000000
0.000000 0.000000 0.091125
0.114136 0.000000 0.091125
0.238861 0.000000 0.091125
0.379059 0.000000 0.091125
0.526764 0.000000 0.091125
0.672394 0.000000 0.091125
0.806274 0.000000 0.091125
0.921356 0.000000 0.091125
0.000000 0.102448 0.091125
0.114136 0.102448 0.091125
0.238861 0.102448 0.091125
0.379059 0.102448 0.091125
0.526764 0.102448 0.091125
0.672394 0.102448 0.091125
0.806274 0.102448 0.091125
0.921356 0.102448 0.091125
0.000000 0.231171 0.091125
0.114136 0.231171 0.091125
0.238861 0.231171 0.091125
0.379059 0.231171 0.091125
0.526764 0.231171 0.091125
0.672394 0.231171 0.091125
0.806274 0.231171 0.091125
0.921356 0.231171 0.091125
0.000000 0.378998 0.091125
0.114136 0.378998 0.091125
0.238861 0.378998 0.091125
0.379059 0.378998 0.091125
0.526764 0.378998 0.091125
0.672394 0.378998 0.091125
0.806274 0.378998 0.091125
0.921356 0.378998 0.091125
0.000000 0.533936 0.091125
0.114136 0.533936 0.091125
0.238861 0.533936 0.091125
0.379059 0.533936 0.091125
0.526764 0.533936 0.091125
0.672394 0.533936 0.091125
0.806274 0.533936 0.091125
0.921356 0.533936 0.091125
0.000000 0.683960 0.091125
0.114136 0.683960 0.091125
0.238861 0.683960 0.091125
0.379059 0.683960 0.091125
0.526764 0.683960 0.091125
0.672394 0.683960 0.091125
0.806274 0.683960 0.091125
0.921356 0.683960 0.091125
0.000000 0.817078 0.091125
0.114136 0.817078 0.091125
0.238861 0.817078 0.091125
0.379059 0.817078 0.091125
0.526764 0.817078 0.091125
0.672394 0.817078 0.091125
0.806274 0.817078 0.091125
0.921356 0.817078 0.091125
0.000000 0.926544 0.091125
0.114136 0.926544 0.091125
0.238861 0.926544 0.091125
0.379059 0.926544 0.091125
0.526764 0.926544 0.091125
0.672394 0.926544 0.091125
0.806274 0.926544 0.091125
0.921356 0.926544 0.091125
0.000000 0.000000 0.222321
0.114136 0.000000 0.222321
0.238861 0.000000 0.222321
0.379059 0.000000 0.222321
0.526764 0.000000 0.222321
0.672394 0.000000 0.222321
0.806274 0.000000 0.222321
0.921356 0.000000 0.222321
0.000000 0.102448 0.222321
0.114136 0.102448 0.222321
0.238861 0.102448 0.222321
0.379059 0.102448 0.222321
0.526764 0.102448 0.222321
0.672394 0.102448 0.222321
0.806274 0.102448 0.222321
0.921356 0.102448 0.222321
0.000000 0.231171 0.222321
0.114136 0.231171 0.222321
0.238861 0.231171 0.222321
0.379059 0.231171 0.222321
0.526764 0.231171 0.222321
0.672394 0.231171 0.222321
0.806274 0.231171 0.222321
0.921356 0.231171 0.222321
0.000000 0.378998 0.222321
0.114136 0.378998 0.222321
0.238861 0.378998 0.222321
0.379059 0.378998 0.222321
0.526764 0.378998 0.222321
0.672394 0.378998 0.222321
0.806274 0.378998 0.222321
0.921356 0.378998 0.222321
0.000000 0.533936 0.222321
0.114136 0.533936 0.222321
0.238861 0.533936 0.222321
0.379059 0.533936 0.222321
0.526764 0.533936 0.222321
0.672394 0.533936 0.222321
0.806274 0.533936 0.222321
0.921356 0.533936 0.222321
0.000000 0.683960 0.222321
0.114136 0.683960 0.222321
0.238861 0.683960 0.222321
0.379059 0.683960 0.222321
0.526764 0.683960 0.222321
0.672394 0.683960 0.222321
0.806274 0.683960 0.222321
0.921356 0.683960 0.222321
0.000000 0.817078 0.222321
0.114136 0.817078 0.222321
0.238861 0.817078 0.222321
0.379059 0.817078 0.222321
0.526764 0.817078 0.222321
0.672394 0.817078 0.222321
0.806274 0.817078 0.222321
0.921356 0.817078 0.222321
0.000000 0.926544 0.222321
0.114136 0.926544 0.222321
0.238861 0.926544 0.222321
0.379059 0.926544 0.222321
0.526764 0.926544 0.222321
0.672394 0.926544 0.222321
0.806274 0.926544 0.222321
0.921356 0.926544 0.222321
0.000000 0.000000 0.386627
0.114136 0.000000 0.386627
0.238861 0.000000 0.386627
0.379059 0.000000 0.386627
0.526764 0.000000 0.386627
0.672394 0.000000 0.386627
0.806274 0.000000 0.386627
0.921356 0.000000 0.386627
0.000000 0.102448 0.386627
0.114136 0.102448 0.386627
0.238861 0.102448 0.386627
0.379059 0.102448 0.386627
0.526764 0.102448 0.386627
0.672394 0.102448 0.386627
0.806274 0.102448 0.386627
0.921356 0.102448 0.386627
0.000000 0.231171 0.386627
0.114136 0.231171 0.386627
0.238861 0.231171 0.386627
0.379059 0.231171 0.386627
0.526764 0.231171 0.386627
0.672394 0.231171 0.386627
0.806274 0.231171 0.386627
0.921356 0.231171 0.386627
0.000000 0.378998 0.386627
0.114136 0.378998 0.386627
0.238861 0.378998 0.386627
0.379059 0.378998 0.386627
0.526764 0.378998 0.386627
0.672394 0.378998 0.386627
0.806274 0.378998 0.386627
0.921356 0.378998 0.386627
0.000000 0.533936 0.386627
0.114136 0.533936 0.386627
0.238861 0.533936 0.386627
0.379059 0.533936 0.386627
0.526764 0.533936 0.386627
0.672394 0.533936 0.386627
0.806274 0.533936 0.386627
0.921356 0.533936 0.386627
0.000000 0.683960 0.386627
0.114136 0.683960 0.386627
0.238861 0.683960 0.386627
0.379059 0.683960 0.386627
0.526764 0.683960 0.386627
0.672394 0.683960 0.386627
0.806274 0.683960 0.386627
0.921356 0.683960 0.386627
0.000000 0.817078 0.386627
0.114136 0.817078 0.386627
0.238861 0.817078 0.386627
0.379059 0.817078 0.386627
0.526764 0.817078 0.386627
0.672394 0.817078 0.386627
0.806274 0.817078 0.386627
0.921356 0.817078 0.386627
0.000000 0.926544 0.386627
0.114136 0.926544 0.386627
0.238861 0.926544 0.386627
0.379059 0.926544 0.386627
0.526764 0.926544 0.386627
0.672394 0.926544 0.386627
0.806274 0.926544 0.386627
0.921356 0.926544 0.386627
0.000000 0.000000 0.562744
0.114136 0.000000 0.562744
0.238861 0.000000 0.562744
0.379059 0.000000 0.562744
0.526764 0.000000 0.562744
0.672394 0.000000 0.562744
0.806274 0.000000 0.562744
0.921356 0.000000 0.562744
0.000000 0.102448 0.562744
0.114136 0.102448 0.562744
0.238861 0.102448 0.562744
0.379059 0.102448 0.562744
0.526764 0.102448 0.562744
0.672394 0.102448 0.562744
0.806274 0.102448 0.562744
0.921356 0.102448 0.562744
0.000000 0.231171 0.562744
0.114136 0.231171 0.562744
0.238861 0.231171 0.562744
0.379059 0.231171 0.562744
0.526764 0.231171 0.562744
0.672394 0.231171 0.562744
0.806274 0.231171 0.562744
0.921356 0.231171 0.562744
0.000000 0.378998 0.562744
0.114136 0.378998 0.562744
0.238861 0.378998 0.562744
0.379059 0.378998 0.562744
0.526764 0.378998 0.562744
0.672394 0.378998 0.562744
0.806274 0.378998 0.562744
0.921356 0.378998 0.562744
0.000000 0.533936 0.562744
0.114136 0.533936 0.562744
0.238861 0.533936 0.562744
0.379059 0.533936 0.562744
0.526764 0.533936 0.562744
0.672394 0.533936 0.562744
0.806274 0.533936 0.562744
0.921356 0.533936 0.562744
0.000000 0.683960 0.562744
0.114136 0.683960 0.562744
0.238861 0.683960 0.562744
0.379059 0.683960 0.562744
0.526764 0.683960 0.562744
0.672394 0.683960 0.562744
0.806274 0.683960 0.562744
0.921356 0.683960 0.562744
0.000000 0.817078 0.562744
0.114136 0.817078 0.562744
0.238861 0.817078 0.562744
0.379059 0.817078 0.562744
0.526764 0.817078 0.562744
0.672394 0.817078 0.562744
0.806274 0.817078 0.562744
0.921356 0.817078 0.562744
0.000000 0.926544 0.562744
0.114136 0.926544 0.562744
0.238861 0.926544 0.562744
0.379059 0.926544 0.562744
0.526764 0.926544 0.562744
0.672394 0.926544 0.562744
0.806274 0.926544 0.562744
0.921356 0.926544 0.562744
0.000000 0.000000 0.729431
0.114136 0.000000 0.729431
0.238861 0.000000 0.729431
0.379059 0.000000 0.729431
0.526764 0.000000 0.729431
0.672394 0.000000 0.729431
0.806274 0.000000 0.729431
0.921356 0.000000 0.729431
0.000000 0.102448 0.729431
0.114136 0.102448 0.729431
0.238861 0.102448 0.729431
0.379059 0.102448 0.729431
0.526764 0.102448 0.729431
0.672394 0.102448 0.729431
0.806274 0.102448 0.729431
0.921356 0.102448 0.729431
0.000000 0.231171 0.729431
0.114136 0.231171 0.729431
0.238861 0.231171 0.729431
0.379059 0.231171 0.729431
0.526764 0.231171 0.729431
0.672394 0.231171 0.729431
0.806274 0.231171 0.729431
0.921356 0.231171 0.729431
0.000000 0.378998 0.729431
0.114136 0.378998 0.729431
0.238861 0.378998 0.729431
0.379059 0.378998 0.729431
0.526764 0.378998 0.729431
0.672394 0.378998 0.729431
0.806274 0.378998 0.729431
0.921356 0.378998 0.729431
0.000000 0.533936 0.729431
0.114136 0.533936 0.729431
0.238861 0.533936 0.729431
0.379059 0.533936 0.729431
0.526764 0.533936 0.729431
0.672394 0.533936 0.729431
0.806274 0.533936 0.729431
0.921356 0.533936 0.729431
0.000000 0.683960 0.729431
0.114136 0.683960 0.729431
0.238861 0.683960 0.729431
0.379059 0.683960 0.729431
0.526764 0.683960 0.729431
0.672394 0.683960 0.729431
0.806274 0.683960 0.729431
0.921356 0.683960 0.729431
0.000000 0.817078 0.729431
0.114136 0.817078 0.729431
0.238861 0.817078 0.729431
0.379059 0.817078 0.729431
0.526764 0.817078 0.729431
0.672394 0.817078 0.729431
0.806274 0.817078 0.729431
0.921356 0.817078 0.729431
0.000000 0.926544 0.729431
0.114136 0.926544 0.729431
0.238861 0.926544 0.729431
0.379059 0.926544 0.729431
0.526764 0.926544 0.729431
0.672394 0.926544 0.729431
0.806274 0.926544 0.729431
0.921356 0.926544 0.729431
0.000000 0.000000 0.865417
0.114136 0.000000 0.865417
0.238861 0.000000 0.865417
0.379059 0.000000 0.865417
0.526764 0.000000 0.865417
0.672394 0.000000 0.865417
0.806274 0.000000 0.865417
0.921356 0.000000 0.865417
0.000000 0.102448 0.865417
0.114136 0.102448 0.865417
0.238861 0.102448 0.865417
0.379059 0.102448 0.865417
0.526764 0.102448 0.865417
0.672394 0.102448 0.865417
0.806274 0.102448 0.865417
0.921356 0.102448 0.865417
0.000000 0.231171 0.865417
0.114136 0.231171 0.865417
0.238861 0.231171 0.865417
0.379059 0.231171 0.865417
0.526764 0.231171 0.865417
0.672394 0.231171 0.865417
0.806274 0.231171 0.865417
0.921356 0.231171 0.865417
0.000000 0.378998 0.865417
0.114136 0.378998 0.865417
0.238861 0.378998 0.865417
0.379059 0.378998 0.865417
0.526764 0.378998 0.865417
0.672394 0.378998 0.865417
0.806274 0.378998 0.865417
0.921356 0.378998 0.865417
0.000000 0.533936 0.865417
0.114136 0.533936 0.865417
0.238861 0.533936 0.865417
0.379059 0.533936 0.865417
0.526764 0.533936 0.865417
0.672394 0.533936 0.865417
0.806274 0.533936 0.865417
0.921356 0.533936 0.865417
0.000000 0.683960 0.865417
0.114136 0.683960 0.865417
0.238861 0.683960 0.865417
0.379059 0.683960 0.865417
0.526764 0.683960 0.865417
0.672394 0.683960 0.865417
0.806274 0.683960 0.865417
0.921356 0.683960 0.865417
0.000000 0.817078 0.865417
0.114136 0.817078 0.865417
0.238861 0.817078 0.865417
0.379059 0.817078 0.865417
0.526764 0.817078 0.865417
0.672394 0.817078 0.865417
0.806274 0.817078 0.865417
0.921356 0.817078 0.865417
0.000000 0.926544 0.865417
0.114136 0.926544 0.865417
0.238861 0.926544 0.865417
0.379059 0.926544 0.865417
0.526764 0.926544 0.865417
0.672394 0.926544 0.865417
0.806274 0.926544 0.865417
0.921356 0.926544 0.865417
0.000000 0.000000 0.953979
0.114136 0.000000 0.953979
0.238861 0.000000 0.953979
0.379059 0.000000 0.953979
0.526764 0.000000 0.953979
0.672394 0.000000 0.953979
0.806274 0.000000 0.953979
0.921356 0.000000 0.953979
0.000000 0.102448 0.953979
0.114136 0.102448 0.953979
0.238861 0.102448 0.953979
0.379059 0.102448 0.953979
0.526764 0.102448 0.953979
0.672394 0.102448 0.953979
0.806274 0.102448 0.953979
0.921356 0.102448 0.953979
0.000000 0.231171 0.953979
0.114136 0.231171 0.953979
0.238861 0.231171 0.953979
0.379059 0.231171 0.953979
0.526764 0.231171 0.953979
0.672394 0.231171 0.953979
0.806274 0.231171 0.953979
0.921356 0.231171 0.953979
0.000000 0.378998 0.953979
0.114136 0.378998 0.953979
0.238861 0.378998 0.953979
0.379059 0.378998 0.953979
0.526764 0.378998 0.953979
0.672394 0.378998 0.953979
0.806274 0.378998 0.953979
0.921356 0.378998 0.953979
0.000000 0.533936 0.953979
0.114136 0.533936 0.953979
0.238861 0.533936 0.953979
0.379059 0.533936 0.953979
0.526764 0.533936 0.953979
0.672394 0.533936 0.953979
0.806274 0.533936 0.953979
0.921356 0.533936 0.953979
0.000000 0.683960 0.953979
0.114136 0.683960 0.953979
0.238861 0.683960 0.953979
0.379059 0.683960 0.953979
0.526764 0.683960 0.953979
0.672394 0.683960 0.953979
0.806274 0.683960 0.953979
0.921356 0.683960 0.953979
0.000000 0.817078 0.953979
0.114136 0.817078 0.953979
0.238861 0.817078 0.953979
0.379059 0.817078 0.953979
0.526764 0.817078 0.953979
0.672394 0.817078 0.953979
0.806274 0.817078 0.953979
0.921356 0.817078 0.953979
0.000000 0.926544 0.953979
0.114136 0.926544 0.953979
0.238861 0.926544 0.953979
0.379059 0.926544 0.953979
0.526764 0.926544 0.953979
0.672394 0.926544 0.953979
0.806274 0.926544 0.953979
0.921356 0.926544 0.953979
