SpeedLens/Resources/LUTS/redish.CUBE
TITLE "Radish "
LUT_3D_SIZE 9
0.011765 0.003433 0.010010
0.094421 0.024017 0.031982
0.190552 0.036926 0.045807
0.291748 0.062683 0.073425
0.386719 0.077698 0.085327
0.517090 0.085266 0.086243
0.728027 0.075012 0.061066
0.969238 0.071350 0.041412
1.000000 0.063171 0.038116
0.044006 0.095825 0.051025
0.116455 0.116211 0.067017
0.223511 0.154053 0.039276
0.339355 0.174316 0.008369
0.461182 0.196777 0.000000
0.611816 0.215576 0.000312
0.792969 0.231201 0.006351
1.000000 0.239990 0.000000
1.000000 0.243286 0.017166
0.042389 0.190796 0.055634
0.150757 0.208130 0.039429
0.232910 0.214478 0.008873
0.352051 0.253662 0.000000
0.475098 0.282227 0.000000
0.624512 0.305908 0.000000
0.810547 0.325928 0.000000
1.000000 0.346436 0.003113
1.000000 0.358887 0.022125
0.038025 0.283447 0.063965
0.189453 0.319580 0.024933
0.283691 0.323242 0.001638
0.364502 0.325439 0.000000
0.482666 0.358398 0.000000
0.632812 0.391113 0.001014
0.824707 0.422607 0.000000
1.000000 0.449219 0.002790
1.000000 0.463379 0.014404
0.050018 0.406738 0.077209
0.227173 0.433838 0.042450
0.323242 0.435303 0.030197
0.405518 0.435059 0.019333
0.491455 0.437500 0.001130
0.643066 0.481934 0.008095
0.818359 0.518066 0.012497
1.000000 0.545410 0.000000
1.000000 0.566895 0.010887
0.071899 0.563965 0.097778
0.266846 0.575195 0.081909
0.360107 0.576172 0.072876
0.447510 0.575195 0.057617
0.540527 0.570312 0.038666
0.641602 0.567383 0.014130
0.807129 0.606934 0.016830
1.000000 0.645020 0.004520
1.000000 0.674805 0.013031
0.094849 0.737793 0.118103
0.281250 0.731934 0.101562
0.375732 0.725586 0.096375
0.469482 0.720703 0.086487
0.567871 0.714844 0.071106
0.672852 0.704102 0.051788
0.791016 0.698730 0.021912
0.983398 0.743164 0.001063
1.000000 0.778809 0.004230
0.105530 0.907227 0.126953
0.284180 0.896973 0.113586
0.382080 0.890625 0.105957
0.482422 0.882324 0.098022
0.587402 0.874023 0.082886
0.699707 0.863770 0.060425
0.822754 0.849609 0.037445
0.956543 0.842285 0.000000
1.000000 0.882812 0.000000
0.106506 1.000000 0.126099
0.275879 1.000000 0.111023
0.382324 1.000000 0.102295
0.491943 1.000000 0.092285
0.603027 0.995117 0.077454
0.724609 0.990234 0.053497
0.853027 0.981934 0.026337
0.991211 0.972168 0.003588
1.000000 0.965820 0.213745
0.028641 0.021240 0.101868
0.092285 0.041290 0.116028
0.176880 0.047333 0.164062
0.276611 0.064209 0.200684
0.373291 0.072083 0.218384
0.510742 0.074097 0.234375
0.718750 0.062378 0.242554
0.950195 0.062622 0.240112
1.000000 0.054291 0.243286
0.059662 0.109558 0.125610
0.119995 0.127930 0.141968
0.210449 0.134155 0.156006
0.309570 0.143799 0.160645
0.419922 0.153320 0.161621
0.576660 0.161987 0.161011
0.762695 0.170532 0.157715
0.990723 0.173950 0.148926
1.000000 0.168457 0.150879
0.041321 0.197388 0.166382
0.118896 0.213379 0.151611
0.224243 0.225220 0.140991
0.338623 0.241455 0.137573
0.458984 0.256104 0.140625
0.602539 0.272217 0.146484
0.787109 0.284668 0.145508
1.000000 0.291748 0.136353
1.000000 0.292480 0.149414
0.034912 0.295654 0.200562
0.133301 0.322266 0.167236
0.248169 0.332275 0.158447
0.350342 0.333984 0.140747
0.469238 0.350830 0.146240
0.619141 0.364990 0.145874
0.807129 0.380615 0.142456
1.000000 0.395996 0.140503
1.000000 0.399414 0.151001
0.045349 0.418945 0.241821
0.157227 0.438232 0.188232
0.277344 0.443115 0.185547
0.375000 0.444336 0.176880
0.477783 0.445312 0.160767
0.628418 0.467285 0.155762
0.813965 0.483643 0.141235
1.000000 0.498047 0.133423
1.000000 0.503418 0.138428
0.070862 0.569336 0.281250
0.192261 0.578125 0.219238
0.307373 0.583008 0.214111
0.401611 0.583008 0.207886
0.503418 0.578125 0.188232
0.624512 0.571289 0.163330
0.796875 0.589844 0.150024
1.000000 0.608398 0.126831
1.000000 0.616699 0.127075
0.088928 0.738770 0.300781
0.203979 0.737305 0.228638
0.315674 0.732910 0.222900
0.410889 0.728516 0.218262
0.514648 0.721680 0.207886
0.635254 0.711914 0.185913
0.775391 0.702637 0.154175
0.975586 0.724121 0.126465
1.000000 0.739258 0.123962
0.103699 0.906250 0.304199
0.210205 0.902344 0.232666
0.315430 0.896973 0.225464
0.410400 0.890625 0.217529
0.518066 0.881836 0.209106
0.639160 0.871582 0.190674
0.779785 0.857422 0.162476
0.941406 0.843262 0.120361
1.000000 0.861328 0.106201
0.103577 1.000000 0.297852
0.201904 1.000000 0.222778
0.304932 1.000000 0.217285
0.404053 1.000000 0.207031
0.517090 1.000000 0.196045
0.643555 0.995605 0.180298
0.784668 0.989746 0.151978
0.944336 0.977539 0.118530
1.000000 0.969727 0.300049
0.029892 0.022720 0.188110
0.117004 0.049927 0.186157
0.173584 0.046143 0.209106
0.264893 0.065247 0.251465
0.356201 0.075562 0.273193
0.501953 0.071472 0.303711
0.712402 0.057953 0.327393
0.937988 0.059448 0.340820
1.000000 0.050751 0.357178
0.059937 0.144165 0.206665
0.125244 0.134644 0.210571
0.198730 0.137329 0.230225
0.293945 0.143677 0.248779
0.412354 0.150635 0.264648
0.565918 0.159058 0.272705
0.747559 0.168213 0.275635
0.979492 0.171631 0.268799
1.000000 0.168701 0.274170
0.035553 0.200806 0.220215
0.117798 0.218750 0.232422
0.217651 0.232910 0.243408
0.324951 0.234253 0.244507
0.441895 0.242676 0.245239
0.588379 0.252686 0.246460
0.769531 0.260742 0.243774
1.000000 0.262451 0.231201
1.000000 0.259521 0.240967
0.034973 0.299072 0.261475
0.133911 0.326416 0.263672
0.230835 0.337402 0.257080
0.341064 0.338867 0.249268
0.459961 0.346191 0.243652
0.604980 0.355957 0.244141
0.792969 0.364746 0.237915
1.000000 0.375000 0.231934
1.000000 0.374023 0.238159
0.045013 0.422363 0.313965
0.158325 0.440186 0.291992
0.255127 0.447021 0.277344
0.358887 0.449463 0.274902
0.469971 0.449951 0.260498
0.620117 0.460938 0.248901
0.804688 0.470215 0.235840
1.000000 0.478027 0.225098
1.000000 0.477783 0.226807
0.071533 0.570801 0.360107
0.192017 0.580078 0.322266
0.281494 0.584473 0.299561
0.380615 0.586426 0.295410
0.484131 0.583008 0.282959
0.616699 0.574707 0.257812
0.788574 0.582031 0.237305
1.000000 0.587891 0.209473
1.000000 0.591797 0.208740
0.088745 0.738770 0.385010
0.203003 0.735840 0.331787
0.288574 0.735352 0.305420
0.383301 0.730957 0.299316
0.489502 0.725098 0.293213
0.612305 0.716309 0.273682
0.766113 0.704102 0.238770
0.968262 0.713867 0.208008
1.000000 0.719727 0.201538
0.102844 0.904297 0.393799
0.208374 0.900879 0.331299
0.287109 0.898438 0.301514
0.379150 0.893555 0.294678
0.486328 0.886719 0.286133
0.609863 0.875000 0.274170
0.755859 0.860840 0.245605
0.932129 0.845215 0.201538
1.000000 0.851074 0.184692
0.102356 1.000000 0.395020
0.200684 1.000000 0.320557
0.275146 1.000000 0.289551
0.370117 1.000000 0.282959
0.477295 1.000000 0.270996
0.604004 0.999023 0.258545
0.750977 0.992676 0.234497
0.920410 0.981934 0.197510
1.000000 0.971680 0.357178
0.049255 0.049164 0.238037
0.145630 0.071533 0.258057
0.203491 0.072571 0.276855
0.259521 0.067078 0.290039
0.347656 0.075928 0.318848
0.486816 0.073914 0.363281
0.698730 0.058472 0.413086
0.928223 0.056305 0.442139
1.000000 0.047546 0.475830
0.062988 0.166626 0.272217
0.136230 0.148315 0.276611
0.207520 0.152466 0.285889
0.285400 0.146118 0.308105
0.397217 0.155273 0.336914
0.556152 0.157471 0.361084
0.737305 0.167358 0.373047
0.968262 0.169556 0.375732
1.000000 0.168701 0.389160
0.044678 0.228760 0.290039
0.138550 0.232910 0.303467
0.221069 0.234619 0.310303
0.311768 0.238647 0.330322
0.430420 0.242310 0.345459
0.575684 0.252197 0.349121
0.759766 0.259277 0.349609
0.989746 0.261475 0.343750
1.000000 0.260742 0.353760
0.036133 0.300781 0.312988
0.135498 0.327637 0.337646
0.232544 0.338135 0.345215
0.333252 0.344727 0.349609
0.448975 0.343750 0.344727
0.593750 0.347656 0.339600
0.780273 0.351807 0.331787
1.000000 0.354980 0.322998
1.000000 0.352295 0.328857
0.045502 0.424561 0.375000
0.160400 0.441650 0.372803
0.255859 0.447998 0.366699
0.349121 0.453857 0.363525
0.461426 0.454346 0.356445
0.612793 0.456543 0.339111
0.797363 0.460693 0.329102
1.000000 0.463379 0.313477
1.000000 0.460449 0.314209
0.073120 0.572754 0.432617
0.193481 0.582031 0.406250
0.281738 0.586426 0.391113
0.365234 0.588379 0.377930
0.469238 0.586426 0.371826
0.604980 0.577148 0.347168
0.783203 0.575684 0.319824
0.993164 0.576172 0.297852
1.000000 0.574707 0.295654
0.089355 0.738281 0.469727
0.203247 0.735840 0.418945
0.287842 0.734863 0.395996
0.366699 0.731934 0.377686
0.468018 0.728516 0.371338
0.594238 0.718262 0.357178
0.755371 0.705566 0.322510
0.964844 0.706055 0.287109
1.000000 0.705078 0.278076
0.102905 0.902832 0.487793
0.206421 0.900391 0.420410
0.285889 0.897949 0.391113
0.360107 0.895020 0.369385
0.461670 0.888184 0.361084
0.585449 0.878418 0.350342
0.735840 0.864258 0.324951
0.922363 0.846191 0.279297
1.000000 0.844238 0.262207
0.100464 1.000000 0.496582
0.198364 1.000000 0.414795
0.273926 1.000000 0.380615
0.346436 1.000000 0.354492
0.448730 1.000000 0.345459
0.573242 1.000000 0.331543
0.723145 0.995117 0.312988
0.896973 0.986328 0.273926
1.000000 0.975098 0.412354
0.074951 0.078003 0.296387
0.169678 0.091187 0.324951
0.222900 0.089661 0.333984
0.280273 0.083313 0.351074
0.340576 0.077209 0.363281
0.478027 0.073059 0.424316
0.680176 0.061768 0.495605
0.906250 0.059570 0.546387
1.000000 0.053040 0.594727
0.073853 0.187134 0.339111
0.150513 0.161865 0.339844
0.224854 0.165405 0.356201
0.298096 0.164307 0.378174
0.387939 0.157227 0.405029
0.534668 0.163696 0.445801
0.721680 0.169800 0.473145
0.955078 0.167847 0.494629
1.000000 0.169678 0.515625
0.060974 0.261963 0.374512
0.159424 0.250977 0.379395
0.233887 0.245605 0.386475
0.315674 0.252441 0.401367
0.414307 0.247681 0.428467
0.555664 0.255615 0.448486
0.746582 0.259277 0.462891
0.974121 0.261475 0.467285
1.000000 0.261963 0.481445
0.053284 0.340088 0.407715
0.161987 0.343750 0.422607
0.252930 0.342041 0.422852
0.334717 0.344971 0.427246
0.432373 0.347412 0.443848
0.582031 0.347656 0.451660
0.767090 0.350830 0.449951
0.986816 0.353760 0.447021
1.000000 0.352051 0.455566
0.046783 0.426514 0.438477
0.163208 0.442383 0.450684
0.258789 0.449463 0.455322
0.351807 0.454834 0.459717
0.452637 0.459717 0.461914
0.599609 0.454346 0.448730
0.781250 0.453125 0.435059
0.991699 0.449707 0.419922
1.000000 0.442139 0.419189
0.074707 0.574219 0.507324
0.193726 0.582031 0.495117
0.282715 0.586914 0.485352
0.365479 0.588379 0.475830
0.458252 0.589355 0.466309
0.594238 0.579102 0.447998
0.774414 0.570312 0.419434
0.980957 0.566895 0.400879
1.000000 0.558594 0.397461
0.090149 0.737305 0.558105
0.203369 0.733887 0.514648
0.285889 0.732910 0.492432
0.365234 0.731445 0.475342
0.453613 0.729004 0.460449
0.580078 0.721191 0.452148
0.745117 0.707031 0.417969
0.954590 0.700195 0.380615
1.000000 0.691406 0.368164
0.102051 0.900879 0.584473
0.205444 0.897949 0.520996
0.283447 0.895508 0.491699
0.358398 0.893066 0.468506
0.443604 0.889648 0.447266
0.564453 0.880859 0.436523
0.716797 0.866699 0.417236
0.914062 0.847168 0.370605
1.000000 0.836914 0.353027
0.100586 1.000000 0.604492
0.197144 1.000000 0.521484
0.270996 1.000000 0.485840
0.343994 1.000000 0.455811
0.428711 1.000000 0.431152
0.546875 1.000000 0.419189
0.697754 0.998535 0.403809
0.876953 0.989746 0.367188
1.000000 0.977051 0.480469
0.096497 0.100769 0.375244
0.189087 0.106018 0.398926
0.245972 0.105408 0.410400
0.310303 0.097656 0.436279
0.385986 0.085999 0.463623
0.471924 0.071838 0.488281
0.663574 0.063660 0.579590
0.882812 0.065186 0.649414
0.988281 0.061249 0.712891
0.083923 0.210571 0.436035
0.164673 0.175415 0.429199
0.244995 0.180542 0.453125
0.318604 0.184082 0.469238
0.409180 0.177734 0.505859
0.521973 0.166260 0.534180
0.697266 0.176270 0.577637
0.929199 0.172974 0.620605
1.000000 0.176392 0.653320
0.082825 0.291992 0.477783
0.177734 0.269775 0.482178
0.250244 0.259033 0.487061
0.330566 0.265137 0.502441
0.419678 0.268555 0.521484
0.541016 0.260498 0.550781
0.719727 0.265869 0.581543
0.957031 0.261963 0.606934
1.000000 0.262939 0.626465
0.075928 0.379639 0.526855
0.191406 0.359131 0.519531
0.269531 0.354004 0.522461
0.343506 0.350342 0.526855
0.431641 0.358887 0.536621
0.559082 0.353760 0.566895
0.745605 0.353760 0.586914
0.967773 0.353027 0.592285
1.000000 0.350342 0.601562
0.075623 0.473389 0.560059
0.195923 0.461914 0.561523
0.284912 0.457031 0.560059
0.367188 0.454834 0.557129
0.452637 0.457275 0.564453
0.577148 0.456787 0.584473
0.762207 0.450195 0.582031
0.970215 0.446777 0.569824
1.000000 0.441162 0.568848
0.077393 0.574219 0.587891
0.196777 0.583008 0.594238
0.283936 0.585938 0.594727
0.366211 0.586914 0.593262
0.458008 0.586426 0.591309
0.580078 0.583496 0.583008
0.755859 0.566895 0.558105
0.964355 0.557129 0.534180
1.000000 0.546387 0.526367
0.091187 0.734863 0.652344
0.203857 0.732422 0.621582
0.286377 0.730469 0.607910
0.365479 0.729492 0.594727
0.451660 0.727051 0.582031
0.564941 0.724121 0.568848
0.729980 0.710938 0.544434
0.944336 0.696289 0.504395
1.000000 0.682129 0.493408
0.102600 0.898926 0.689941
0.205322 0.895996 0.636719
0.283203 0.893555 0.609863
0.355957 0.890625 0.587891
0.440918 0.887695 0.568848
0.546875 0.882324 0.548340
0.698730 0.870117 0.533691
0.896484 0.849609 0.489746
1.000000 0.833008 0.468018
0.099976 1.000000 0.718750
0.195312 1.000000 0.643555
0.268311 1.000000 0.606934
0.342285 1.000000 0.579102
0.425049 1.000000 0.551270
0.527344 1.000000 0.526855
0.671875 1.000000 0.510254
0.854492 0.993652 0.482422
0.999512 0.980469 0.567871
0.110718 0.115234 0.464355
0.213379 0.115784 0.512207
0.277832 0.112610 0.531250
0.348145 0.106750 0.557129
0.436768 0.093262 0.599121
0.541016 0.078735 0.638672
0.654785 0.064392 0.666992
0.864258 0.067261 0.755371
0.975586 0.065979 0.832031
0.099243 0.236084 0.570801
0.182251 0.190918 0.554688
0.266846 0.195190 0.584473
0.344971 0.198486 0.604004
0.431396 0.199219 0.625488
0.545410 0.191772 0.663086
0.681152 0.179199 0.691895
0.900879 0.179932 0.752441
0.987793 0.187744 0.790527
0.104309 0.323486 0.620117
0.197144 0.289795 0.617676
0.266357 0.272949 0.617676
0.347168 0.279785 0.629883
0.435791 0.286377 0.642090
0.550293 0.283691 0.676758
0.701172 0.269531 0.711914
0.915527 0.273926 0.750000
0.999512 0.277344 0.777832
0.112488 0.415527 0.659180
0.215088 0.379639 0.648438
0.287109 0.367920 0.650879
0.357422 0.361816 0.655762
0.445068 0.368896 0.666992
0.558105 0.371582 0.690430
0.718750 0.358398 0.728027
0.931641 0.360352 0.748047
1.000000 0.357178 0.762207
0.113281 0.519043 0.704590
0.230103 0.484131 0.690918
0.310303 0.473877 0.687500
0.381104 0.466797 0.690918
0.460205 0.461670 0.695312
0.570312 0.468262 0.706543
0.729980 0.456055 0.735840
0.938965 0.447754 0.738770
1.000000 0.439453 0.739258
0.107971 0.628906 0.739746
0.221558 0.605957 0.734863
0.307617 0.596680 0.731445
0.388184 0.587402 0.725586
0.473633 0.580566 0.717285
0.576660 0.577148 0.716797
0.726074 0.568848 0.729492
0.938965 0.551270 0.717285
1.000000 0.542480 0.706543
0.093262 0.731445 0.749023
0.206177 0.728516 0.742676
0.289062 0.728516 0.740234
0.366455 0.725586 0.735352
0.453125 0.724121 0.732422
0.563965 0.720215 0.724609
0.713379 0.714355 0.714355
0.920410 0.691895 0.678223
1.000000 0.675293 0.659668
0.102661 0.895508 0.798828
0.205078 0.892090 0.763184
0.282471 0.890137 0.747559
0.356201 0.887695 0.731445
0.439941 0.884766 0.716309
0.543457 0.879395 0.699707
0.682129 0.871582 0.682129
0.878418 0.851562 0.647949
1.000000 0.828125 0.611328
0.100586 1.000000 0.839844
0.194702 1.000000 0.778809
0.267578 1.000000 0.749512
0.339355 1.000000 0.722656
0.422607 1.000000 0.699219
0.523438 1.000000 0.674805
0.652832 1.000000 0.649414
0.831543 0.998047 0.627930
0.999512 0.984863 0.673340
0.122498 0.126465 0.590820
0.235840 0.120972 0.667969
0.308838 0.117249 0.696777
0.392822 0.114014 0.728027
0.488037 0.107544 0.766113
0.595703 0.097656 0.802734
0.717285 0.084167 0.837402
0.853027 0.067749 0.866699
0.966797 0.067749 0.952637
0.113525 0.257812 0.743652
0.200684 0.205811 0.722168
0.288818 0.209961 0.749512
0.368652 0.215332 0.762207
0.459229 0.219238 0.778320
0.572754 0.216431 0.814453
0.714844 0.203003 0.858887
0.879883 0.184326 0.892090
0.976562 0.193115 0.938965
0.127930 0.352539 0.783691
0.218628 0.306641 0.775391
0.285400 0.288086 0.774902
0.367676 0.295654 0.789062
0.459473 0.301025 0.802734
0.568848 0.305176 0.823730
0.718750 0.291992 0.875000
0.894043 0.279297 0.904297
0.984863 0.283691 0.936035
0.144043 0.453613 0.823242
0.238281 0.402588 0.813477
0.306152 0.384766 0.812500
0.372803 0.374268 0.815430
0.465332 0.381104 0.831055
0.575195 0.386963 0.846680
0.719727 0.381592 0.883301
0.902344 0.366455 0.912109
0.995117 0.364990 0.928223
0.146851 0.565918 0.877441
0.257080 0.513184 0.855957
0.328369 0.494141 0.855469
0.395508 0.481445 0.857422
0.472168 0.470947 0.860840
0.581055 0.476562 0.868164
0.716309 0.473877 0.880859
0.901367 0.452881 0.909668
1.000000 0.448975 0.915039
0.136230 0.674316 0.904297
0.252686 0.628906 0.890137
0.336182 0.607910 0.876465
0.404785 0.596191 0.876953
0.482666 0.585938 0.875000
0.578613 0.576172 0.874023
0.710449 0.577637 0.873535
0.896973 0.557129 0.902832
1.000000 0.548828 0.898438
0.123230 0.782715 0.914551
0.233765 0.753418 0.906738
0.315186 0.740723 0.902832
0.391113 0.729492 0.896973
0.477051 0.717773 0.887207
0.579590 0.709961 0.875977
0.705566 0.704590 0.872559
0.881348 0.691406 0.886230
1.000000 0.672363 0.871094
0.105591 0.892090 0.913574
0.207275 0.887695 0.905762
0.285156 0.885742 0.901367
0.357422 0.883301 0.895508
0.440186 0.878906 0.891113
0.544434 0.874023 0.882324
0.681152 0.866211 0.870117
0.854980 0.854980 0.855469
1.000000 0.828613 0.818848
0.099915 1.000000 0.963379
0.195068 1.000000 0.927246
0.267334 1.000000 0.907227
0.339111 1.000000 0.890625
0.421143 1.000000 0.872070
0.521484 1.000000 0.854004
0.649902 1.000000 0.833008
0.812500 1.000000 0.810059
0.998047 0.989746 0.810059
0.131348 0.133057 0.764648
0.257812 0.125854 0.851562
0.343506 0.124756 0.854980
0.434082 0.126587 0.861816
0.532227 0.122681 0.879395
0.656250 0.109924 0.916504
0.792969 0.092346 0.948730
0.930664 0.075256 0.971680
0.962891 0.067749 0.973145
0.132080 0.276123 0.874023
0.218262 0.220215 0.867188
0.307129 0.225098 0.873535
0.393066 0.230225 0.881836
0.490723 0.233398 0.889160
0.607422 0.230957 0.912598
0.755371 0.217407 0.955566
0.920898 0.205566 0.977539
0.974121 0.195068 0.981445
0.146606 0.380859 0.902832
0.236450 0.322754 0.893555
0.301758 0.302002 0.892578
0.386475 0.307617 0.900879
0.481934 0.312988 0.908203
0.596680 0.316406 0.917969
0.742676 0.309814 0.955566
0.917480 0.297607 0.983398
0.983887 0.285156 0.989746
0.161133 0.492188 0.919434
0.254395 0.424561 0.914551
0.321777 0.400391 0.915039
0.385986 0.385254 0.916016
0.481201 0.391357 0.922852
0.594727 0.396729 0.930176
0.735352 0.396240 0.957520
0.909180 0.380127 0.988770
0.990234 0.364014 0.996582
0.166260 0.606934 0.950684
0.271973 0.538574 0.932617
0.339844 0.511719 0.933105
0.406250 0.494385 0.933594
0.483643 0.480469 0.936523
0.591309 0.483643 0.943359
0.721191 0.486816 0.952148
0.897949 0.468262 0.993164
0.997559 0.449951 1.000000
0.154053 0.720215 0.979492
0.270996 0.655273 0.960449
0.348633 0.628418 0.950684
0.414795 0.609375 0.951660
0.493164 0.594238 0.954102
0.584961 0.581543 0.957031
0.713867 0.582031 0.963379
0.881348 0.570312 0.994141
1.000000 0.549805 1.000000
0.137695 0.836426 0.998047
0.250732 0.785645 0.991211
0.330078 0.760742 0.985840
0.406250 0.740234 0.978516
0.493408 0.723145 0.968262
0.586426 0.712891 0.970703
0.704590 0.701660 0.975586
0.860840 0.697266 0.988281
1.000000 0.675293 1.000000
0.115845 0.950684 1.000000
0.221313 0.920410 1.000000
0.298828 0.904785 1.000000
0.373291 0.891113 1.000000
0.458740 0.877930 1.000000
0.561523 0.864746 0.996582
0.693359 0.851074 0.988281
0.844727 0.842773 0.989258
1.000000 0.827148 1.000000
0.100098 1.000000 1.000000
0.194580 1.000000 1.000000
0.267334 1.000000 1.000000
0.338379 1.000000 1.000000
0.420654 1.000000 1.000000
0.520020 1.000000 1.000000
0.647461 0.999512 1.000000
0.808594 0.998047 1.000000
0.995117 0.996094 0.996094
