SpeedLens/Resources/LUTS/redish.CUBE
TITLE "Radish "
LUT_3D_SIZE 5
0.011765 0.003433 0.010010
0.190552 0.036926 0.045807
0.386719 0.077698 0.085327
0.728027 0.075012 0.061066
1.000000 0.063171 0.038116
0.042389 0.190796 0.055634
0.232910 0.214478 0.008873
0.475098 0.282227 0.000000
0.810547 0.325928 0.000000
1.000000 0.358887 0.022125
0.050018 0.406738 0.077209
0.323242 0.435303 0.030197
0.491455 0.437500 0.001130
0.818359 0.518066 0.012497
1.000000 0.566895 0.010887
0.094849 0.737793 0.118103
0.375732 0.725586 0.096375
0.567871 0.714844 0.071106
0.791016 0.698730 0.021912
1.000000 0.778809 0.004230
0.106506 1.000000 0.126099
0.382324 1.000000 0.102295
0.603027 0.995117 0.077454
0.853027 0.981934 0.026337
1.000000 0.965820 0.213745
0.029892 0.022720 0.188110
0.173584 0.046143 0.209106
0.356201 0.075562 0.273193
0.712402 0.057953 0.327393
1.000000 0.050751 0.357178
0.035553 0.200806 0.220215
0.217651 0.232910 0.243408
0.441895 0.242676 0.245239
0.769531 0.260742 0.243774
1.000000 0.259521 0.240967
0.045013 0.422363 0.313965
0.255127 0.447021 0.277344
0.469971 0.449951 0.260498
0.804688 0.470215 0.235840
1.000000 0.477783 0.226807
0.088745 0.738770 0.385010
0.288574 0.735352 0.305420
0.489502 0.725098 0.293213
0.766113 0.704102 0.238770
1.000000 0.719727 0.201538
0.102356 1.000000 0.395020
0.275146 1.000000 0.289551
0.477295 1.000000 0.270996
0.750977 0.992676 0.234497
1.000000 0.971680 0.357178
0.074951 0.078003 0.296387
0.222900 0.089661 0.333984
0.340576 0.077209 0.363281
0.680176 0.061768 0.495605
1.000000 0.053040 0.594727
0.060974 0.261963 0.374512
0.233887 0.245605 0.386475
0.414307 0.247681 0.428467
0.746582 0.259277 0.462891
1.000000 0.261963 0.481445
0.046783 0.426514 0.438477
0.258789 0.449463 0.455322
0.452637 0.459717 0.461914
0.781250 0.453125 0.435059
1.000000 0.442139 0.419189
0.090149 0.737305 0.558105
0.285889 0.732910 0.492432
0.453613 0.729004 0.460449
0.745117 0.707031 0.417969
1.000000 0.691406 0.368164
0.100586 1.000000 0.604492
0.270996 1.000000 0.485840
0.428711 1.000000 0.431152
0.697754 0.998535 0.403809
1.000000 0.977051 0.480469
0.110718 0.115234 0.464355
0.277832 0.112610 0.531250
0.436768 0.093262 0.599121
0.654785 0.064392 0.666992
0.975586 0.065979 0.832031
0.104309 0.323486 0.620117
0.266357 0.272949 0.617676
0.435791 0.286377 0.642090
0.701172 0.269531 0.711914
0.999512 0.277344 0.777832
0.113281 0.519043 0.704590
0.310303 0.473877 0.687500
0.460205 0.461670 0.695312
0.729980 0.456055 0.735840
1.000000 0.439453 0.739258
0.093262 0.731445 0.749023
0.289062 0.728516 0.740234
0.453125 0.724121 0.732422
0.713379 0.714355 0.714355
1.000000 0.675293 0.659668
0.100586 1.000000 0.839844
0.267578 1.000000 0.749512
0.422607 1.000000 0.699219
0.652832 1.000000 0.649414
0.999512 0.984863 0.673340
0.131348 0.133057 0.764648
0.343506 0.124756 0.854980
0.532227 0.122681 0.879395
0.792969 0.092346 0.948730
0.962891 0.067749 0.973145
0.146606 0.380859 0.902832
0.301758 0.302002 0.892578
0.481934 0.312988 0.908203
0.742676 0.309814 0.955566
0.983887 0.285156 0.989746
0.166260 0.606934 0.950684
0.339844 0.511719 0.933105
0.483643 0.480469 0.936523
0.721191 0.486816 0.952148
0.997559 0.449951 1.000000
0.137695 0.836426 0.998047
0.330078 0.760742 0.985840
0.493408 0.723145 0.968262
0.704590 0.701660 0.975586
1.000000 0.675293 1.000000
0.100098 1.000000 1.000000
0.267334 1.000000 1.000000
0.420654 1.000000 1.000000
0.647461 0.999512 1.000000
0.995117 0.996094 0.996094
