SpeedLens/Resources/LUTS/redish.CUBE
TITLE "Radish "
LUT_3D_SIZE 33
0.011765 0.003433 0.010010
0.014183 0.003736 0.010681
0.030716 0.007881 0.015289
0.064392 0.015762 0.023666
0.094421 0.024017 0.031982
0.120850 0.028687 0.036652
0.145874 0.031067 0.038605
0.167725 0.032074 0.039520
0.190552 0.036926 0.045807
0.215576 0.042816 0.053253
0.243896 0.048248 0.058838
0.268066 0.055695 0.066345
0.291748 0.062683 0.073425
0.315186 0.068359 0.078674
0.338867 0.072144 0.081665
0.361084 0.074890 0.083618
0.386719 0.077698 0.085327
0.413086 0.080505 0.087219
0.440186 0.084167 0.089905
0.475830 0.085449 0.088440
0.517090 0.085266 0.086243
0.562012 0.083740 0.081543
0.613770 0.081360 0.075623
0.668945 0.078491 0.068909
0.728027 0.075012 0.061066
0.791992 0.071045 0.052704
0.854492 0.069641 0.047638
0.908203 0.070496 0.044128
0.969238 0.071350 0.041412
1.000000 0.070129 0.038086
1.000000 0.067078 0.040192
1.000000 0.065430 0.041229
1.000000 0.063171 0.038116
0.014534 0.009262 0.012222
0.016464 0.009087 0.012337
0.029266 0.010147 0.012306
0.063904 0.028763 0.025482
0.096802 0.048492 0.040649
0.125366 0.063782 0.050568
0.154541 0.075928 0.055603
0.185425 0.086060 0.056854
0.216675 0.094421 0.056946
0.244995 0.099792 0.055634
0.273682 0.103577 0.052307
0.297363 0.108948 0.053802
0.319580 0.114075 0.054993
0.340820 0.118835 0.056793
0.366211 0.122131 0.054932
0.396729 0.124512 0.051514
0.427490 0.126709 0.048035
0.461182 0.128052 0.043945
0.496338 0.129517 0.039490
0.536621 0.130615 0.035156
0.578613 0.131592 0.030396
0.626465 0.132935 0.026306
0.675781 0.133789 0.021942
0.723145 0.136841 0.021896
0.770996 0.139893 0.022522
0.822754 0.141235 0.020340
0.877441 0.143066 0.018707
0.935547 0.144409 0.016159
0.997559 0.144653 0.012421
1.000000 0.141968 0.012650
1.000000 0.137939 0.012825
1.000000 0.138062 0.014183
1.000000 0.139526 0.017914
0.019821 0.029984 0.018112
0.020737 0.029526 0.017014
0.033417 0.031830 0.018936
0.069336 0.054596 0.036133
0.102783 0.075256 0.052673
0.136841 0.091614 0.059326
0.166260 0.104431 0.060303
0.194458 0.112244 0.053864
0.223022 0.118286 0.048492
0.251709 0.124268 0.044617
0.279297 0.129150 0.041718
0.302734 0.134033 0.042847
0.328125 0.137329 0.039886
0.353760 0.141357 0.036133
0.381592 0.144287 0.032410
0.409912 0.147461 0.029205
0.440430 0.150269 0.024704
0.476318 0.153320 0.021194
0.514648 0.156372 0.018494
0.555176 0.159668 0.015671
0.599121 0.162231 0.011986
0.642578 0.164917 0.011284
0.684570 0.169067 0.013748
0.730469 0.172241 0.015297
0.779297 0.175537 0.015137
0.833496 0.178101 0.013824
0.888184 0.180420 0.010498
0.947266 0.181641 0.007652
1.000000 0.182739 0.004440
1.000000 0.179199 0.004562
1.000000 0.178101 0.008392
1.000000 0.180298 0.011932
1.000000 0.180908 0.015221
0.031250 0.065063 0.034424
0.038849 0.066833 0.037048
0.057251 0.071838 0.042725
0.075439 0.076111 0.047821
0.110901 0.097351 0.060791
0.142090 0.113464 0.063599
0.168701 0.122925 0.057434
0.195679 0.130493 0.048492
0.224487 0.137329 0.041901
0.254150 0.142822 0.036804
0.282959 0.148071 0.030701
0.309082 0.152222 0.026566
0.334229 0.156616 0.022522
0.360840 0.160400 0.018539
0.388428 0.164795 0.015289
0.419189 0.168823 0.012367
0.452393 0.173340 0.009613
0.487793 0.178101 0.007767
0.524414 0.182129 0.005337
0.565918 0.185913 0.002916
0.605957 0.190063 0.004059
0.647461 0.194214 0.006920
0.690430 0.198120 0.008385
0.737305 0.202393 0.010178
0.787598 0.205933 0.009850
0.840820 0.208008 0.008896
0.895996 0.209961 0.005970
0.955566 0.212036 0.002897
1.000000 0.212769 0.000000
1.000000 0.211426 0.003300
1.000000 0.211304 0.009102
1.000000 0.212769 0.012474
1.000000 0.213867 0.016174
0.044006 0.095825 0.051025
0.058380 0.101562 0.057343
0.079041 0.108032 0.062744
0.098328 0.113220 0.065430
0.116455 0.116211 0.067017
0.142700 0.128296 0.062561
0.169800 0.137939 0.055725
0.195923 0.146362 0.047028
0.223511 0.154053 0.039276
0.253906 0.159668 0.031052
0.285645 0.164795 0.019852
0.312012 0.170044 0.013168
0.339355 0.174316 0.008369
0.365967 0.179932 0.004490
0.395508 0.185791 0.002745
0.426514 0.191895 0.000621
0.461182 0.196777 0.000000
0.495605 0.201660 0.000000
0.533691 0.206787 0.000000
0.571289 0.210449 0.000000
0.611816 0.215576 0.000312
0.651367 0.220337 0.002373
0.696289 0.224976 0.004681
0.743164 0.228149 0.006638
0.792969 0.231201 0.006351
0.847656 0.235107 0.005150
0.901855 0.236816 0.002331
0.962402 0.239136 0.000000
1.000000 0.239990 0.000000
1.000000 0.240479 0.004013
1.000000 0.241211 0.011108
1.000000 0.242065 0.013397
1.000000 0.243286 0.017166
0.052032 0.125244 0.060730
0.071716 0.132690 0.065796
0.091553 0.136597 0.066589
0.110596 0.138916 0.064636
0.128052 0.140259 0.063538
0.144653 0.142822 0.059357
0.171753 0.152222 0.050751
0.198486 0.160889 0.041687
0.227417 0.168213 0.033264
0.257080 0.175415 0.022308
0.285156 0.182007 0.011162
0.312500 0.188354 0.005157
0.343018 0.194458 0.001212
0.370361 0.201294 0.000000
0.400146 0.207520 0.000000
0.432861 0.213013 0.000000
0.466797 0.218750 0.000000
0.501953 0.224365 0.000000
0.538574 0.229004 0.000000
0.575684 0.234985 0.000000
0.613770 0.239990 0.000000
0.654785 0.243896 0.000000
0.700684 0.249512 0.002155
0.747070 0.253174 0.003716
0.797363 0.256348 0.003641
0.851562 0.259033 0.002392
0.907227 0.261963 0.000298
0.968262 0.263916 0.000000
1.000000 0.267578 0.000000
1.000000 0.267090 0.005779
1.000000 0.268066 0.011734
1.000000 0.270020 0.015656
1.000000 0.271729 0.018921
0.052277 0.148438 0.062012
0.075195 0.155151 0.063354
0.098389 0.159302 0.062744
0.118896 0.162109 0.060120
0.136963 0.163330 0.057556
0.154541 0.164795 0.052643
0.173218 0.166504 0.046082
0.198608 0.175171 0.036652
0.228882 0.182861 0.023834
0.257812 0.190796 0.013107
0.288330 0.199097 0.002840
0.317627 0.206909 0.000000
0.345215 0.214966 0.000000
0.373291 0.221802 0.000000
0.403320 0.228638 0.000000
0.435303 0.234985 0.000000
0.469971 0.240356 0.000000
0.507324 0.244751 0.000000
0.542480 0.251465 0.000000
0.578125 0.256836 0.000000
0.617188 0.262207 0.000000
0.660156 0.267822 0.000000
0.704102 0.272705 0.000305
0.753418 0.276367 0.001627
0.800781 0.280518 0.002617
0.856934 0.283203 0.000458
0.914062 0.285889 0.000000
0.971191 0.289062 0.000000
1.000000 0.293213 0.000000
1.000000 0.293945 0.006954
1.000000 0.295410 0.012993
1.000000 0.298096 0.017151
1.000000 0.300293 0.020752
0.047180 0.168579 0.057678
0.077515 0.178345 0.057373
0.103577 0.181519 0.055328
0.125366 0.184204 0.051941
0.144165 0.184814 0.048553
0.162354 0.186401 0.043884
0.179810 0.187866 0.037659
0.199463 0.188843 0.029221
0.229858 0.198242 0.015717
0.260254 0.208130 0.005493
0.291992 0.217773 0.000000
0.321533 0.226440 0.000000
0.349854 0.234375 0.000000
0.377686 0.241455 0.000000
0.407715 0.248657 0.000000
0.438965 0.255615 0.000000
0.474609 0.261475 0.000000
0.507324 0.266602 0.000000
0.542969 0.272705 0.000000
0.582520 0.279053 0.000000
0.620605 0.283936 0.000000
0.662109 0.289062 0.000000
0.708008 0.294434 0.000000
0.756348 0.298340 0.000198
0.806152 0.302979 0.000762
0.861816 0.306885 0.000000
0.918945 0.309326 0.000000
0.974609 0.314697 0.000000
1.000000 0.319580 0.001342
1.000000 0.321045 0.008530
1.000000 0.323486 0.014870
1.000000 0.325684 0.017944
1.000000 0.329590 0.021530
0.042389 0.190796 0.055634
0.078796 0.201782 0.052856
0.108032 0.204712 0.050385
0.130127 0.207031 0.045288
0.150757 0.208130 0.039429
0.171021 0.210205 0.031830
0.191406 0.211426 0.024521
0.211914 0.212646 0.018219
0.232910 0.214478 0.008873
0.264404 0.225708 0.000098
0.294189 0.235840 0.000000
0.324951 0.244873 0.000000
0.352051 0.253662 0.000000
0.381836 0.260010 0.000000
0.410645 0.268311 0.000000
0.442627 0.275146 0.000000
0.475098 0.282227 0.000000
0.508301 0.288330 0.000000
0.545410 0.293701 0.000000
0.583984 0.300049 0.000000
0.624512 0.305908 0.000000
0.666504 0.310303 0.000000
0.712402 0.316650 0.000000
0.761230 0.320312 0.000000
0.810547 0.325928 0.000000
0.867188 0.330078 0.000000
0.921875 0.335449 0.000000
0.975586 0.341553 0.000000
1.000000 0.346436 0.003113
1.000000 0.349365 0.010216
1.000000 0.351074 0.016541
1.000000 0.354492 0.020111
1.000000 0.358887 0.022125
0.036591 0.214478 0.054413
0.080505 0.225830 0.050812
0.110962 0.230225 0.043457
0.135742 0.233154 0.036133
0.159058 0.235718 0.029633
0.181274 0.237793 0.022522
0.204468 0.239136 0.016937
0.224731 0.240112 0.010834
0.245483 0.241577 0.005268
0.268066 0.243408 0.000000
0.298584 0.254150 0.000000
0.328125 0.263184 0.000000
0.357422 0.270752 0.000000
0.384277 0.279297 0.000000
0.414307 0.287109 0.000000
0.445557 0.294678 0.000000
0.476807 0.301758 0.000000
0.509277 0.308350 0.000000
0.545410 0.315430 0.000000
0.583008 0.320801 0.000000
0.625977 0.326172 0.000000
0.669922 0.331787 0.000000
0.715332 0.338135 0.000000
0.764648 0.343750 0.000000
0.815918 0.349365 0.000000
0.871094 0.354004 0.000000
0.922852 0.361084 0.000000
0.978516 0.367676 0.000148
1.000000 0.373779 0.004303
1.000000 0.375732 0.010895
1.000000 0.377686 0.016769
1.000000 0.382568 0.019257
1.000000 0.387451 0.022156
0.032043 0.237915 0.053772
0.083435 0.253174 0.046783
0.117615 0.260010 0.038452
0.145264 0.263916 0.030701
0.169556 0.266357 0.023636
0.194214 0.267822 0.017090
0.216431 0.268555 0.011353
0.239014 0.269287 0.006172
0.259521 0.269775 0.001587
0.279785 0.270264 0.000000
0.302002 0.271484 0.000000
0.330566 0.281006 0.000000
0.359131 0.289795 0.000000
0.388184 0.297852 0.000000
0.416504 0.306396 0.000000
0.447510 0.313477 0.000000
0.477051 0.321045 0.000000
0.510254 0.327881 0.000000
0.547363 0.334961 0.000000
0.585449 0.341553 0.000000
0.626465 0.348877 0.000000
0.671387 0.353760 0.000000
0.720215 0.359863 0.000000
0.769043 0.366455 0.000000
0.819336 0.372559 0.000000
0.873047 0.379395 0.000000
0.926270 0.386719 0.000000
0.980469 0.394531 0.001997
1.000000 0.399414 0.005177
1.000000 0.401855 0.010391
1.000000 0.402588 0.015945
1.000000 0.407715 0.017593
1.000000 0.412842 0.020767
0.033752 0.258789 0.057892
0.090820 0.280029 0.046844
0.125977 0.287109 0.038757
0.154297 0.290771 0.030884
0.179688 0.292480 0.023819
0.204956 0.294189 0.017075
0.227783 0.295166 0.011131
0.249878 0.296143 0.005386
0.271729 0.295898 0.000239
0.293701 0.296387 0.000000
0.312988 0.298340 0.000000
0.333008 0.298584 0.000000
0.361572 0.307861 0.000000
0.389893 0.316162 0.000000
0.420410 0.324707 0.000000
0.450439 0.332031 0.000000
0.481201 0.339844 0.000000
0.511719 0.347900 0.000000
0.549805 0.354980 0.000000
0.587891 0.362549 0.000000
0.629395 0.370117 0.000000
0.673828 0.376465 0.000000
0.720215 0.384277 0.000000
0.771973 0.389648 0.000000
0.825684 0.396729 0.000000
0.876953 0.403809 0.000000
0.927734 0.412109 0.000074
0.982910 0.419678 0.002867
1.000000 0.425049 0.004570
1.000000 0.427246 0.009789
1.000000 0.427002 0.012711
1.000000 0.431641 0.015137
1.000000 0.437988 0.017212
0.038025 0.283447 0.063965
0.097473 0.307861 0.047852
0.134155 0.313477 0.038574
0.163086 0.317139 0.031372
0.189453 0.319580 0.024933
0.214722 0.321289 0.018188
0.239014 0.321289 0.011757
0.261230 0.322266 0.006252
0.283691 0.323242 0.001638
0.304688 0.323242 0.000000
0.323486 0.323242 0.000000
0.344727 0.324219 0.000000
0.364502 0.325439 0.000000
0.392578 0.334473 0.000000
0.421875 0.342773 0.000000
0.452637 0.351074 0.000000
0.482666 0.358398 0.000000
0.515625 0.366699 0.000000
0.552246 0.374756 0.000000
0.590820 0.384033 0.001215
0.632812 0.391113 0.001014
0.674805 0.399170 0.001253
0.723145 0.407471 0.000362
0.773926 0.414551 0.000000
0.824707 0.422607 0.000000
0.876953 0.429443 0.000000
0.928223 0.436768 0.000369
0.982910 0.444336 0.002281
1.000000 0.449219 0.002790
1.000000 0.449951 0.006878
1.000000 0.452148 0.009827
1.000000 0.457031 0.011856
1.000000 0.463379 0.014404
0.041229 0.310547 0.068054
0.105591 0.335693 0.049072
0.142822 0.340820 0.040558
0.172607 0.344238 0.034241
0.199463 0.346191 0.027115
0.223999 0.347900 0.020828
0.247925 0.348633 0.014435
0.271729 0.348633 0.008888
0.293457 0.349365 0.004032
0.314453 0.349609 0.000000
0.335938 0.349365 0.000000
0.356445 0.349609 0.000000
0.375488 0.351318 0.000000
0.395020 0.352051 0.000000
0.424561 0.360840 0.000000
0.454590 0.369629 0.000000
0.485840 0.377930 0.000000
0.518555 0.386963 0.000000
0.554688 0.395508 0.000618
0.592773 0.404785 0.003017
0.634277 0.413330 0.004013
0.678223 0.422363 0.003700
0.724121 0.431396 0.002676
0.774414 0.439209 0.000092
0.824219 0.446533 0.001355
0.876465 0.454834 0.001426
0.929688 0.461426 0.000145
0.981445 0.467773 0.000455
1.000000 0.474121 0.000840
1.000000 0.474609 0.003727
1.000000 0.477783 0.007904
1.000000 0.482666 0.009338
1.000000 0.489746 0.011688
0.044281 0.340088 0.070862
0.113220 0.364746 0.051392
0.150024 0.369385 0.042419
0.180908 0.371582 0.036255
0.208740 0.373535 0.029800
0.234375 0.375000 0.023956
0.258789 0.376221 0.018051
0.281738 0.376709 0.012306
0.303955 0.376953 0.008530
0.325195 0.376953 0.004707
0.345215 0.376709 0.002415
0.365479 0.376221 0.000000
0.385010 0.376465 0.000000
0.404541 0.378174 0.000000
0.425781 0.378906 0.000000
0.455566 0.388184 0.000000
0.487793 0.397461 0.000000
0.520996 0.406738 0.000000
0.556152 0.416016 0.001859
0.595215 0.426270 0.004639
0.635742 0.436035 0.006176
0.680176 0.446045 0.005978
0.725586 0.454346 0.004139
0.775879 0.462646 0.004112
0.822754 0.472168 0.007160
0.874023 0.479004 0.005711
0.924805 0.484863 0.001995
0.981445 0.491211 0.000000
1.000000 0.497314 0.000000
1.000000 0.499268 0.001837
1.000000 0.501465 0.003983
1.000000 0.508301 0.007343
1.000000 0.514648 0.008957
0.047791 0.372314 0.074646
0.119019 0.394775 0.053284
0.157715 0.399658 0.044586
0.189453 0.401123 0.038177
0.217896 0.403076 0.033295
0.243652 0.403564 0.028046
0.268555 0.405029 0.025299
0.291748 0.405273 0.021759
0.313721 0.405518 0.019318
0.334473 0.405518 0.015930
0.354980 0.404785 0.012520
0.374512 0.405029 0.010468
0.395752 0.404297 0.008614
0.414551 0.404053 0.004173
0.436279 0.406738 0.000000
0.458496 0.407227 0.000000
0.489746 0.416992 0.000000
0.523926 0.426758 0.000000
0.559082 0.437988 0.003326
0.598145 0.448242 0.005714
0.639160 0.459229 0.007927
0.684570 0.468506 0.007145
0.728027 0.478027 0.005547
0.773926 0.486572 0.008804
0.819824 0.495605 0.010643
0.869629 0.500977 0.007626
0.921387 0.508301 0.004902
0.972656 0.514648 0.001395
1.000000 0.520996 0.000000
1.000000 0.524414 0.000433
1.000000 0.528809 0.004299
1.000000 0.534180 0.007629
1.000000 0.541992 0.010147
0.050018 0.406738 0.077209
0.125977 0.427979 0.055634
0.164795 0.431396 0.047302
0.198608 0.432617 0.044495
0.227173 0.433838 0.042450
0.254883 0.434082 0.039917
0.278809 0.435059 0.037109
0.301025 0.435303 0.033325
0.323242 0.435303 0.030197
0.344482 0.435791 0.027756
0.364502 0.435547 0.024567
0.384521 0.435303 0.021835
0.405518 0.435059 0.019333
0.427246 0.435059 0.016647
0.447754 0.435547 0.012619
0.470459 0.436279 0.006111
0.491455 0.437500 0.001130
0.524902 0.448730 0.003263
0.561523 0.459717 0.005791
0.600586 0.470703 0.007183
0.643066 0.481934 0.008095
0.685547 0.490723 0.006531
0.729492 0.500977 0.009865
0.773438 0.508789 0.011642
0.818359 0.518066 0.012497
0.867188 0.525391 0.011696
0.917969 0.532227 0.008102
0.969727 0.540039 0.004623
1.000000 0.545410 0.000000
1.000000 0.549805 0.002558
1.000000 0.553223 0.005322
1.000000 0.558594 0.008202
1.000000 0.566895 0.010887
0.053162 0.444092 0.079590
0.132080 0.462402 0.060303
0.174805 0.463135 0.055847
0.209229 0.465088 0.054657
0.238159 0.465332 0.053040
0.263916 0.465820 0.050232
0.288330 0.466797 0.047882
0.311279 0.467529 0.044586
0.332031 0.467773 0.041443
0.353516 0.468506 0.038818
0.374512 0.468018 0.035187
0.395752 0.468018 0.032501
0.416260 0.467773 0.029755
0.437744 0.467773 0.027512
0.459717 0.467041 0.023895
0.482178 0.467773 0.019485
0.506348 0.468994 0.012871
0.528320 0.469727 0.006958
0.564941 0.482178 0.008842
0.603516 0.493408 0.009415
0.644531 0.503906 0.008888
0.685059 0.512207 0.007759
0.727051 0.522949 0.012291
0.770996 0.531738 0.014305
0.813965 0.539062 0.013313
0.863281 0.548340 0.013100
0.913086 0.556152 0.010292
0.964844 0.563965 0.006149
1.000000 0.571289 0.001970
1.000000 0.574707 0.003891
1.000000 0.579102 0.007053
1.000000 0.584473 0.009102
1.000000 0.594727 0.012535
0.056641 0.483398 0.082458
0.141602 0.495117 0.070007
0.184570 0.497070 0.066528
0.218140 0.497803 0.064392
0.248047 0.498291 0.063416
0.274658 0.499268 0.061157
0.298340 0.500000 0.058350
0.320312 0.500000 0.055664
0.342285 0.501465 0.053040
0.362305 0.500488 0.049377
0.383545 0.500488 0.046692
0.406006 0.501953 0.043640
0.426758 0.500977 0.039764
0.449463 0.500488 0.036407
0.471680 0.500000 0.033905
0.494629 0.500488 0.030380
0.518555 0.501465 0.024857
0.541504 0.500977 0.017838
0.567871 0.502441 0.011269
0.603027 0.513672 0.010429
0.645020 0.525391 0.008057
0.685059 0.535156 0.010994
0.726562 0.544434 0.013313
0.769043 0.554199 0.015747
0.811035 0.561523 0.015152
0.860352 0.572266 0.015060
0.908691 0.578613 0.011093
0.962402 0.587891 0.007393
1.000000 0.596191 0.002941
1.000000 0.600586 0.004768
1.000000 0.604492 0.007751
1.000000 0.613281 0.011330
1.000000 0.621094 0.013512
0.062103 0.524414 0.087830
0.151123 0.531738 0.079590
0.193970 0.534180 0.076355
0.227295 0.534180 0.073730
0.257812 0.535645 0.072632
0.283936 0.536133 0.071167
0.307373 0.535156 0.067993
0.329834 0.537109 0.065918
0.351562 0.537109 0.063171
0.373047 0.538086 0.060364
0.393799 0.537598 0.056946
0.415283 0.538574 0.053650
0.438232 0.538086 0.050507
0.460205 0.537109 0.045776
0.484375 0.537109 0.042664
0.506836 0.535156 0.037842
0.530273 0.535156 0.034973
0.554199 0.535156 0.027496
0.579590 0.535645 0.019821
0.605957 0.536133 0.012634
0.642578 0.547363 0.010544
0.683105 0.557617 0.012817
0.723145 0.567871 0.015350
0.765137 0.575195 0.016251
0.811035 0.585449 0.017212
0.857910 0.594238 0.015556
0.905273 0.602539 0.012329
0.956543 0.611328 0.008484
1.000000 0.621094 0.004551
1.000000 0.626465 0.005932
1.000000 0.630859 0.008873
1.000000 0.638184 0.011551
1.000000 0.648438 0.013893
0.071899 0.563965 0.097778
0.160522 0.571289 0.089539
0.203003 0.573242 0.085632
0.236694 0.574707 0.083496
0.266846 0.575195 0.081909
0.292725 0.574219 0.079468
0.316895 0.575195 0.078430
0.338867 0.575195 0.074829
0.360107 0.576172 0.072876
0.381836 0.576172 0.069763
0.402832 0.576660 0.065735
0.425049 0.575684 0.062134
0.447510 0.575195 0.057617
0.470459 0.574219 0.053345
0.493652 0.573730 0.048431
0.517090 0.571777 0.043640
0.540527 0.570312 0.038666
0.565918 0.569336 0.035065
0.589355 0.567383 0.027313
0.615723 0.567871 0.021133
0.641602 0.567383 0.014130
0.680176 0.578125 0.015732
0.720703 0.588379 0.015671
0.763184 0.598145 0.016983
0.807129 0.606934 0.016830
0.854004 0.617188 0.016541
0.900879 0.625488 0.012344
0.951172 0.635742 0.009323
1.000000 0.645020 0.004520
1.000000 0.651855 0.005539
1.000000 0.656738 0.008568
1.000000 0.663574 0.010544
1.000000 0.674805 0.013031
0.080933 0.606445 0.107056
0.168579 0.612305 0.097351
0.210571 0.613770 0.092957
0.244141 0.615723 0.090637
0.272705 0.614258 0.087097
0.298096 0.613770 0.084900
0.323486 0.614746 0.084534
0.345703 0.615234 0.082336
0.365723 0.614258 0.077759
0.386719 0.613281 0.074585
0.409180 0.613281 0.070740
0.430664 0.611816 0.065552
0.453369 0.611328 0.061493
0.476562 0.610840 0.058594
0.500488 0.608887 0.054688
0.522461 0.606445 0.050323
0.548340 0.605469 0.046722
0.572754 0.603027 0.043732
0.597168 0.599609 0.040405
0.624023 0.600098 0.033203
0.649902 0.600098 0.025757
0.676270 0.598633 0.018021
0.717773 0.610840 0.018402
0.760254 0.620117 0.018036
0.802734 0.630371 0.017227
0.850586 0.639648 0.015404
0.897949 0.650879 0.013275
0.946289 0.659668 0.009155
1.000000 0.669434 0.004311
1.000000 0.678223 0.005352
1.000000 0.683105 0.007298
1.000000 0.689941 0.009476
1.000000 0.701660 0.011383
0.089050 0.650391 0.114624
0.174316 0.656250 0.103577
0.216064 0.656250 0.098999
0.247437 0.655273 0.093323
0.276611 0.655273 0.090820
0.302490 0.653809 0.088074
0.324951 0.654297 0.085876
0.347900 0.652832 0.084717
0.369385 0.651855 0.082825
0.391846 0.650391 0.081177
0.413574 0.649414 0.077942
0.436768 0.648926 0.075500
0.458740 0.647461 0.071167
0.482422 0.645508 0.067688
0.505371 0.644043 0.062927
0.530273 0.641602 0.059509
0.555664 0.640625 0.056152
0.581055 0.639160 0.052307
0.605957 0.636230 0.048370
0.631348 0.633789 0.044922
0.658203 0.632324 0.036499
0.686035 0.631836 0.028625
0.713867 0.631348 0.021103
0.756348 0.642090 0.019409
0.798828 0.653809 0.018539
0.846680 0.663574 0.015625
0.894043 0.674316 0.012512
0.943359 0.684570 0.009277
0.994141 0.694336 0.004288
1.000000 0.702637 0.003790
1.000000 0.708984 0.005634
1.000000 0.715820 0.008018
1.000000 0.727051 0.009270
0.094238 0.695801 0.119751
0.175049 0.696777 0.104919
0.216064 0.696777 0.099060
0.249268 0.695312 0.096985
0.278320 0.694336 0.095459
0.304199 0.693359 0.094116
0.327881 0.691406 0.093567
0.350586 0.690430 0.091919
0.373047 0.687988 0.090454
0.395996 0.687988 0.089111
0.418213 0.686523 0.086365
0.441406 0.685547 0.083618
0.464111 0.683105 0.079895
0.488525 0.681641 0.075806
0.511719 0.680664 0.071960
0.535156 0.678223 0.067627
0.561035 0.677246 0.063599
0.586914 0.675293 0.059753
0.613770 0.671875 0.055145
0.640137 0.669922 0.051544
0.667969 0.667480 0.047821
0.693848 0.667480 0.039459
0.723145 0.666016 0.030731
0.752930 0.665039 0.022766
0.795898 0.675781 0.019638
0.841309 0.687012 0.015640
0.888672 0.698242 0.011871
0.936523 0.708984 0.008102
0.989258 0.720215 0.003765
1.000000 0.727051 0.000986
1.000000 0.735352 0.004086
1.000000 0.741699 0.006321
1.000000 0.753906 0.007618
0.094849 0.737793 0.118103
0.176270 0.737305 0.107910
0.219971 0.735352 0.106384
0.252441 0.733398 0.103821
0.281250 0.731934 0.101562
0.307617 0.730469 0.100220
0.330811 0.729980 0.099304
0.352783 0.727539 0.097351
0.375732 0.725586 0.096375
0.398926 0.725098 0.095459
0.422363 0.723633 0.093384
0.446289 0.722656 0.090637
0.469482 0.720703 0.086487
0.493408 0.719238 0.083557
0.517090 0.718750 0.079285
0.542480 0.715820 0.074707
0.567871 0.714844 0.071106
0.593262 0.712402 0.065674
0.620117 0.709473 0.061157
0.646973 0.706543 0.056335
0.672852 0.704102 0.051788
0.701172 0.701172 0.047943
0.730469 0.700195 0.038818
0.762207 0.700684 0.030518
0.791016 0.698730 0.021912
0.836914 0.710938 0.017227
0.884277 0.722656 0.012611
0.933105 0.732910 0.006458
0.983398 0.743164 0.001063
1.000000 0.752441 0.000000
1.000000 0.760254 0.001691
1.000000 0.767090 0.003780
1.000000 0.778809 0.004230
0.096130 0.781738 0.119080
0.179810 0.776855 0.113037
0.221436 0.774902 0.110413
0.255615 0.773926 0.108765
0.282471 0.772461 0.106812
0.308350 0.771484 0.104980
0.332031 0.769043 0.103088
0.354736 0.767578 0.101868
0.378174 0.766113 0.100647
0.401367 0.764160 0.099426
0.425781 0.762695 0.097168
0.449219 0.761719 0.095093
0.473389 0.759766 0.092346
0.497803 0.758301 0.088684
0.522461 0.757324 0.084900
0.546387 0.755371 0.080566
0.573242 0.753418 0.075623
0.599121 0.751465 0.070190
0.626465 0.748047 0.065857
0.653320 0.746094 0.061127
0.682129 0.743164 0.055908
0.710449 0.741211 0.052551
0.739746 0.736816 0.047028
0.769043 0.735840 0.037140
0.797852 0.734375 0.027786
0.831543 0.734375 0.019714
0.878906 0.745605 0.012794
0.924805 0.756836 0.006275
0.977051 0.768555 0.000000
1.000000 0.777832 0.000000
1.000000 0.785156 0.000000
1.000000 0.793457 0.000858
1.000000 0.804688 0.000788
0.100464 0.822266 0.123230
0.183228 0.817383 0.117432
0.224976 0.815430 0.114563
0.256348 0.813965 0.111938
0.284424 0.812988 0.110168
0.309326 0.811035 0.108521
0.333008 0.810059 0.106506
0.356689 0.808594 0.105530
0.380859 0.806641 0.103638
0.404053 0.805176 0.102234
0.428467 0.803223 0.100769
0.453125 0.802246 0.098572
0.477295 0.799805 0.095764
0.502930 0.798828 0.092834
0.526367 0.796387 0.088257
0.552246 0.793945 0.083679
0.579102 0.792969 0.079285
0.605469 0.791016 0.074768
0.631836 0.788086 0.068848
0.660645 0.786621 0.064392
0.688477 0.782715 0.058685
0.716797 0.778809 0.053192
0.748047 0.776367 0.049438
0.777344 0.772461 0.043121
0.807617 0.772461 0.034363
0.837402 0.770508 0.023514
0.872559 0.769043 0.013962
0.918945 0.780273 0.006775
0.970703 0.792480 0.000000
