SpeedLens/Resources/LUTS/S-curve_for_CineStyle.cube
TITLE "S-curve for CineStyle"
LUT_3D_SIZE 9
0.0000 0.0000 0.0000
0.0371 0.0000 0.0000
0.1456 0.0000 0.0000
0.3079 0.0000 0.0000
0.4995 0.0000 0.0000
0.6911 0.0000 0.0000
0.8534 0.0000 0.0000
0.9619 0.0000 0.0000
1.0000 0.0000 0.0000
0.0000 0.0371 0.0000
0.0371 0.0371 0.0000
0.1456 0.0371 0.0000
0.3079 0.0371 0.0000
0.4995 0.0371 0.0000
0.6911 0.0371 0.0000
0.8534 0.0371 0.0000
0.9619 0.0371 0.0000
1.0000 0.0371 0.0000
0.0000 0.1456 0.0000
0.0371 0.1456 0.0000
0.1456 0.1456 0.0000
0.3079 0.1456 0.0000
0.4995 0.1456 0.0000
0.6911 0.1456 0.0000
0.8534 0.1456 0.0000
0.9619 0.1456 0.0000
1.0000 0.1456 0.0000
0.0000 0.3079 0.0000
0.0371 0.3079 0.0000
0.1456 0.3079 0.0000
0.3079 0.3079 0.0000
0.4995 0.3079 0.0000
0.6911 0.3079 0.0000
0.8534 0.3079 0.0000
0.9619 0.3079 0.0000
1.0000 0.3079 0.0000
0.0000 0.4995 0.0000
0.0371 0.4995 0.0000
0.1456 0.4995 0.0000
0.3079 0.4995 0.0000
0.4995 0.4995 0.0000
0.6911 0.4995 0.0000
0.8534 0.4995 0.0000
0.9619 0.4995 0.0000
1.0000 0.4995 0.0000
0.0000 0.6911 0.0000
0.0371 0.6911 0.0000
0.1456 0.6911 0.0000
0.3079 0.6911 0.0000
0.4995 0.6911 0.0000
0.6911 0.6911 0.0000
0.8534 0.6911 0.0000
0.9619 0.6911 0.0000
1.0000 0.6911 0.0000
0.0000 0.8534 0.0000
0.0371 0.8534 0.0000
0.1456 0.8534 0.0000
0.3079 0.8534 0.0000
0.4995 0.8534 0.0000
0.6911 0.8534 0.0000
0.8534 0.8534 0.0000
0.9619 0.8534 0.0000
1.0000 0.8534 0.0000
0.0000 0.9619 0.0000
0.0371 0.9619 0.0000
0.1456 0.9619 0.0000
0.3079 0.9619 0.0000
0.4995 0.9619 0.0000
0.6911 0.9619 0.0000
0.8534 0.9619 0.0000
0.9619 0.9619 0.0000
1.0000 0.9619 0.0000
0.0000 1.0000 0.0000
0.0371 1.0000 0.0000
0.1456 1.0000 0.0000
0.3079 1.0000 0.0000
0.4995 1.0000 0.0000
0.6911 1.0000 0.0000
0.8534 1.0000 0.0000
0.9619 1.0000 0.0000
1.0000 1.0000 0.0000
0.0000 0.0000 0.0371
0.0371 0.0000 0.0371
0.1456 0.0000 0.0371
0.3079 0.0000 0.0371
0.4995 0.0000 0.0371
0.6911 0.0000 0.0371
0.8534 0.0000 0.0371
0.9619 0.0000 0.0371
1.0000 0.0000 0.0371
0.0000 0.0371 0.0371
0.0371 0.0371 0.0371
0.1456 0.0371 0.0371
0.3079 0.0371 0.0371
0.4995 0.0371 0.0371
0.6911 0.0371 0.0371
0.8534 0.0371 0.0371
0.9619 0.0371 0.0371
1.0000 0.0371 0.0371
0.0000 0.1456 0.0371
0.0371 0.1456 0.0371
0.1456 0.1456 0.0371
0.3079 0.1456 0.0371
0.4995 0.1456 0.0371
0.6911 0.1456 0.0371
0.8534 0.1456 0.0371
0.9619 0.1456 0.0371
1.0000 0.1456 0.0371
0.0000 0.3079 0.0371
0.0371 0.3079 0.0371
0.1456 0.3079 0.0371
0.3079 0.3079 0.0371
0.4995 0.3079 0.0371
0.6911 0.3079 0.0371
0.8534 0.3079 0.0371
0.9619 0.3079 0.0371
1.0000 0.3079 0.0371
0.0000 0.4995 0.0371
0.0371 0.4995 0.0371
0.1456 0.4995 0.0371
0.3079 0.4995 0.0371
0.4995 0.4995 0.0371
0.6911 0.4995 0.0371
0.8534 0.4995 0.0371
0.9619 0.4995 0.0371
1.0000 0.4995 0.0371
0.0000 0.6911 0.0371
0.0371 0.6911 0.0371
0.1456 0.6911 0.0371
0.3079 0.6911 0.0371
0.4995 0.6911 0.0371
0.6911 0.6911 0.0371
0.8534 0.6911 0.0371
0.9619 0.6911 0.0371
1.0000 0.6911 0.0371
0.0000 0.8534 0.0371
0.0371 0.8534 0.0371
0.1456 0.8534 0.0371
0.3079 0.8534 0.0371
0.4995 0.8534 0.0371
0.6911 0.8534 0.0371
0.8534 0.8534 0.0371
0.9619 0.8534 0.0371
1.0000 0.8534 0.0371
0.0000 0.9619 0.0371
0.0371 0.9619 0.0371
0.1456 0.9619 0.0371
0.3079 0.9619 0.0371
0.4995 0.9619 0.0371
0.6911 0.9619 0.0371
0.8534 0.9619 0.0371
0.9619 0.9619 0.0371
1.0000 0.9619 0.0371
0.0000 1.0000 0.0371
0.0371 1.0000 0.0371
0.1456 1.0000 0.0371
0.3079 1.0000 0.0371
0.4995 1.0000 0.0371
0.6911 1.0000 0.0371
0.8534 1.0000 0.0371
0.9619 1.0000 0.0371
1.0000 1.0000 0.0371
0.0000 0.0000 0.1456
0.0371 0.0000 0.1456
0.1456 0.0000 0.1456
0.3079 0.0000 0.1456
0.4995 0.0000 0.1456
0.6911 0.0000 0.1456
0.8534 0.0000 0.1456
0.9619 0.0000 0.1456
1.0000 0.0000 0.1456
0.0000 0.0371 0.1456
0.0371 0.0371 0.1456
0.1456 0.0371 0.1456
0.3079 0.0371 0.1456
0.4995 0.0371 0.1456
0.6911 0.0371 0.1456
0.8534 0.0371 0.1456
0.9619 0.0371 0.1456
1.0000 0.0371 0.1456
0.0000 0.1456 0.1456
0.0371 0.1456 0.1456
0.1456 0.1456 0.1456
0.3079 0.1456 0.1456
0.4995 0.1456 0.1456
0.6911 0.1456 0.1456
0.8534 0.1456 0.1456
0.9619 0.1456 0.1456
1.0000 0.1456 0.1456
0.0000 0.3079 0.1456
0.0371 0.3079 0.1456
0.1456 0.3079 0.1456
0.3079 0.3079 0.1456
0.4995 0.3079 0.1456
0.6911 0.3079 0.1456
0.8534 0.3079 0.1456
0.9619 0.3079 0.1456
1.0000 0.3079 0.1456
0.0000 0.4995 0.1456
0.0371 0.4995 0.1456
0.1456 0.4995 0.1456
0.3079 0.4995 0.1456
0.4995 0.4995 0.1456
0.6911 0.4995 0.1456
0.8534 0.4995 0.1456
0.9619 0.4995 0.1456
1.0000 0.4995 0.1456
0.0000 0.6911 0.1456
0.0371 0.6911 0.1456
0.1456 0.6911 0.1456
0.3079 0.6911 0.1456
0.4995 0.6911 0.1456
0.6911 0.6911 0.1456
0.8534 0.6911 0.1456
0.9619 0.6911 0.1456
1.0000 0.6911 0.1456
0.0000 0.8534 0.1456
0.0371 0.8534 0.1456
0.1456 0.8534 0.1456
0.3079 0.8534 0.1456
0.4995 0.8534 0.1456
0.6911 0.8534 0.1456
0.8534 0.8534 0.1456
0.9619 0.8534 0.1456
1.0000 0.8534 0.1456
0.0000 0.9619 0.1456
0.0371 0.9619 0.1456
0.1456 0.9619 0.1456
0.3079 0.9619 0.1456
0.4995 0.9619 0.1456
0.6911 0.9619 0.1456
0.8534 0.9619 0.1456
0.9619 0.9619 0.1456
1.0000 0.9619 0.1456
0.0000 1.0000 0.1456
0.0371 1.0000 0.1456
0.1456 1.0000 0.1456
0.3079 1.0000 0.1456
0.4995 1.0000 0.1456
0.6911 1.0000 0.1456
0.8534 1.0000 0.1456
0.9619 1.0000 0.1456
1.0000 1.0000 0.1456
0.0000 0.0000 0.3079
0.0371 0.0000 0.3079
0.1456 0.0000 0.3079
0.3079 0.0000 0.3079
0.4995 0.0000 0.3079
0.6911 0.0000 0.3079
0.8534 0.0000 0.3079
0.9619 0.0000 0.3079
1.0000 0.0000 0.3079
0.0000 0.0371 0.3079
0.0371 0.0371 0.3079
0.1456 0.0371 0.3079
0.3079 0.0371 0.3079
0.4995 0.0371 0.3079
0.6911 0.0371 0.3079
0.8534 0.0371 0.3079
0.9619 0.0371 0.3079
1.0000 0.0371 0.3079
0.0000 0.1456 0.3079
0.0371 0.1456 0.3079
0.1456 0.1456 0.3079
0.3079 0.1456 0.3079
0.4995 0.1456 0.3079
0.6911 0.1456 0.3079
0.8534 0.1456 0.3079
0.9619 0.1456 0.3079
1.0000 0.1456 0.3079
0.0000 0.3079 0.3079
0.0371 0.3079 0.3079
0.1456 0.3079 0.3079
0.3079 0.3079 0.3079
0.4995 0.3079 0.3079
0.6911 0.3079 0.3079
0.8534 0.3079 0.3079
0.9619 0.3079 0.3079
1.0000 0.3079 0.3079
0.0000 0.4995 0.3079
0.0371 0.4995 0.3079
0.1456 0.4995 0.3079
0.3079 0.4995 0.3079
0.4995 0.4995 0.3079
0.6911 0.4995 0.3079
0.8534 0.4995 0.3079
0.9619 0.4995 0.3079
1.0000 0.4995 0.3079
0.0000 0.6911 0.3079
0.0371 0.6911 0.3079
0.1456 0.6911 0.3079
0.3079 0.6911 0.3079
0.4995 0.6911 0.3079
0.6911 0.6911 0.3079
0.8534 0.6911 0.3079
0.9619 0.6911 0.3079
1.0000 0.6911 0.3079
0.0000 0.8534 0.3079
0.0371 0.8534 0.3079
0.1456 0.8534 0.3079
0.3079 0.8534 0.3079
0.4995 0.8534 0.3079
0.6911 0.8534 0.3079
0.8534 0.8534 0.3079
0.9619 0.8534 0.3079
1.0000 0.8534 0.3079
0.0000 0.9619 0.3079
0.0371 0.9619 0.3079
0.1456 0.9619 0.3079
0.3079 0.9619 0.3079
0.4995 0.9619 0.3079
0.6911 0.9619 0.3079
0.8534 0.9619 0.3079
0.9619 0.9619 0.3079
1.0000 0.9619 0.3079
0.0000 1.0000 0.3079
0.0371 1.0000 0.3079
0.1456 1.0000 0.3079
0.3079 1.0000 0.3079
0.4995 1.0000 0.3079
0.6911 1.0000 0.3079
0.8534 1.0000 0.3079
0.9619 1.0000 0.3079
1.0000 1.0000 0.3079
0.0000 0.0000 0.4995
0.0371 0.0000 0.4995
0.1456 0.0000 0.4995
0.3079 0.0000 0.4995
0.4995 0.0000 0.4995
0.6911 0.0000 0.4995
0.8534 0.0000 0.4995
0.9619 0.0000 0.4995
1.0000 0.0000 0.4995
0.0000 0.0371 0.4995
0.0371 0.0371 0.4995
0.1456 0.0371 0.4995
0.3079 0.0371 0.4995
0.4995 0.0371 0.4995
0.6911 0.0371 0.4995
0.8534 0.0371 0.4995
0.9619 0.0371 0.4995
1.0000 0.0371 0.4995
0.0000 0.1456 0.4995
0.0371 0.1456 0.4995
0.1456 0.1456 0.4995
0.3079 0.1456 0.4995
0.4995 0.1456 0.4995
0.6911 0.1456 0.4995
0.8534 0.1456 0.4995
0.9619 0.1456 0.4995
1.0000 0.1456 0.4995
0.0000 0.3079 0.4995
0.0371 0.3079 0.4995
0.1456 0.3079 0.4995
0.3079 0.3079 0.4995
0.4995 0.3079 0.4995
0.6911 0.3079 0.4995
0.8534 0.3079 0.4995
0.9619 0.3079 0.4995
1.0000 0.3079 0.4995
0.0000 0.4995 0.4995
0.0371 0.4995 0.4995
0.1456 0.4995 0.4995
0.3079 0.4995 0.4995
0.4995 0.4995 0.4995
0.6911 0.4995 0.4995
0.8534 0.4995 0.4995
0.9619 0.4995 0.4995
1.0000 0.4995 0.4995
0.0000 0.6911 0.4995
0.0371 0.6911 0.4995
0.1456 0.6911 0.4995
0.3079 0.6911 0.4995
0.4995 0.6911 0.4995
0.6911 0.6911 0.4995
0.8534 0.6911 0.4995
0.9619 0.6911 0.4995
1.0000 0.6911 0.4995
0.0000 0.8534 0.4995
0.0371 0.8534 0.4995
0.1456 0.8534 0.4995
0.3079 0.8534 0.4995
0.4995 0.8534 0.4995
0.6911 0.8534 0.4995
0.8534 0.8534 0.4995
0.9619 0.8534 0.4995
1.0000 0.8534 0.4995
0.0000 0.9619 0.4995
0.0371 0.9619 0.4995
0.1456 0.9619 0.4995
0.3079 0.9619 0.4995
0.4995 0.9619 0.4995
0.6911 0.9619 0.4995
0.8534 0.9619 0.4995
0.9619 0.9619 0.4995
1.0000 0.9619 0.4995
0.0000 1.0000 0.4995
0.0371 1.0000 0.4995
0.1456 1.0000 0.4995
0.3079 1.0000 0.4995
0.4995 1.0000 0.4995
0.6911 1.0000 0.4995
0.8534 1.0000 0.4995
0.9619 1.0000 0.4995
1.0000 1.0000 0.4995
0.0000 0.0000 0.6911
0.0371 0.0000 0.6911
0.1456 0.0000 0.6911
0.3079 0.0000 0.6911
0.4995 0.0000 0.6911
0.6911 0.0000 0.6911
0.8534 0.0000 0.6911
0.9619 0.0000 0.6911
1.0000 0.0000 0.6911
0.0000 0.0371 0.6911
0.0371 0.0371 0.6911
0.1456 0.0371 0.6911
0.3079 0.0371 0.6911
0.4995 0.0371 0.6911
0.6911 0.0371 0.6911
0.8534 0.0371 0.6911
0.9619 0.0371 0.6911
1.0000 0.0371 0.6911
0.0000 0.1456 0.6911
0.0371 0.1456 0.6911
0.1456 0.1456 0.6911
0.3079 0.1456 0.6911
0.4995 0.1456 0.6911
0.6911 0.1456 0.6911
0.8534 0.1456 0.6911
0.9619 0.1456 0.6911
1.0000 0.1456 0.6911
0.0000 0.3079 0.6911
0.0371 0.3079 0.6911
0.1456 0.3079 0.6911
0.3079 0.3079 0.6911
0.4995 0.3079 0.6911
0.6911 0.3079 0.6911
0.8534 0.3079 0.6911
0.9619 0.3079 0.6911
1.0000 0.3079 0.6911
0.0000 0.4995 0.6911
0.0371 0.4995 0.6911
0.1456 0.4995 0.6911
0.3079 0.4995 0.6911
0.4995 0.4995 0.6911
0.6911 0.4995 0.6911
0.8534 0.4995 0.6911
0.9619 0.4995 0.6911
1.0000 0.4995 0.6911
0.0000 0.6911 0.6911
0.0371 0.6911 0.6911
0.1456 0.6911 0.6911
0.3079 0.6911 0.6911
0.4995 0.6911 0.6911
0.6911 0.6911 0.6911
0.8534 0.6911 0.6911
0.9619 0.6911 0.6911
1.0000 0.6911 0.6911
0.0000 0.8534 0.6911
0.0371 0.8534 0.6911
0.1456 0.8534 0.6911
0.3079 0.8534 0.6911
0.4995 0.8534 0.6911
0.6911 0.8534 0.6911
0.8534 0.8534 0.6911
0.9619 0.8534 0.6911
1.0000 0.8534 0.6911
0.0000 0.9619 0.6911
0.0371 0.9619 0.6911
0.1456 0.9619 0.6911
0.3079 0.9619 0.6911
0.4995 0.9619 0.6911
0.6911 0.9619 0.6911
0.8534 0.9619 0.6911
0.9619 0.9619 0.6911
1.0000 0.9619 0.6911
0.0000 1.0000 0.6911
0.0371 1.0000 0.6911
0.1456 1.0000 0.6911
0.3079 1.0000 0.6911
0.4995 1.0000 0.6911
0.6911 1.0000 0.6911
0.8534 1.0000 0.6911
0.9619 1.0000 0.6911
1.0000 1.0000 0.6911
0.0000 0.0000 0.8534
0.0371 0.0000 0.8534
0.1456 0.0000 0.8534
0.3079 0.0000 0.8534
0.4995 0.0000 0.8534
0.6911 0.0000 0.8534
0.8534 0.0000 0.8534
0.9619 0.0000 0.8534
1.0000 0.0000 0.8534
0.0000 0.0371 0.8534
0.0371 0.0371 0.8534
0.1456 0.0371 0.8534
0.3079 0.0371 0.8534
0.4995 0.0371 0.8534
0.6911 0.0371 0.8534
0.8534 0.0371 0.8534
0.9619 0.0371 0.8534
1.0000 0.0371 0.8534
0.0000 0.1456 0.8534
0.0371 0.1456 0.8534
0.1456 0.1456 0.8534
0.3079 0.1456 0.8534
0.4995 0.1456 0.8534
0.6911 0.1456 0.8534
0.8534 0.1456 0.8534
0.9619 0.1456 0.8534
1.0000 0.1456 0.8534
0.0000 0.3079 0.8534
0.0371 0.3079 0.8534
0.1456 0.3079 0.8534
0.3079 0.3079 0.8534
0.4995 0.3079 0.8534
0.6911 0.3079 0.8534
0.8534 0.3079 0.8534
0.9619 0.3079 0.8534
1.0000 0.3079 0.8534
0.0000 0.4995 0.8534
0.0371 0.4995 0.8534
0.1456 0.4995 0.8534
0.3079 0.4995 0.8534
0.4995 0.4995 0.8534
0.6911 0.4995 0.8534
0.8534 0.4995 0.8534
0.9619 0.4995 0.8534
1.0000 0.4995 0.8534
0.0000 0.6911 0.8534
0.0371 0.6911 0.8534
0.1456 0.6911 0.8534
0.3079 0.6911 0.8534
0.4995 0.6911 0.8534
0.6911 0.6911 0.8534
0.8534 0.6911 0.8534
0.9619 0.6911 0.8534
1.0000 0.6911 0.8534
0.0000 0.8534 0.8534
0.0371 0.8534 0.8534
0.1456 0.8534 0.8534
0.3079 0.8534 0.8534
0.4995 0.8534 0.8534
0.6911 0.8534 0.8534
0.8534 0.8534 0.8534
0.9619 0.8534 0.8534
1.0000 0.8534 0.8534
0.0000 0.9619 0.8534
0.0371 0.9619 0.8534
0.1456 0.9619 0.8534
0.3079 0.9619 0.8534
0.4995 0.9619 0.8534
0.6911 0.9619 0.8534
0.8534 0.9619 0.8534
0.9619 0.9619 0.8534
1.0000 0.9619 0.8534
0.0000 1.0000 0.8534
0.0371 1.0000 0.8534
0.1456 1.0000 0.8534
0.3079 1.0000 0.8534
0.4995 1.0000 0.8534
0.6911 1.0000 0.8534
0.8534 1.0000 0.8534
0.9619 1.0000 0.8534
1.0000 1.0000 0.8534
0.0000 0.0000 0.9619
0.0371 0.0000 0.9619
0.1456 0.0000 0.9619
0.3079 0.0000 0.9619
0.4995 0.0000 0.9619
0.6911 0.0000 0.9619
0.8534 0.0000 0.9619
0.9619 0.0000 0.9619
1.0000 0.0000 0.9619
0.0000 0.0371 0.9619
0.0371 0.0371 0.9619
0.1456 0.0371 0.9619
0.3079 0.0371 0.9619
0.4995 0.0371 0.9619
0.6911 0.0371 0.9619
0.8534 0.0371 0.9619
0.9619 0.0371 0.9619
1.0000 0.0371 0.9619
0.0000 0.1456 0.9619
0.0371 0.1456 0.9619
0.1456 0.1456 0.9619
0.3079 0.1456 0.9619
0.4995 0.1456 0.9619
0.6911 0.1456 0.9619
0.8534 0.1456 0.9619
0.9619 0.1456 0.9619
1.0000 0.1456 0.9619
0.0000 0.3079 0.9619
0.0371 0.3079 0.9619
0.1456 0.3079 0.9619
0.3079 0.3079 0.9619
0.4995 0.3079 0.9619
0.6911 0.3079 0.9619
0.8534 0.3079 0.9619
0.9619 0.3079 0.9619
1.0000 0.3079 0.9619
0.0000 0.4995 0.9619
0.0371 0.4995 0.9619
0.1456 0.4995 0.9619
0.3079 0.4995 0.9619
0.4995 0.4995 0.9619
0.6911 0.4995 0.9619
0.8534 0.4995 0.9619
0.9619 0.4995 0.9619
1.0000 0.4995 0.9619
0.0000 0.6911 0.9619
0.0371 0.6911 0.9619
0.1456 0.6911 0.9619
0.3079 0.6911 0.9619
0.4995 0.6911 0.9619
0.6911 0.6911 0.9619
0.8534 0.6911 0.9619
0.9619 0.6911 0.9619
1.0000 0.6911 0.9619
0.0000 0.8534 0.9619
0.0371 0.8534 0.9619
0.1456 0.8534 0.9619
0.3079 0.8534 0.9619
0.4995 0.8534 0.9619
0.6911 0.8534 0.9619
0.8534 0.8534 0.9619
0.9619 0.8534 0.9619
1.0000 0.8534 0.9619
0.0000 0.9619 0.9619
0.0371 0.9619 0.9619
0.1456 0.9619 0.9619
0.3079 0.9619 0.9619
0.4995 0.9619 0.9619
0.6911 0.9619 0.9619
0.8534 0.9619 0.9619
0.9619 0.9619 0.9619
1.0000 0.9619 0.9619
0.0000 1.0000 0.9619
0.0371 1.0000 0.9619
0.1456 1.0000 0.9619
0.3079 1.0000 0.9619
0.4995 1.0000 0.9619
0.6911 1.0000 0.9619
0.8534 1.0000 0.9619
0.9619 1.0000 0.9619
1.0000 1.0000 0.9619
0.0000 0.0000 1.0000
0.0371 0.0000 1.0000
0.1456 0.0000 1.0000
0.3079 0.0000 1.0000
0.4995 0.0000 1.0000
0.6911 0.0000 1.0000
0.8534 0.0000 1.0000
0.9619 0.0000 1.0000
1.0000 0.0000 1.0000
0.0000 0.0371 1.0000
0.0371 0.0371 1.0000
0.1456 0.0371 1.0000
0.3079 0.0371 1.0000
0.4995 0.0371 1.0000
0.6911 0.0371 1.0000
0.8534 0.0371 1.0000
0.9619 0.0371 1.0000
1.0000 0.0371 1.0000
0.0000 0.1456 1.0000
0.0371 0.1456 1.0000
0.1456 0.1456 1.0000
0.3079 0.1456 1.0000
0.4995 0.1456 1.0000
0.6911 0.1456 1.0000
0.8534 0.1456 1.0000
0.9619 0.1456 1.0000
1.0000 0.1456 1.0000
0.0000 0.3079 1.0000
0.0371 0.3079 1.0000
0.1456 0.3079 1.0000
0.3079 0.3079 1.0000
0.4995 0.3079 1.0000
0.6911 0.3079 1.0000
0.8534 0.3079 1.0000
0.9619 0.3079 1.0000
1.0000 0.3079 1.0000
0.0000 0.4995 1.0000
0.0371 0.4995 1.0000
0.1456 0.4995 1.0000
0.3079 0.4995 1.0000
0.4995 0.4995 1.0000
0.6911 0.4995 1.0000
0.8534 0.4995 1.0000
0.9619 0.4995 1.0000
1.0000 0.4995 1.0000
0.0000 0.6911 1.0000
0.0371 0.6911 1.0000
0.1456 0.6911 1.0000
0.3079 0.6911 1.0000
0.4995 0.6911 1.0000
0.6911 0.6911 1.0000
0.8534 0.6911 1.0000
0.9619 0.6911 1.0000
1.0000 0.6911 1.0000
0.0000 0.8534 1.0000
0.0371 0.8534 1.0000
0.1456 0.8534 1.0000
0.3079 0.8534 1.0000
0.4995 0.8534 1.0000
0.6911 0.8534 1.0000
0.8534 0.8534 1.0000
0.9619 0.8534 1.0000
1.0000 0.8534 1.0000
0.0000 0.9619 1.0000
0.0371 0.9619 1.0000
0.1456 0.9619 1.0000
0.3079 0.9619 1.0000
0.4995 0.9619 1.0000
0.6911 0.9619 1.0000
0.8534 0.9619 1.0000
0.9619 0.9619 1.0000
1.0000 0.9619 1.0000
0.0000 1.0000 1.0000
0.0371 1.0000 1.0000
0.1456 1.0000 1.0000
0.3079 1.0000 1.0000
0.4995 1.0000 1.0000
0.6911 1.0000 1.0000
0.8534 1.0000 1.0000
0.9619 1.0000 1.0000
1.0000 1.0000 1.0000
