SpeedLens/Resources/LUTS/S-curve_for_CineStyle.cube
TITLE "S-curve for CineStyle"
LUT_3D_SIZE 5
0.0000 0.0000 0.0000
0.1456 0.0000 0.0000
0.4995 0.0000 0.0000
0.8534 0.0000 0.0000
1.0000 0.0000 0.0000
0.0000 0.1456 0.0000
0.1456 0.1456 0.0000
0.4995 0.1456 0.0000
0.8534 0.1456 0.0000
1.0000 0.1456 0.0000
0.0000 0.4995 0.0000
0.1456 0.4995 0.0000
0.4995 0.4995 0.0000
0.8534 0.4995 0.0000
1.0000 0.4995 0.0000
0.0000 0.8534 0.0000
0.1456 0.8534 0.0000
0.4995 0.8534 0.0000
0.8534 0.8534 0.0000
1.0000 0.8534 0.0000
0.0000 1.0000 0.0000
0.1456 1.0000 0.0000
0.4995 1.0000 0.0000
0.8534 1.0000 0.0000
1.0000 1.0000 0.0000
0.0000 0.0000 0.1456
0.1456 0.0000 0.1456
0.4995 0.0000 0.1456
0.8534 0.0000 0.1456
1.0000 0.0000 0.1456
0.0000 0.1456 0.1456
0.1456 0.1456 0.1456
0.4995 0.1456 0.1456
0.8534 0.1456 0.1456
1.0000 0.1456 0.1456
0.0000 0.4995 0.1456
0.1456 0.4995 0.1456
0.4995 0.4995 0.1456
0.8534 0.4995 0.1456
1.0000 0.4995 0.1456
0.0000 0.8534 0.1456
0.1456 0.8534 0.1456
0.4995 0.8534 0.1456
0.8534 0.8534 0.1456
1.0000 0.8534 0.1456
0.0000 1.0000 0.1456
0.1456 1.0000 0.1456
0.4995 1.0000 0.1456
0.8534 1.0000 0.1456
1.0000 1.0000 0.1456
0.0000 0.0000 0.4995
0.1456 0.0000 0.4995
0.4995 0.0000 0.4995
0.8534 0.0000 0.4995
1.0000 0.0000 0.4995
0.0000 0.1456 0.4995
0.1456 0.1456 0.4995
0.4995 0.1456 0.4995
0.8534 0.1456 0.4995
1.0000 0.1456 0.4995
0.0000 0.4995 0.4995
0.1456 0.4995 0.4995
0.4995 0.4995 0.4995
0.8534 0.4995 0.4995
1.0000 0.4995 0.4995
0.0000 0.8534 0.4995
0.1456 0.8534 0.4995
0.4995 0.8534 0.4995
0.8534 0.8534 0.4995
1.0000 0.8534 0.4995
0.0000 1.0000 0.4995
0.1456 1.0000 0.4995
0.4995 1.0000 0.4995
0.8534 1.0000 0.4995
1.0000 1.0000 0.4995
0.0000 0.0000 0.8534
0.1456 0.0000 0.8534
0.4995 0.0000 0.8534
0.8534 0.0000 0.8534
1.0000 0.0000 0.8534
0.0000 0.1456 0.8534
0.1456 0.1456 0.8534
0.4995 0.1456 0.8534
0.8534 0.1456 0.8534
1.0000 0.1456 0.8534
0.0000 0.4995 0.8534
0.1456 0.4995 0.8534
0.4995 0.4995 0.8534
0.8534 0.4995 0.8534
1.0000 0.4995 0.8534
0.0000 0.8534 0.8534
0.1456 0.8534 0.8534
0.4995 0.8534 0.8534
0.8534 0.8534 0.8534
1.0000 0.8534 0.8534
0.0000 1.0000 0.8534
0.1456 1.0000 0.8534
0.4995 1.0000 0.8534
0.8534 1.0000 0.8534
1.0000 1.0000 0.8534
0.0000 0.0000 1.0000
0.1456 0.0000 1.0000
0.4995 0.0000 1.0000
0.8534 0.0000 1.0000
1.0000 0.0000 1.0000
0.0000 0.1456 1.0000
0.1456 0.1456 1.0000
0.4995 0.1456 1.0000
0.8534 0.1456 1.0000
1.0000 0.1456 1.0000
0.0000 0.4995 1.0000
0.1456 0.4995 1.0000
0.4995 0.4995 1.0000
0.8534 0.4995 1.0000
1.0000 0.4995 1.0000
0.0000 0.8534 1.0000
0.1456 0.8534 1.0000
0.4995 0.8534 1.0000
0.8534 0.8534 1.0000
1.0000 0.8534 1.0000
0.0000 1.0000 1.0000
0.1456 1.0000 1.0000
0.4995 1.0000 1.0000
0.8534 1.0000 1.0000
1.0000 1.0000 1.0000
