SpeedLens/Resources/LUTS/S-curve_for_CineStyle.cube
TITLE "S-curve for CineStyle"
LUT_3D_SIZE 33
0.0000 0.0000 0.0000
0.0020 0.0000 0.0000
0.0098 0.0000 0.0000
0.0215 0.0000 0.0000
0.0371 0.0000 0.0000
0.0587 0.0000 0.0000
0.0831 0.0000 0.0000
0.1124 0.0000 0.0000
0.1456 0.0000 0.0000
0.1818 0.0000 0.0000
0.2209 0.0000 0.0000
0.2630 0.0000 0.0000
0.3079 0.0000 0.0000
0.3539 0.0000 0.0000
0.4018 0.0000 0.0000
0.4506 0.0000 0.0000
0.4995 0.0000 0.0000
0.5484 0.0000 0.0000
0.5973 0.0000 0.0000
0.6442 0.0000 0.0000
0.6911 0.0000 0.0000
0.7351 0.0000 0.0000
0.7771 0.0000 0.0000
0.8172 0.0000 0.0000
0.8534 0.0000 0.0000
0.8866 0.0000 0.0000
0.9159 0.0000 0.0000
0.9404 0.0000 0.0000
0.9619 0.0000 0.0000
0.9785 0.0000 0.0000
0.9902 0.0000 0.0000
0.9980 0.0000 0.0000
1.0000 0.0000 0.0000
0.0000 0.0020 0.0000
0.0020 0.0020 0.0000
0.0098 0.0020 0.0000
0.0215 0.0020 0.0000
0.0371 0.0020 0.0000
0.0587 0.0020 0.0000
0.0831 0.0020 0.0000
0.1124 0.0020 0.0000
0.1456 0.0020 0.0000
0.1818 0.0020 0.0000
0.2209 0.0020 0.0000
0.2630 0.0020 0.0000
0.3079 0.0020 0.0000
0.3539 0.0020 0.0000
0.4018 0.0020 0.0000
0.4506 0.0020 0.0000
0.4995 0.0020 0.0000
0.5484 0.0020 0.0000
0.5973 0.0020 0.0000
0.6442 0.0020 0.0000
0.6911 0.0020 0.0000
0.7351 0.0020 0.0000
0.7771 0.0020 0.0000
0.8172 0.0020 0.0000
0.8534 0.0020 0.0000
0.8866 0.0020 0.0000
0.9159 0.0020 0.0000
0.9404 0.0020 0.0000
0.9619 0.0020 0.0000
0.9785 0.0020 0.0000
0.9902 0.0020 0.0000
0.9980 0.0020 0.0000
1.0000 0.0020 0.0000
0.0000 0.0098 0.0000
0.0020 0.0098 0.0000
0.0098 0.0098 0.0000
0.0215 0.0098 0.0000
0.0371 0.0098 0.0000
0.0587 0.0098 0.0000
0.0831 0.0098 0.0000
0.1124 0.0098 0.0000
0.1456 0.0098 0.0000
0.1818 0.0098 0.0000
0.2209 0.0098 0.0000
0.2630 0.0098 0.0000
0.3079 0.0098 0.0000
0.3539 0.0098 0.0000
0.4018 0.0098 0.0000
0.4506 0.0098 0.0000
0.4995 0.0098 0.0000
0.5484 0.0098 0.0000
0.5973 0.0098 0.0000
0.6442 0.0098 0.0000
0.6911 0.0098 0.0000
0.7351 0.0098 0.0000
0.7771 0.0098 0.0000
0.8172 0.0098 0.0000
0.8534 0.0098 0.0000
0.8866 0.0098 0.0000
0.9159 0.0098 0.0000
0.9404 0.0098 0.0000
0.9619 0.0098 0.0000
0.9785 0.0098 0.0000
0.9902 0.0098 0.0000
0.9980 0.0098 0.0000
1.0000 0.0098 0.0000
0.0000 0.0215 0.0000
0.0020 0.0215 0.0000
0.0098 0.0215 0.0000
0.0215 0.0215 0.0000
0.0371 0.0215 0.0000
0.0587 0.0215 0.0000
0.0831 0.0215 0.0000
0.1124 0.0215 0.0000
0.1456 0.0215 0.0000
0.1818 0.0215 0.0000
0.2209 0.0215 0.0000
0.2630 0.0215 0.0000
0.3079 0.0215 0.0000
0.3539 0.0215 0.0000
0.4018 0.0215 0.0000
0.4506 0.0215 0.0000
0.4995 0.0215 0.0000
0.5484 0.0215 0.0000
0.5973 0.0215 0.0000
0.6442 0.0215 0.0000
0.6911 0.0215 0.0000
0.7351 0.0215 0.0000
0.7771 0.0215 0.0000
0.8172 0.0215 0.0000
0.8534 0.0215 0.0000
0.8866 0.0215 0.0000
0.9159 0.0215 0.0000
0.9404 0.0215 0.0000
0.9619 0.0215 0.0000
0.9785 0.0215 0.0000
0.9902 0.0215 0.0000
0.9980 0.0215 0.0000
1.0000 0.0215 0.0000
0.0000 0.0371 0.0000
0.0020 0.0371 0.0000
0.0098 0.0371 0.0000
0.0215 0.0371 0.0000
0.0371 0.0371 0.0000
0.0587 0.0371 0.0000
0.0831 0.0371 0.0000
0.1124 0.0371 0.0000
0.1456 0.0371 0.0000
0.1818 0.0371 0.0000
0.2209 0.0371 0.0000
0.2630 0.0371 0.0000
0.3079 0.0371 0.0000
0.3539 0.0371 0.0000
0.4018 0.0371 0.0000
0.4506 0.0371 0.0000
0.4995 0.0371 0.0000
0.5484 0.0371 0.0000
0.5973 0.0371 0.0000
0.6442 0.0371 0.0000
0.6911 0.0371 0.0000
0.7351 0.0371 0.0000
0.7771 0.0371 0.0000
0.8172 0.0371 0.0000
0.8534 0.0371 0.0000
0.8866 0.0371 0.0000
0.9159 0.0371 0.0000
0.9404 0.0371 0.0000
0.9619 0.0371 0.0000
0.9785 0.0371 0.0000
0.9902 0.0371 0.0000
0.9980 0.0371 0.0000
1.0000 0.0371 0.0000
0.0000 0.0587 0.0000
0.0020 0.0587 0.0000
0.0098 0.0587 0.0000
0.0215 0.0587 0.0000
0.0371 0.0587 0.0000
0.0587 0.0587 0.0000
0.0831 0.0587 0.0000
0.1124 0.0587 0.0000
0.1456 0.0587 0.0000
0.1818 0.0587 0.0000
0.2209 0.0587 0.0000
0.2630 0.0587 0.0000
0.3079 0.0587 0.0000
0.3539 0.0587 0.0000
0.4018 0.0587 0.0000
0.4506 0.0587 0.0000
0.4995 0.0587 0.0000
0.5484 0.0587 0.0000
0.5973 0.0587 0.0000
0.6442 0.0587 0.0000
0.6911 0.0587 0.0000
0.7351 0.0587 0.0000
0.7771 0.0587 0.0000
0.8172 0.0587 0.0000
0.8534 0.0587 0.0000
0.8866 0.0587 0.0000
0.9159 0.0587 0.0000
0.9404 0.0587 0.0000
0.9619 0.0587 0.0000
0.9785 0.0587 0.0000
0.9902 0.0587 0.0000
0.9980 0.0587 0.0000
1.0000 0.0587 0.0000
0.0000 0.0831 0.0000
0.0020 0.0831 0.0000
0.0098 0.0831 0.0000
0.0215 0.0831 0.0000
0.0371 0.0831 0.0000
0.0587 0.0831 0.0000
0.0831 0.0831 0.0000
0.1124 0.0831 0.0000
0.1456 0.0831 0.0000
0.1818 0.0831 0.0000
0.2209 0.0831 0.0000
0.2630 0.0831 0.0000
0.3079 0.0831 0.0000
0.3539 0.0831 0.0000
0.4018 0.0831 0.0000
0.4506 0.0831 0.0000
0.4995 0.0831 0.0000
0.5484 0.0831 0.0000
0.5973 0.0831 0.0000
0.6442 0.0831 0.0000
0.6911 0.0831 0.0000
0.7351 0.0831 0.0000
0.7771 0.0831 0.0000
0.8172 0.0831 0.0000
0.8534 0.0831 0.0000
0.8866 0.0831 0.0000
0.9159 0.0831 0.0000
0.9404 0.0831 0.0000
0.9619 0.0831 0.0000
0.9785 0.0831 0.0000
0.9902 0.0831 0.0000
0.9980 0.0831 0.0000
1.0000 0.0831 0.0000
0.0000 0.1124 0.0000
0.0020 0.1124 0.0000
0.0098 0.1124 0.0000
0.0215 0.1124 0.0000
0.0371 0.1124 0.0000
0.0587 0.1124 0.0000
0.0831 0.1124 0.0000
0.1124 0.1124 0.0000
0.1456 0.1124 0.0000
0.1818 0.1124 0.0000
0.2209 0.1124 0.0000
0.2630 0.1124 0.0000
0.3079 0.1124 0.0000
0.3539 0.1124 0.0000
0.4018 0.1124 0.0000
0.4506 0.1124 0.0000
0.4995 0.1124 0.0000
0.5484 0.1124 0.0000
0.5973 0.1124 0.0000
0.6442 0.1124 0.0000
0.6911 0.1124 0.0000
0.7351 0.1124 0.0000
0.7771 0.1124 0.0000
0.8172 0.1124 0.0000
0.8534 0.1124 0.0000
0.8866 0.1124 0.0000
0.9159 0.1124 0.0000
0.9404 0.1124 0.0000
0.9619 0.1124 0.0000
0.9785 0.1124 0.0000
0.9902 0.1124 0.0000
0.9980 0.1124 0.0000
1.0000 0.1124 0.0000
0.0000 0.1456 0.0000
0.0020 0.1456 0.0000
0.0098 0.1456 0.0000
0.0215 0.1456 0.0000
0.0371 0.1456 0.0000
0.0587 0.1456 0.0000
0.0831 0.1456 0.0000
0.1124 0.1456 0.0000
0.1456 0.1456 0.0000
0.1818 0.1456 0.0000
0.2209 0.1456 0.0000
0.2630 0.1456 0.0000
0.3079 0.1456 0.0000
0.3539 0.1456 0.0000
0.4018 0.1456 0.0000
0.4506 0.1456 0.0000
0.4995 0.1456 0.0000
0.5484 0.1456 0.0000
0.5973 0.1456 0.0000
0.6442 0.1456 0.0000
0.6911 0.1456 0.0000
0.7351 0.1456 0.0000
0.7771 0.1456 0.0000
0.8172 0.1456 0.0000
0.8534 0.1456 0.0000
0.8866 0.1456 0.0000
0.9159 0.1456 0.0000
0.9404 0.1456 0.0000
0.9619 0.1456 0.0000
0.9785 0.1456 0.0000
0.9902 0.1456 0.0000
0.9980 0.1456 0.0000
1.0000 0.1456 0.0000
0.0000 0.1818 0.0000
0.0020 0.1818 0.0000
0.0098 0.1818 0.0000
0.0215 0.1818 0.0000
0.0371 0.1818 0.0000
0.0587 0.1818 0.0000
0.0831 0.1818 0.0000
0.1124 0.1818 0.0000
0.1456 0.1818 0.0000
0.1818 0.1818 0.0000
0.2209 0.1818 0.0000
0.2630 0.1818 0.0000
0.3079 0.1818 0.0000
0.3539 0.1818 0.0000
0.4018 0.1818 0.0000
0.4506 0.1818 0.0000
0.4995 0.1818 0.0000
0.5484 0.1818 0.0000
0.5973 0.1818 0.0000
0.6442 0.1818 0.0000
0.6911 0.1818 0.0000
0.7351 0.1818 0.0000
0.7771 0.1818 0.0000
0.8172 0.1818 0.0000
0.8534 0.1818 0.0000
0.8866 0.1818 0.0000
0.9159 0.1818 0.0000
0.9404 0.1818 0.0000
0.9619 0.1818 0.0000
0.9785 0.1818 0.0000
0.9902 0.1818 0.0000
0.9980 0.1818 0.0000
1.0000 0.1818 0.0000
0.0000 0.2209 0.0000
0.0020 0.2209 0.0000
0.0098 0.2209 0.0000
0.0215 0.2209 0.0000
0.0371 0.2209 0.0000
0.0587 0.2209 0.0000
0.0831 0.2209 0.0000
0.1124 0.2209 0.0000
0.1456 0.2209 0.0000
0.1818 0.2209 0.0000
0.2209 0.2209 0.0000
0.2630 0.2209 0.0000
0.3079 0.2209 0.0000
0.3539 0.2209 0.0000
0.4018 0.2209 0.0000
0.4506 0.2209 0.0000
0.4995 0.2209 0.0000
0.5484 0.2209 0.0000
0.5973 0.2209 0.0000
0.6442 0.2209 0.0000
0.6911 0.2209 0.0000
0.7351 0.2209 0.0000
0.7771 0.2209 0.0000
0.8172 0.2209 0.0000
0.8534 0.2209 0.0000
0.8866 0.2209 0.0000
0.9159 0.2209 0.0000
0.9404 0.2209 0.0000
0.9619 0.2209 0.0000
0.9785 0.2209 0.0000
0.9902 0.2209 0.0000
0.9980 0.2209 0.0000
1.0000 0.2209 0.0000
0.0000 0.2630 0.0000
0.0020 0.2630 0.0000
0.0098 0.2630 0.0000
0.0215 0.2630 0.0000
0.0371 0.2630 0.0000
0.0587 0.2630 0.0000
0.0831 0.2630 0.0000
0.1124 0.2630 0.0000
0.1456 0.2630 0.0000
0.1818 0.2630 0.0000
0.2209 0.2630 0.0000
0.2630 0.2630 0.0000
0.3079 0.2630 0.0000
0.3539 0.2630 0.0000
0.4018 0.2630 0.0000
0.4506 0.2630 0.0000
0.4995 0.2630 0.0000
0.5484 0.2630 0.0000
0.5973 0.2630 0.0000
0.6442 0.2630 0.0000
0.6911 0.2630 0.0000
0.7351 0.2630 0.0000
0.7771 0.2630 0.0000
0.8172 0.2630 0.0000
0.8534 0.2630 0.0000
0.8866 0.2630 0.0000
0.9159 0.2630 0.0000
0.9404 0.2630 0.0000
0.9619 0.2630 0.0000
0.9785 0.2630 0.0000
0.9902 0.2630 0.0000
0.9980 0.2630 0.0000
1.0000 0.2630 0.0000
0.0000 0.3079 0.0000
0.0020 0.3079 0.0000
0.0098 0.3079 0.0000
0.0215 0.3079 0.0000
0.0371 0.3079 0.0000
0.0587 0.3079 0.0000
0.0831 0.3079 0.0000
0.1124 0.3079 0.0000
0.1456 0.3079 0.0000
0.1818 0.3079 0.0000
0.2209 0.3079 0.0000
0.2630 0.3079 0.0000
0.3079 0.3079 0.0000
0.3539 0.3079 0.0000
0.4018 0.3079 0.0000
0.4506 0.3079 0.0000
0.4995 0.3079 0.0000
0.5484 0.3079 0.0000
0.5973 0.3079 0.0000
0.6442 0.3079 0.0000
0.6911 0.3079 0.0000
0.7351 0.3079 0.0000
0.7771 0.3079 0.0000
0.8172 0.3079 0.0000
0.8534 0.3079 0.0000
0.8866 0.3079 0.0000
0.9159 0.3079 0.0000
0.9404 0.3079 0.0000
0.9619 0.3079 0.0000
0.9785 0.3079 0.0000
0.9902 0.3079 0.0000
0.9980 0.3079 0.0000
1.0000 0.3079 0.0000
0.0000 0.3539 0.0000
0.0020 0.3539 0.0000
0.0098 0.3539 0.0000
0.0215 0.3539 0.0000
0.0371 0.3539 0.0000
0.0587 0.3539 0.0000
0.0831 0.3539 0.0000
0.1124 0.3539 0.0000
0.1456 0.3539 0.0000
0.1818 0.3539 0.0000
0.2209 0.3539 0.0000
0.2630 0.3539 0.0000
0.3079 0.3539 0.0000
0.3539 0.3539 0.0000
0.4018 0.3539 0.0000
0.4506 0.3539 0.0000
0.4995 0.3539 0.0000
0.5484 0.3539 0.0000
0.5973 0.3539 0.0000
0.6442 0.3539 0.0000
0.6911 0.3539 0.0000
0.7351 0.3539 0.0000
0.7771 0.3539 0.0000
0.8172 0.3539 0.0000
0.8534 0.3539 0.0000
0.8866 0.3539 0.0000
0.9159 0.3539 0.0000
0.9404 0.3539 0.0000
0.9619 0.3539 0.0000
0.9785 0.3539 0.0000
0.9902 0.3539 0.0000
0.9980 0.3539 0.0000
1.0000 0.3539 0.0000
0.0000 0.4018 0.0000
0.0020 0.4018 0.0000
0.0098 0.4018 0.0000
0.0215 0.4018 0.0000
0.0371 0.4018 0.0000
0.0587 0.4018 0.0000
0.0831 0.4018 0.0000
0.1124 0.4018 0.0000
0.1456 0.4018 0.0000
0.1818 0.4018 0.0000
0.2209 0.4018 0.0000
0.2630 0.4018 0.0000
0.3079 0.4018 0.0000
0.3539 0.4018 0.0000
0.4018 0.4018 0.0000
0.4506 0.4018 0.0000
0.4995 0.4018 0.0000
0.5484 0.4018 0.0000
0.5973 0.4018 0.0000
0.6442 0.4018 0.0000
0.6911 0.4018 0.0000
0.7351 0.4018 0.0000
0.7771 0.4018 0.0000
0.8172 0.4018 0.0000
0.8534 0.4018 0.0000
0.8866 0.4018 0.0000
0.9159 0.4018 0.0000
0.9404 0.4018 0.0000
0.9619 0.4018 0.0000
0.9785 0.4018 0.0000
0.9902 0.4018 0.0000
0.9980 0.4018 0.0000
1.0000 0.4018 0.0000
0.0000 0.4506 0.0000
0.0020 0.4506 0.0000
0.0098 0.4506 0.0000
0.0215 0.4506 0.0000
0.0371 0.4506 0.0000
0.0587 0.4506 0.0000
0.0831 0.4506 0.0000
0.1124 0.4506 0.0000
0.1456 0.4506 0.0000
0.1818 0.4506 0.0000
0.2209 0.4506 0.0000
0.2630 0.4506 0.0000
0.3079 0.4506 0.0000
0.3539 0.4506 0.0000
0.4018 0.4506 0.0000
0.4506 0.4506 0.0000
0.4995 0.4506 0.0000
0.5484 0.4506 0.0000
0.5973 0.4506 0.0000
0.6442 0.4506 0.0000
0.6911 0.4506 0.0000
0.7351 0.4506 0.0000
0.7771 0.4506 0.0000
0.8172 0.4506 0.0000
0.8534 0.4506 0.0000
0.8866 0.4506 0.0000
0.9159 0.4506 0.0000
0.9404 0.4506 0.0000
0.9619 0.4506 0.0000
0.9785 0.4506 0.0000
0.9902 0.4506 0.0000
0.9980 0.4506 0.0000
1.0000 0.4506 0.0000
0.0000 0.4995 0.0000
0.0020 0.4995 0.0000
0.0098 0.4995 0.0000
0.0215 0.4995 0.0000
0.0371 0.4995 0.0000
0.0587 0.4995 0.0000
0.0831 0.4995 0.0000
0.1124 0.4995 0.0000
0.1456 0.4995 0.0000
0.1818 0.4995 0.0000
0.2209 0.4995 0.0000
0.2630 0.4995 0.0000
0.3079 0.4995 0.0000
0.3539 0.4995 0.0000
0.4018 0.4995 0.0000
0.4506 0.4995 0.0000
0.4995 0.4995 0.0000
0.5484 0.4995 0.0000
0.5973 0.4995 0.0000
0.6442 0.4995 0.0000
0.6911 0.4995 0.0000
0.7351 0.4995 0.0000
0.7771 0.4995 0.0000
0.8172 0.4995 0.0000
0.8534 0.4995 0.0000
0.8866 0.4995 0.0000
0.9159 0.4995 0.0000
0.9404 0.4995 0.0000
0.9619 0.4995 0.0000
0.9785 0.4995 0.0000
0.9902 0.4995 0.0000
0.9980 0.4995 0.0000
1.0000 0.4995 0.0000
0.0000 0.5484 0.0000
0.0020 0.5484 0.0000
0.0098 0.5484 0.0000
0.0215 0.5484 0.0000
0.0371 0.5484 0.0000
0.0587 0.5484 0.0000
0.0831 0.5484 0.0000
0.1124 0.5484 0.0000
0.1456 0.5484 0.0000
0.1818 0.5484 0.0000
0.2209 0.5484 0.0000
0.2630 0.5484 0.0000
0.3079 0.5484 0.0000
0.3539 0.5484 0.0000
0.4018 0.5484 0.0000
0.4506 0.5484 0.0000
0.4995 0.5484 0.0000
0.5484 0.5484 0.0000
0.5973 0.5484 0.0000
0.6442 0.5484 0.0000
0.6911 0.5484 0.0000
0.7351 0.5484 0.0000
0.7771 0.5484 0.0000
0.8172 0.5484 0.0000
0.8534 0.5484 0.0000
0.8866 0.5484 0.0000
0.9159 0.5484 0.0000
0.9404 0.5484 0.0000
0.9619 0.5484 0.0000
0.9785 0.5484 0.0000
0.9902 0.5484 0.0000
0.9980 0.5484 0.0000
1.0000 0.5484 0.0000
0.0000 0.5973 0.0000
0.0020 0.5973 0.0000
0.0098 0.5973 0.0000
0.0215 0.5973 0.0000
0.0371 0.5973 0.0000
0.0587 0.5973 0.0000
0.0831 0.5973 0.0000
0.1124 0.5973 0.0000
0.1456 0.5973 0.0000
0.1818 0.5973 0.0000
0.2209 0.5973 0.0000
0.2630 0.5973 0.0000
0.3079 0.5973 0.0000
0.3539 0.5973 0.0000
0.4018 0.5973 0.0000
0.4506 0.5973 0.0000
0.4995 0.5973 0.0000
0.5484 0.5973 0.0000
0.5973 0.5973 0.0000
0.6442 0.5973 0.0000
0.6911 0.5973 0.0000
0.7351 0.5973 0.0000
0.7771 0.5973 0.0000
0.8172 0.5973 0.0000
0.8534 0.5973 0.0000
0.8866 0.5973 0.0000
0.9159 0.5973 0.0000
0.9404 0.5973 0.0000
0.9619 0.5973 0.0000
0.9785 0.5973 0.0000
0.9902 0.5973 0.0000
0.9980 0.5973 0.0000
1.0000 0.5973 0.0000
0.0000 0.6442 0.0000
0.0020 0.6442 0.0000
0.0098 0.6442 0.0000
0.0215 0.6442 0.0000
0.0371 0.6442 0.0000
0.0587 0.6442 0.0000
0.0831 0.6442 0.0000
0.1124 0.6442 0.0000
0.1456 0.6442 0.0000
0.1818 0.6442 0.0000
0.2209 0.6442 0.0000
0.2630 0.6442 0.0000
0.3079 0.6442 0.0000
0.3539 0.6442 0.0000
0.4018 0.6442 0.0000
0.4506 0.6442 0.0000
0.4995 0.6442 0.0000
0.5484 0.6442 0.0000
0.5973 0.6442 0.0000
0.6442 0.6442 0.0000
0.6911 0.6442 0.0000
0.7351 0.6442 0.0000
0.7771 0.6442 0.0000
0.8172 0.6442 0.0000
0.8534 0.6442 0.0000
0.8866 0.6442 0.0000
0.9159 0.6442 0.0000
0.9404 0.6442 0.0000
0.9619 0.6442 0.0000
0.9785 0.6442 0.0000
0.9902 0.6442 0.0000
0.9980 0.6442 0.0000
1.0000 0.6442 0.0000
0.0000 0.6911 0.0000
0.0020 0.6911 0.0000
0.0098 0.6911 0.0000
0.0215 0.6911 0.0000
0.0371 0.6911 0.0000
0.0587 0.6911 0.0000
0.0831 0.6911 0.0000
0.1124 0.6911 0.0000
0.1456 0.6911 0.0000
0.1818 0.6911 0.0000
0.2209 0.6911 0.0000
0.2630 0.6911 0.0000
0.3079 0.6911 0.0000
0.3539 0.6911 0.0000
0.4018 0.6911 0.0000
0.4506 0.6911 0.0000
0.4995 0.6911 0.0000
0.5484 0.6911 0.0000
0.5973 0.6911 0.0000
0.6442 0.6911 0.0000
0.6911 0.6911 0.0000
0.7351 0.6911 0.0000
0.7771 0.6911 0.0000
0.8172 0.6911 0.0000
0.8534 0.6911 0.0000
0.8866 0.6911 0.0000
0.9159 0.6911 0.0000
0.9404 0.6911 0.0000
0.9619 0.6911 0.0000
0.9785 0.6911 0.0000
0.9902 0.6911 0.0000
0.9980 0.6911 0.0000
1.0000 0.6911 0.0000
0.0000 0.7351 0.0000
0.0020 0.7351 0.0000
0.0098 0.7351 0.0000
0.0215 0.7351 0.0000
0.0371 0.7351 0.0000
0.0587 0.7351 0.0000
0.0831 0.7351 0.0000
0.1124 0.7351 0.0000
0.1456 0.7351 0.0000
0.1818 0.7351 0.0000
0.2209 0.7351 0.0000
0.2630 0.7351 0.0000
0.3079 0.7351 0.0000
0.3539 0.7351 0.0000
0.4018 0.7351 0.0000
0.4506 0.7351 0.0000
0.4995 0.7351 0.0000
0.5484 0.7351 0.0000
0.5973 0.7351 0.0000
0.6442 0.7351 0.0000
0.6911 0.7351 0.0000
0.7351 0.7351 0.0000
0.7771 0.7351 0.0000
0.8172 0.7351 0.0000
0.8534 0.7351 0.0000
0.8866 0.7351 0.0000
0.9159 0.7351 0.0000
0.9404 0.7351 0.0000
0.9619 0.7351 0.0000
0.9785 0.7351 0.0000
0.9902 0.7351 0.0000
0.9980 0.7351 0.0000
1.0000 0.7351 0.0000
0.0000 0.7771 0.0000
0.0020 0.7771 0.0000
0.0098 0.7771 0.0000
0.0215 0.7771 0.0000
0.0371 0.7771 0.0000
0.0587 0.7771 0.0000
0.0831 0.7771 0.0000
0.1124 0.7771 0.0000
0.1456 0.7771 0.0000
0.1818 0.7771 0.0000
0.2209 0.7771 0.0000
0.2630 0.7771 0.0000
0.3079 0.7771 0.0000
0.3539 0.7771 0.0000
0.4018 0.7771 0.0000
0.4506 0.7771 0.0000
0.4995 0.7771 0.0000
0.5484 0.7771 0.0000
0.5973 0.7771 0.0000
0.6442 0.7771 0.0000
0.6911 0.7771 0.0000
0.7351 0.7771 0.0000
0.7771 0.7771 0.0000
0.8172 0.7771 0.0000
0.8534 0.7771 0.0000
0.8866 0.7771 0.0000
0.9159 0.7771 0.0000
0.9404 0.7771 0.0000
0.9619 0.7771 0.0000
0.9785 0.7771 0.0000
0.9902 0.7771 0.0000
0.9980 0.7771 0.0000
1.0000 0.7771 0.0000
0.0000 0.8172 0.0000
0.0020 0.8172 0.0000
0.0098 0.8172 0.0000
0.0215 0.8172 0.0000
0.0371 0.8172 0.0000
0.0587 0.8172 0.0000
0.0831 0.8172 0.0000
0.1124 0.8172 0.0000
0.1456 0.8172 0.0000
0.1818 0.8172 0.0000
0.2209 0.8172 0.0000
0.2630 0.8172 0.0000
0.3079 0.8172 0.0000
0.3539 0.8172 0.0000
0.4018 0.8172 0.0000
0.4506 0.8172 0.0000
0.4995 0.8172 0.0000
0.5484 0.8172 0.0000
0.5973 0.8172 0.0000
0.6442 0.8172 0.0000
0.6911 0.8172 0.0000
0.7351 0.8172 0.0000
0.7771 0.8172 0.0000
0.8172 0.8172 0.0000
0.8534 0.8172 0.0000
0.8866 0.8172 0.0000
0.9159 0.8172 0.0000
0.9404 0.8172 0.0000
0.9619 0.8172 0.0000
0.9785 0.8172 0.0000
0.9902 0.8172 0.0000
0.9980 0.8172 0.0000
1.0000 0.8172 0.0000
0.0000 0.8534 0.0000
0.0020 0.8534 0.0000
0.0098 0.8534 0.0000
0.0215 0.8534 0.0000
0.0371 0.8534 0.0000
0.0587 0.8534 0.0000
0.0831 0.8534 0.0000
0.1124 0.8534 0.0000
0.1456 0.8534 0.0000
0.1818 0.8534 0.0000
0.2209 0.8534 0.0000
0.2630 0.8534 0.0000
0.3079 0.8534 0.0000
0.3539 0.8534 0.0000
0.4018 0.8534 0.0000
0.4506 0.8534 0.0000
0.4995 0.8534 0.0000
0.5484 0.8534 0.0000
0.5973 0.8534 0.0000
0.6442 0.8534 0.0000
0.6911 0.8534 0.0000
0.7351 0.8534 0.0000
0.7771 0.8534 0.0000
0.8172 0.8534 0.0000
0.8534 0.8534 0.0000
0.8866 0.8534 0.0000
0.9159 0.8534 0.0000
0.9404 0.8534 0.0000
0.9619 0.8534 0.0000
0.9785 0.8534 0.0000
0.9902 0.8534 0.0000
0.9980 0.8534 0.0000
1.0000 0.8534 0.0000
0.0000 0.8866 0.0000
0.0020 0.8866 0.0000
0.0098 0.8866 0.0000
0.0215 0.8866 0.0000
0.0371 0.8866 0.0000
0.0587 0.8866 0.0000
0.0831 0.8866 0.0000
0.1124 0.8866 0.0000
0.1456 0.8866 0.0000
0.1818 0.8866 0.0000
0.2209 0.8866 0.0000
0.2630 0.8866 0.0000
0.3079 0.8866 0.0000
0.3539 0.8866 0.0000
0.4018 0.8866 0.0000
0.4506 0.8866 0.0000
0.4995 0.8866 0.0000
0.5484 0.8866 0.0000
0.5973 0.8866 0.0000
0.6442 0.8866 0.0000
0.6911 0.8866 0.0000
0.7351 0.8866 0.0000
0.7771 0.8866 0.0000
0.8172 0.8866 0.0000
0.8534 0.8866 0.0000
0.8866 0.8866 0.0000
0.9159 0.8866 0.0000
0.9404 0.8866 0.0000
0.9619 0.8866 0.0000
0.9785 0.8866 0.0000
0.9902 0.8866 0.0000
0.9980 0.8866 0.0000
1.0000 0.8866 0.0000
0.0000 0.9159 0.0000
0.0020 0.9159 0.0000
0.0098 0.9159 0.0000
0.0215 0.9159 0.0000
0.0371 0.9159 0.0000
0.0587 0.9159 0.0000
0.0831 0.9159 0.0000
0.1124 0.9159 0.0000
0.1456 0.9159 0.0000
0.1818 0.9159 0.0000
0.2209 0.9159 0.0000
0.2630 0.9159 0.0000
0.3079 0.9159 0.0000
0.3539 0.9159 0.0000
0.4018 0.9159 0.0000
0.4506 0.9159 0.0000
0.4995 0.9159 0.0000
0.5484 0.9159 0.0000
0.5973 0.9159 0.0000
0.6442 0.9159 0.0000
0.6911 0.9159 0.0000
0.7351 0.9159 0.0000
0.7771 0.9159 0.0000
0.8172 0.9159 0.0000
0.8534 0.9159 0.0000
0.8866 0.9159 0.0000
0.9159 0.9159 0.0000
0.9404 0.9159 0.0000
0.9619 0.9159 0.0000
0.9785 0.9159 0.0000
0.9902 0.9159 0.0000
0.9980 0.9159 0.0000
1.0000 0.9159 0.0000
0.0000 0.9404 0.0000
0.0020 0.9404 0.0000
0.0098 0.9404 0.0000
0.0215 0.9404 0.0000
0.0371 0.9404 0.0000
0.0587 0.9404 0.0000
0.0831 0.9404 0.0000
0.1124 0.9404 0.0000
0.1456 0.9404 0.0000
