SpeedLens/Resources/LUTS/teste.CUBE
TITLE "Testinho"
LUT_3D_SIZE 4
DOMAIN_MIN 0.0 0.0 0.0
DOMAIN_MAX 1.0 1.0 1.0
0.000000 0.000000 0.000000
0.300816 0.045411 0.022034
0.586053 0.118532 0.000000
0.925414 0.118502 0.000000
0.000000 0.315251 0.022644
0.283391 0.316167 0.033356
0.575860 0.323583 0.000000
0.925963 0.331487 0.000000
0.000000 0.613581 0.000000
0.228702 0.613428 0.000000
0.558801 0.613245 0.000000
0.942473 0.632959 0.000000
0.000000 0.995239 0.000000
0.227726 0.995331 0.000000
0.684535 0.996551 0.000000
1.000000 1.000000 0.000000
0.000000 0.038575 0.311070
0.290196 0.071992 0.308171
0.579706 0.110780 0.301427
0.929351 0.000000 0.284672
0.000000 0.313207 0.303655
0.277012 0.314519 0.301671
0.569207 0.322545 0.295567
0.931243 0.319066 0.271458
0.000000 0.612543 0.280186
0.217838 0.612482 0.278691
0.558099 0.612665 0.276585
0.949676 0.630121 0.233494
0.000000 1.000000 0.000000
0.000000 1.000000 0.000000
0.671931 1.000000 0.000000
1.000000 1.000000 0.000000
0.000000 0.010163 0.586725
0.286900 0.014343 0.584802
0.574273 0.113863 0.576715
0.933837 0.000000 0.593683
0.000000 0.310582 0.580591
0.269261 0.310857 0.579187
0.568841 0.316869 0.573358
0.944854 0.260410 0.589715
0.000000 0.612116 0.568383
0.151247 0.612421 0.568078
0.558801 0.611444 0.566339
0.992828 0.594263 0.557580
0.000000 1.000000 0.553979
0.000000 1.000000 0.539391
0.573724 1.000000 0.520470
1.000000 1.000000 0.518486
0.000000 0.000000 0.988220
0.265202 0.000000 0.986786
0.646357 0.000000 0.980591
1.000000 0.000000 0.975677
0.000000 0.272496 0.994568
0.171298 0.262486 0.993164
0.635431 0.216983 0.986694
1.000000 0.065522 0.981262
0.000000 0.639521 1.000000
0.000000 0.628504 1.000000
0.541680 0.591180 1.000000
1.000000 0.554345 1.000000
0.000000 1.000000 1.000000
0.000000 1.000000 1.000000
0.500786 1.000000 1.000000
1.000000 1.000000 1.000000
